<?xml version="1.0" encoding="UTF-8"?>
<map version="1.9" tiledversion="1.9.2" orientation="orthogonal" renderorder="right-down" width="512" height="512" tilewidth="8" tileheight="8" infinite="0" nextlayerid="3" nextobjectid="1">
 <tileset firstgid="1" name="tiles" tilewidth="8" tileheight="8" tilecount="256" columns="32">
  <image source="tiles.png" width="256" height="64"/>
  <tile id="0">
   <properties>
    <property name="attribute" value="0"/>
    <property name="palette" value="0"/>
    <property name="priority" value="0"/>
   </properties>
  </tile>
  <tile id="1">
   <properties>
    <property name="attribute" value="0"/>
    <property name="palette" value="0"/>
    <property name="priority" value="0"/>
   </properties>
  </tile>
  <tile id="2">
   <properties>
    <property name="attribute" value="0"/>
    <property name="palette" value="0"/>
    <property name="priority" value="0"/>
   </properties>
  </tile>
  <tile id="3">
   <properties>
    <property name="attribute" value="0"/>
    <property name="palette" value="0"/>
    <property name="priority" value="0"/>
   </properties>
  </tile>
  <tile id="4">
   <properties>
    <property name="attribute" value="0"/>
    <property name="palette" value="0"/>
    <property name="priority" value="0"/>
   </properties>
  </tile>
  <tile id="5">
   <properties>
    <property name="attribute" value="0"/>
    <property name="palette" value="0"/>
    <property name="priority" value="0"/>
   </properties>
  </tile>
  <tile id="6">
   <properties>
    <property name="attribute" value="0"/>
    <property name="palette" value="0"/>
    <property name="priority" value="0"/>
   </properties>
  </tile>
  <tile id="7">
   <properties>
    <property name="attribute" value="0"/>
    <property name="palette" value="0"/>
    <property name="priority" value="0"/>
   </properties>
  </tile>
  <tile id="8">
   <properties>
    <property name="attribute" value="0"/>
    <property name="palette" value="0"/>
    <property name="priority" value="0"/>
   </properties>
  </tile>
  <tile id="9">
   <properties>
    <property name="attribute" value="0"/>
    <property name="palette" value="0"/>
    <property name="priority" value="0"/>
   </properties>
  </tile>
  <tile id="10">
   <properties>
    <property name="attribute" value="0"/>
    <property name="palette" value="0"/>
    <property name="priority" value="0"/>
   </properties>
  </tile>
  <tile id="11">
   <properties>
    <property name="attribute" value="0"/>
    <property name="palette" value="0"/>
    <property name="priority" value="0"/>
   </properties>
  </tile>
  <tile id="12">
   <properties>
    <property name="attribute" value="0"/>
    <property name="palette" value="0"/>
    <property name="priority" value="0"/>
   </properties>
  </tile>
  <tile id="13">
   <properties>
    <property name="attribute" value="0"/>
    <property name="palette" value="0"/>
    <property name="priority" value="0"/>
   </properties>
  </tile>
  <tile id="14">
   <properties>
    <property name="attribute" value="0"/>
    <property name="palette" value="0"/>
    <property name="priority" value="0"/>
   </properties>
  </tile>
  <tile id="15">
   <properties>
    <property name="attribute" value="0"/>
    <property name="palette" value="0"/>
    <property name="priority" value="0"/>
   </properties>
  </tile>
  <tile id="16">
   <properties>
    <property name="attribute" value="0"/>
    <property name="palette" value="0"/>
    <property name="priority" value="0"/>
   </properties>
  </tile>
  <tile id="17">
   <properties>
    <property name="attribute" value="0"/>
    <property name="palette" value="0"/>
    <property name="priority" value="0"/>
   </properties>
  </tile>
  <tile id="18">
   <properties>
    <property name="attribute" value="0"/>
    <property name="palette" value="0"/>
    <property name="priority" value="0"/>
   </properties>
  </tile>
  <tile id="19">
   <properties>
    <property name="attribute" value="0"/>
    <property name="palette" value="0"/>
    <property name="priority" value="0"/>
   </properties>
  </tile>
  <tile id="20">
   <properties>
    <property name="attribute" value="0"/>
    <property name="palette" value="0"/>
    <property name="priority" value="0"/>
   </properties>
  </tile>
  <tile id="21">
   <properties>
    <property name="attribute" value="0"/>
    <property name="palette" value="0"/>
    <property name="priority" value="0"/>
   </properties>
  </tile>
  <tile id="22">
   <properties>
    <property name="attribute" value="0"/>
    <property name="palette" value="0"/>
    <property name="priority" value="0"/>
   </properties>
  </tile>
  <tile id="23">
   <properties>
    <property name="attribute" value="0"/>
    <property name="palette" value="0"/>
    <property name="priority" value="0"/>
   </properties>
  </tile>
  <tile id="24">
   <properties>
    <property name="attribute" value="0"/>
    <property name="palette" value="0"/>
    <property name="priority" value="0"/>
   </properties>
  </tile>
  <tile id="25">
   <properties>
    <property name="attribute" value="0"/>
    <property name="palette" value="0"/>
    <property name="priority" value="0"/>
   </properties>
  </tile>
  <tile id="26">
   <properties>
    <property name="attribute" value="0"/>
    <property name="palette" value="0"/>
    <property name="priority" value="0"/>
   </properties>
  </tile>
  <tile id="27">
   <properties>
    <property name="attribute" value="0"/>
    <property name="palette" value="0"/>
    <property name="priority" value="0"/>
   </properties>
  </tile>
  <tile id="28">
   <properties>
    <property name="attribute" value="0"/>
    <property name="palette" value="0"/>
    <property name="priority" value="0"/>
   </properties>
  </tile>
  <tile id="29">
   <properties>
    <property name="attribute" value="0"/>
    <property name="palette" value="0"/>
    <property name="priority" value="0"/>
   </properties>
  </tile>
  <tile id="30">
   <properties>
    <property name="attribute" value="0"/>
    <property name="palette" value="0"/>
    <property name="priority" value="0"/>
   </properties>
  </tile>
  <tile id="31">
   <properties>
    <property name="attribute" value="0"/>
    <property name="palette" value="0"/>
    <property name="priority" value="0"/>
   </properties>
  </tile>
  <tile id="32">
   <properties>
    <property name="attribute" value="0"/>
    <property name="palette" value="0"/>
    <property name="priority" value="0"/>
   </properties>
  </tile>
  <tile id="33">
   <properties>
    <property name="attribute" value="0"/>
    <property name="palette" value="0"/>
    <property name="priority" value="0"/>
   </properties>
  </tile>
  <tile id="34">
   <properties>
    <property name="attribute" value="0"/>
    <property name="palette" value="0"/>
    <property name="priority" value="0"/>
   </properties>
  </tile>
  <tile id="35">
   <properties>
    <property name="attribute" value="0"/>
    <property name="palette" value="0"/>
    <property name="priority" value="0"/>
   </properties>
  </tile>
  <tile id="36">
   <properties>
    <property name="attribute" value="0"/>
    <property name="palette" value="0"/>
    <property name="priority" value="0"/>
   </properties>
  </tile>
  <tile id="37">
   <properties>
    <property name="attribute" value="0"/>
    <property name="palette" value="0"/>
    <property name="priority" value="0"/>
   </properties>
  </tile>
  <tile id="38">
   <properties>
    <property name="attribute" value="0"/>
    <property name="palette" value="0"/>
    <property name="priority" value="0"/>
   </properties>
  </tile>
  <tile id="39">
   <properties>
    <property name="attribute" value="0"/>
    <property name="palette" value="0"/>
    <property name="priority" value="0"/>
   </properties>
  </tile>
  <tile id="40">
   <properties>
    <property name="attribute" value="0"/>
    <property name="palette" value="0"/>
    <property name="priority" value="0"/>
   </properties>
  </tile>
  <tile id="41">
   <properties>
    <property name="attribute" value="0"/>
    <property name="palette" value="0"/>
    <property name="priority" value="0"/>
   </properties>
  </tile>
  <tile id="42">
   <properties>
    <property name="attribute" value="0"/>
    <property name="palette" value="0"/>
    <property name="priority" value="0"/>
   </properties>
  </tile>
  <tile id="43">
   <properties>
    <property name="attribute" value="0"/>
    <property name="palette" value="0"/>
    <property name="priority" value="0"/>
   </properties>
  </tile>
  <tile id="44">
   <properties>
    <property name="attribute" value="0"/>
    <property name="palette" value="0"/>
    <property name="priority" value="0"/>
   </properties>
  </tile>
  <tile id="45">
   <properties>
    <property name="attribute" value="0"/>
    <property name="palette" value="0"/>
    <property name="priority" value="0"/>
   </properties>
  </tile>
  <tile id="46">
   <properties>
    <property name="attribute" value="0"/>
    <property name="palette" value="0"/>
    <property name="priority" value="0"/>
   </properties>
  </tile>
  <tile id="47">
   <properties>
    <property name="attribute" value="0"/>
    <property name="palette" value="0"/>
    <property name="priority" value="0"/>
   </properties>
  </tile>
  <tile id="48">
   <properties>
    <property name="attribute" value="0"/>
    <property name="palette" value="0"/>
    <property name="priority" value="0"/>
   </properties>
  </tile>
  <tile id="49">
   <properties>
    <property name="attribute" value="0"/>
    <property name="palette" value="0"/>
    <property name="priority" value="0"/>
   </properties>
  </tile>
  <tile id="50">
   <properties>
    <property name="attribute" value="0"/>
    <property name="palette" value="0"/>
    <property name="priority" value="0"/>
   </properties>
  </tile>
  <tile id="51">
   <properties>
    <property name="attribute" value="0"/>
    <property name="palette" value="0"/>
    <property name="priority" value="0"/>
   </properties>
  </tile>
  <tile id="52">
   <properties>
    <property name="attribute" value="0"/>
    <property name="palette" value="0"/>
    <property name="priority" value="0"/>
   </properties>
  </tile>
  <tile id="53">
   <properties>
    <property name="attribute" value="0"/>
    <property name="palette" value="0"/>
    <property name="priority" value="0"/>
   </properties>
  </tile>
  <tile id="54">
   <properties>
    <property name="attribute" value="0"/>
    <property name="palette" value="0"/>
    <property name="priority" value="0"/>
   </properties>
  </tile>
  <tile id="55">
   <properties>
    <property name="attribute" value="0"/>
    <property name="palette" value="0"/>
    <property name="priority" value="0"/>
   </properties>
  </tile>
  <tile id="56">
   <properties>
    <property name="attribute" value="0"/>
    <property name="palette" value="0"/>
    <property name="priority" value="0"/>
   </properties>
  </tile>
  <tile id="57">
   <properties>
    <property name="attribute" value="0"/>
    <property name="palette" value="0"/>
    <property name="priority" value="0"/>
   </properties>
  </tile>
  <tile id="58">
   <properties>
    <property name="attribute" value="0"/>
    <property name="palette" value="0"/>
    <property name="priority" value="0"/>
   </properties>
  </tile>
  <tile id="59">
   <properties>
    <property name="attribute" value="0"/>
    <property name="palette" value="0"/>
    <property name="priority" value="0"/>
   </properties>
  </tile>
  <tile id="60">
   <properties>
    <property name="attribute" value="0"/>
    <property name="palette" value="0"/>
    <property name="priority" value="0"/>
   </properties>
  </tile>
  <tile id="61">
   <properties>
    <property name="attribute" value="0"/>
    <property name="palette" value="0"/>
    <property name="priority" value="0"/>
   </properties>
  </tile>
  <tile id="62">
   <properties>
    <property name="attribute" value="0"/>
    <property name="palette" value="0"/>
    <property name="priority" value="0"/>
   </properties>
  </tile>
  <tile id="63">
   <properties>
    <property name="attribute" value="0"/>
    <property name="palette" value="0"/>
    <property name="priority" value="0"/>
   </properties>
  </tile>
  <tile id="64">
   <properties>
    <property name="attribute" value="0"/>
    <property name="palette" value="0"/>
    <property name="priority" value="0"/>
   </properties>
  </tile>
  <tile id="65">
   <properties>
    <property name="attribute" value="0"/>
    <property name="palette" value="0"/>
    <property name="priority" value="0"/>
   </properties>
  </tile>
  <tile id="66">
   <properties>
    <property name="attribute" value="0"/>
    <property name="palette" value="0"/>
    <property name="priority" value="0"/>
   </properties>
  </tile>
  <tile id="67">
   <properties>
    <property name="attribute" value="0"/>
    <property name="palette" value="0"/>
    <property name="priority" value="0"/>
   </properties>
  </tile>
  <tile id="68">
   <properties>
    <property name="attribute" value="0"/>
    <property name="palette" value="0"/>
    <property name="priority" value="0"/>
   </properties>
  </tile>
  <tile id="69">
   <properties>
    <property name="attribute" value="0"/>
    <property name="palette" value="0"/>
    <property name="priority" value="0"/>
   </properties>
  </tile>
  <tile id="70">
   <properties>
    <property name="attribute" value="0"/>
    <property name="palette" value="0"/>
    <property name="priority" value="0"/>
   </properties>
  </tile>
  <tile id="71">
   <properties>
    <property name="attribute" value="0"/>
    <property name="palette" value="0"/>
    <property name="priority" value="0"/>
   </properties>
  </tile>
  <tile id="72">
   <properties>
    <property name="attribute" value="0"/>
    <property name="palette" value="0"/>
    <property name="priority" value="0"/>
   </properties>
  </tile>
  <tile id="73">
   <properties>
    <property name="attribute" value="0"/>
    <property name="palette" value="0"/>
    <property name="priority" value="0"/>
   </properties>
  </tile>
  <tile id="74">
   <properties>
    <property name="attribute" value="0"/>
    <property name="palette" value="0"/>
    <property name="priority" value="0"/>
   </properties>
  </tile>
  <tile id="75">
   <properties>
    <property name="attribute" value="0"/>
    <property name="palette" value="0"/>
    <property name="priority" value="0"/>
   </properties>
  </tile>
  <tile id="76">
   <properties>
    <property name="attribute" value="0"/>
    <property name="palette" value="0"/>
    <property name="priority" value="0"/>
   </properties>
  </tile>
  <tile id="77">
   <properties>
    <property name="attribute" value="0"/>
    <property name="palette" value="0"/>
    <property name="priority" value="0"/>
   </properties>
  </tile>
  <tile id="78">
   <properties>
    <property name="attribute" value="0"/>
    <property name="palette" value="0"/>
    <property name="priority" value="0"/>
   </properties>
  </tile>
  <tile id="79">
   <properties>
    <property name="attribute" value="0"/>
    <property name="palette" value="0"/>
    <property name="priority" value="0"/>
   </properties>
  </tile>
  <tile id="80">
   <properties>
    <property name="attribute" value="0"/>
    <property name="palette" value="0"/>
    <property name="priority" value="0"/>
   </properties>
  </tile>
  <tile id="81">
   <properties>
    <property name="attribute" value="0"/>
    <property name="palette" value="0"/>
    <property name="priority" value="0"/>
   </properties>
  </tile>
  <tile id="82">
   <properties>
    <property name="attribute" value="0"/>
    <property name="palette" value="0"/>
    <property name="priority" value="0"/>
   </properties>
  </tile>
  <tile id="83">
   <properties>
    <property name="attribute" value="0"/>
    <property name="palette" value="0"/>
    <property name="priority" value="0"/>
   </properties>
  </tile>
  <tile id="84">
   <properties>
    <property name="attribute" value="0"/>
    <property name="palette" value="0"/>
    <property name="priority" value="0"/>
   </properties>
  </tile>
  <tile id="85">
   <properties>
    <property name="attribute" value="0"/>
    <property name="palette" value="0"/>
    <property name="priority" value="0"/>
   </properties>
  </tile>
  <tile id="86">
   <properties>
    <property name="attribute" value="0"/>
    <property name="palette" value="0"/>
    <property name="priority" value="0"/>
   </properties>
  </tile>
  <tile id="87">
   <properties>
    <property name="attribute" value="0"/>
    <property name="palette" value="0"/>
    <property name="priority" value="0"/>
   </properties>
  </tile>
  <tile id="88">
   <properties>
    <property name="attribute" value="0"/>
    <property name="palette" value="0"/>
    <property name="priority" value="0"/>
   </properties>
  </tile>
  <tile id="89">
   <properties>
    <property name="attribute" value="0"/>
    <property name="palette" value="0"/>
    <property name="priority" value="0"/>
   </properties>
  </tile>
  <tile id="90">
   <properties>
    <property name="attribute" value="0"/>
    <property name="palette" value="0"/>
    <property name="priority" value="0"/>
   </properties>
  </tile>
  <tile id="91">
   <properties>
    <property name="attribute" value="0"/>
    <property name="palette" value="0"/>
    <property name="priority" value="0"/>
   </properties>
  </tile>
  <tile id="92">
   <properties>
    <property name="attribute" value="0"/>
    <property name="palette" value="0"/>
    <property name="priority" value="0"/>
   </properties>
  </tile>
  <tile id="93">
   <properties>
    <property name="attribute" value="0"/>
    <property name="palette" value="0"/>
    <property name="priority" value="0"/>
   </properties>
  </tile>
  <tile id="94">
   <properties>
    <property name="attribute" value="0"/>
    <property name="palette" value="0"/>
    <property name="priority" value="0"/>
   </properties>
  </tile>
  <tile id="95">
   <properties>
    <property name="attribute" value="0"/>
    <property name="palette" value="0"/>
    <property name="priority" value="0"/>
   </properties>
  </tile>
  <tile id="96">
   <properties>
    <property name="attribute" value="0"/>
    <property name="palette" value="0"/>
    <property name="priority" value="0"/>
   </properties>
  </tile>
  <tile id="97">
   <properties>
    <property name="attribute" value="0"/>
    <property name="palette" value="0"/>
    <property name="priority" value="0"/>
   </properties>
  </tile>
  <tile id="98">
   <properties>
    <property name="attribute" value="0"/>
    <property name="palette" value="0"/>
    <property name="priority" value="0"/>
   </properties>
  </tile>
  <tile id="99">
   <properties>
    <property name="attribute" value="0"/>
    <property name="palette" value="0"/>
    <property name="priority" value="0"/>
   </properties>
  </tile>
  <tile id="100">
   <properties>
    <property name="attribute" value="0"/>
    <property name="palette" value="0"/>
    <property name="priority" value="0"/>
   </properties>
  </tile>
  <tile id="101">
   <properties>
    <property name="attribute" value="0"/>
    <property name="palette" value="0"/>
    <property name="priority" value="0"/>
   </properties>
  </tile>
  <tile id="102">
   <properties>
    <property name="attribute" value="0"/>
    <property name="palette" value="0"/>
    <property name="priority" value="0"/>
   </properties>
  </tile>
  <tile id="103">
   <properties>
    <property name="attribute" value="0"/>
    <property name="palette" value="0"/>
    <property name="priority" value="0"/>
   </properties>
  </tile>
  <tile id="104">
   <properties>
    <property name="attribute" value="0"/>
    <property name="palette" value="0"/>
    <property name="priority" value="0"/>
   </properties>
  </tile>
  <tile id="105">
   <properties>
    <property name="attribute" value="0"/>
    <property name="palette" value="0"/>
    <property name="priority" value="0"/>
   </properties>
  </tile>
  <tile id="106">
   <properties>
    <property name="attribute" value="0"/>
    <property name="palette" value="0"/>
    <property name="priority" value="0"/>
   </properties>
  </tile>
  <tile id="107">
   <properties>
    <property name="attribute" value="0"/>
    <property name="palette" value="0"/>
    <property name="priority" value="0"/>
   </properties>
  </tile>
  <tile id="108">
   <properties>
    <property name="attribute" value="0"/>
    <property name="palette" value="0"/>
    <property name="priority" value="0"/>
   </properties>
  </tile>
  <tile id="109">
   <properties>
    <property name="attribute" value="0"/>
    <property name="palette" value="0"/>
    <property name="priority" value="0"/>
   </properties>
  </tile>
  <tile id="110">
   <properties>
    <property name="attribute" value="0"/>
    <property name="palette" value="0"/>
    <property name="priority" value="0"/>
   </properties>
  </tile>
  <tile id="111">
   <properties>
    <property name="attribute" value="0"/>
    <property name="palette" value="0"/>
    <property name="priority" value="0"/>
   </properties>
  </tile>
  <tile id="112">
   <properties>
    <property name="attribute" value="0"/>
    <property name="palette" value="0"/>
    <property name="priority" value="0"/>
   </properties>
  </tile>
  <tile id="113">
   <properties>
    <property name="attribute" value="0"/>
    <property name="palette" value="0"/>
    <property name="priority" value="0"/>
   </properties>
  </tile>
  <tile id="114">
   <properties>
    <property name="attribute" value="0"/>
    <property name="palette" value="0"/>
    <property name="priority" value="0"/>
   </properties>
  </tile>
  <tile id="115">
   <properties>
    <property name="attribute" value="0"/>
    <property name="palette" value="0"/>
    <property name="priority" value="0"/>
   </properties>
  </tile>
  <tile id="116">
   <properties>
    <property name="attribute" value="0"/>
    <property name="palette" value="0"/>
    <property name="priority" value="0"/>
   </properties>
  </tile>
  <tile id="117">
   <properties>
    <property name="attribute" value="0"/>
    <property name="palette" value="0"/>
    <property name="priority" value="0"/>
   </properties>
  </tile>
  <tile id="118">
   <properties>
    <property name="attribute" value="0"/>
    <property name="palette" value="0"/>
    <property name="priority" value="0"/>
   </properties>
  </tile>
  <tile id="119">
   <properties>
    <property name="attribute" value="0"/>
    <property name="palette" value="0"/>
    <property name="priority" value="0"/>
   </properties>
  </tile>
  <tile id="120">
   <properties>
    <property name="attribute" value="0"/>
    <property name="palette" value="0"/>
    <property name="priority" value="0"/>
   </properties>
  </tile>
  <tile id="121">
   <properties>
    <property name="attribute" value="0"/>
    <property name="palette" value="0"/>
    <property name="priority" value="0"/>
   </properties>
  </tile>
  <tile id="122">
   <properties>
    <property name="attribute" value="0"/>
    <property name="palette" value="0"/>
    <property name="priority" value="0"/>
   </properties>
  </tile>
  <tile id="123">
   <properties>
    <property name="attribute" value="0"/>
    <property name="palette" value="0"/>
    <property name="priority" value="0"/>
   </properties>
  </tile>
  <tile id="124">
   <properties>
    <property name="attribute" value="0"/>
    <property name="palette" value="0"/>
    <property name="priority" value="0"/>
   </properties>
  </tile>
  <tile id="125">
   <properties>
    <property name="attribute" value="0"/>
    <property name="palette" value="0"/>
    <property name="priority" value="0"/>
   </properties>
  </tile>
  <tile id="126">
   <properties>
    <property name="attribute" value="0"/>
    <property name="palette" value="0"/>
    <property name="priority" value="0"/>
   </properties>
  </tile>
  <tile id="127">
   <properties>
    <property name="attribute" value="0"/>
    <property name="palette" value="0"/>
    <property name="priority" value="0"/>
   </properties>
  </tile>
  <tile id="128">
   <properties>
    <property name="attribute" value="0"/>
    <property name="palette" value="0"/>
    <property name="priority" value="0"/>
   </properties>
  </tile>
  <tile id="129">
   <properties>
    <property name="attribute" value="0"/>
    <property name="palette" value="0"/>
    <property name="priority" value="0"/>
   </properties>
  </tile>
  <tile id="130">
   <properties>
    <property name="attribute" value="0"/>
    <property name="palette" value="0"/>
    <property name="priority" value="0"/>
   </properties>
  </tile>
  <tile id="131">
   <properties>
    <property name="attribute" value="0"/>
    <property name="palette" value="0"/>
    <property name="priority" value="0"/>
   </properties>
  </tile>
  <tile id="132">
   <properties>
    <property name="attribute" value="0"/>
    <property name="palette" value="0"/>
    <property name="priority" value="0"/>
   </properties>
  </tile>
  <tile id="133">
   <properties>
    <property name="attribute" value="0"/>
    <property name="palette" value="0"/>
    <property name="priority" value="0"/>
   </properties>
  </tile>
  <tile id="134">
   <properties>
    <property name="attribute" value="0"/>
    <property name="palette" value="0"/>
    <property name="priority" value="0"/>
   </properties>
  </tile>
  <tile id="135">
   <properties>
    <property name="attribute" value="0"/>
    <property name="palette" value="0"/>
    <property name="priority" value="0"/>
   </properties>
  </tile>
  <tile id="136">
   <properties>
    <property name="attribute" value="0"/>
    <property name="palette" value="0"/>
    <property name="priority" value="0"/>
   </properties>
  </tile>
  <tile id="137">
   <properties>
    <property name="attribute" value="0"/>
    <property name="palette" value="0"/>
    <property name="priority" value="0"/>
   </properties>
  </tile>
  <tile id="138">
   <properties>
    <property name="attribute" value="0"/>
    <property name="palette" value="0"/>
    <property name="priority" value="0"/>
   </properties>
  </tile>
  <tile id="139">
   <properties>
    <property name="attribute" value="0"/>
    <property name="palette" value="0"/>
    <property name="priority" value="0"/>
   </properties>
  </tile>
  <tile id="140">
   <properties>
    <property name="attribute" value="0"/>
    <property name="palette" value="0"/>
    <property name="priority" value="0"/>
   </properties>
  </tile>
  <tile id="141">
   <properties>
    <property name="attribute" value="0"/>
    <property name="palette" value="0"/>
    <property name="priority" value="0"/>
   </properties>
  </tile>
  <tile id="142">
   <properties>
    <property name="attribute" value="0"/>
    <property name="palette" value="0"/>
    <property name="priority" value="0"/>
   </properties>
  </tile>
  <tile id="143">
   <properties>
    <property name="attribute" value="0"/>
    <property name="palette" value="0"/>
    <property name="priority" value="0"/>
   </properties>
  </tile>
  <tile id="144">
   <properties>
    <property name="attribute" value="0"/>
    <property name="palette" value="0"/>
    <property name="priority" value="0"/>
   </properties>
  </tile>
  <tile id="145">
   <properties>
    <property name="attribute" value="0"/>
    <property name="palette" value="0"/>
    <property name="priority" value="0"/>
   </properties>
  </tile>
  <tile id="146">
   <properties>
    <property name="attribute" value="0"/>
    <property name="palette" value="0"/>
    <property name="priority" value="0"/>
   </properties>
  </tile>
  <tile id="147">
   <properties>
    <property name="attribute" value="0"/>
    <property name="palette" value="0"/>
    <property name="priority" value="0"/>
   </properties>
  </tile>
  <tile id="148">
   <properties>
    <property name="attribute" value="0"/>
    <property name="palette" value="0"/>
    <property name="priority" value="0"/>
   </properties>
  </tile>
  <tile id="149">
   <properties>
    <property name="attribute" value="0"/>
    <property name="palette" value="0"/>
    <property name="priority" value="0"/>
   </properties>
  </tile>
  <tile id="150">
   <properties>
    <property name="attribute" value="0"/>
    <property name="palette" value="0"/>
    <property name="priority" value="0"/>
   </properties>
  </tile>
  <tile id="151">
   <properties>
    <property name="attribute" value="0"/>
    <property name="palette" value="0"/>
    <property name="priority" value="0"/>
   </properties>
  </tile>
  <tile id="152">
   <properties>
    <property name="attribute" value="0"/>
    <property name="palette" value="0"/>
    <property name="priority" value="0"/>
   </properties>
  </tile>
  <tile id="153">
   <properties>
    <property name="attribute" value="0"/>
    <property name="palette" value="0"/>
    <property name="priority" value="0"/>
   </properties>
  </tile>
  <tile id="154">
   <properties>
    <property name="attribute" value="0"/>
    <property name="palette" value="0"/>
    <property name="priority" value="0"/>
   </properties>
  </tile>
  <tile id="155">
   <properties>
    <property name="attribute" value="0"/>
    <property name="palette" value="0"/>
    <property name="priority" value="0"/>
   </properties>
  </tile>
  <tile id="156">
   <properties>
    <property name="attribute" value="0"/>
    <property name="palette" value="0"/>
    <property name="priority" value="0"/>
   </properties>
  </tile>
  <tile id="157">
   <properties>
    <property name="attribute" value="0"/>
    <property name="palette" value="0"/>
    <property name="priority" value="0"/>
   </properties>
  </tile>
  <tile id="158">
   <properties>
    <property name="attribute" value="0"/>
    <property name="palette" value="0"/>
    <property name="priority" value="0"/>
   </properties>
  </tile>
  <tile id="159">
   <properties>
    <property name="attribute" value="0"/>
    <property name="palette" value="0"/>
    <property name="priority" value="0"/>
   </properties>
  </tile>
  <tile id="160">
   <properties>
    <property name="attribute" value="0"/>
    <property name="palette" value="0"/>
    <property name="priority" value="0"/>
   </properties>
  </tile>
  <tile id="161">
   <properties>
    <property name="attribute" value="0"/>
    <property name="palette" value="0"/>
    <property name="priority" value="0"/>
   </properties>
  </tile>
  <tile id="162">
   <properties>
    <property name="attribute" value="0"/>
    <property name="palette" value="0"/>
    <property name="priority" value="0"/>
   </properties>
  </tile>
  <tile id="163">
   <properties>
    <property name="attribute" value="0"/>
    <property name="palette" value="0"/>
    <property name="priority" value="0"/>
   </properties>
  </tile>
  <tile id="164">
   <properties>
    <property name="attribute" value="0"/>
    <property name="palette" value="0"/>
    <property name="priority" value="0"/>
   </properties>
  </tile>
  <tile id="165">
   <properties>
    <property name="attribute" value="0"/>
    <property name="palette" value="0"/>
    <property name="priority" value="0"/>
   </properties>
  </tile>
  <tile id="166">
   <properties>
    <property name="attribute" value="0"/>
    <property name="palette" value="0"/>
    <property name="priority" value="0"/>
   </properties>
  </tile>
  <tile id="167">
   <properties>
    <property name="attribute" value="0"/>
    <property name="palette" value="0"/>
    <property name="priority" value="0"/>
   </properties>
  </tile>
  <tile id="168">
   <properties>
    <property name="attribute" value="0"/>
    <property name="palette" value="0"/>
    <property name="priority" value="0"/>
   </properties>
  </tile>
  <tile id="169">
   <properties>
    <property name="attribute" value="0"/>
    <property name="palette" value="0"/>
    <property name="priority" value="0"/>
   </properties>
  </tile>
  <tile id="170">
   <properties>
    <property name="attribute" value="0"/>
    <property name="palette" value="0"/>
    <property name="priority" value="0"/>
   </properties>
  </tile>
  <tile id="171">
   <properties>
    <property name="attribute" value="0"/>
    <property name="palette" value="0"/>
    <property name="priority" value="0"/>
   </properties>
  </tile>
  <tile id="172">
   <properties>
    <property name="attribute" value="0"/>
    <property name="palette" value="0"/>
    <property name="priority" value="0"/>
   </properties>
  </tile>
  <tile id="173">
   <properties>
    <property name="attribute" value="0"/>
    <property name="palette" value="0"/>
    <property name="priority" value="0"/>
   </properties>
  </tile>
  <tile id="174">
   <properties>
    <property name="attribute" value="0"/>
    <property name="palette" value="0"/>
    <property name="priority" value="0"/>
   </properties>
  </tile>
  <tile id="175">
   <properties>
    <property name="attribute" value="0"/>
    <property name="palette" value="0"/>
    <property name="priority" value="0"/>
   </properties>
  </tile>
  <tile id="176">
   <properties>
    <property name="attribute" value="0"/>
    <property name="palette" value="0"/>
    <property name="priority" value="0"/>
   </properties>
  </tile>
  <tile id="177">
   <properties>
    <property name="attribute" value="0"/>
    <property name="palette" value="0"/>
    <property name="priority" value="0"/>
   </properties>
  </tile>
  <tile id="178">
   <properties>
    <property name="attribute" value="0"/>
    <property name="palette" value="0"/>
    <property name="priority" value="0"/>
   </properties>
  </tile>
  <tile id="179">
   <properties>
    <property name="attribute" value="0"/>
    <property name="palette" value="0"/>
    <property name="priority" value="0"/>
   </properties>
  </tile>
  <tile id="180">
   <properties>
    <property name="attribute" value="0"/>
    <property name="palette" value="0"/>
    <property name="priority" value="0"/>
   </properties>
  </tile>
  <tile id="181">
   <properties>
    <property name="attribute" value="0"/>
    <property name="palette" value="0"/>
    <property name="priority" value="0"/>
   </properties>
  </tile>
  <tile id="182">
   <properties>
    <property name="attribute" value="0"/>
    <property name="palette" value="0"/>
    <property name="priority" value="0"/>
   </properties>
  </tile>
  <tile id="183">
   <properties>
    <property name="attribute" value="0"/>
    <property name="palette" value="0"/>
    <property name="priority" value="0"/>
   </properties>
  </tile>
  <tile id="184">
   <properties>
    <property name="attribute" value="0"/>
    <property name="palette" value="0"/>
    <property name="priority" value="0"/>
   </properties>
  </tile>
  <tile id="185">
   <properties>
    <property name="attribute" value="0"/>
    <property name="palette" value="0"/>
    <property name="priority" value="0"/>
   </properties>
  </tile>
  <tile id="186">
   <properties>
    <property name="attribute" value="0"/>
    <property name="palette" value="0"/>
    <property name="priority" value="0"/>
   </properties>
  </tile>
  <tile id="187">
   <properties>
    <property name="attribute" value="0"/>
    <property name="palette" value="0"/>
    <property name="priority" value="0"/>
   </properties>
  </tile>
  <tile id="188">
   <properties>
    <property name="attribute" value="0"/>
    <property name="palette" value="0"/>
    <property name="priority" value="0"/>
   </properties>
  </tile>
  <tile id="189">
   <properties>
    <property name="attribute" value="0"/>
    <property name="palette" value="0"/>
    <property name="priority" value="0"/>
   </properties>
  </tile>
  <tile id="190">
   <properties>
    <property name="attribute" value="0"/>
    <property name="palette" value="0"/>
    <property name="priority" value="0"/>
   </properties>
  </tile>
  <tile id="191">
   <properties>
    <property name="attribute" value="0"/>
    <property name="palette" value="0"/>
    <property name="priority" value="0"/>
   </properties>
  </tile>
  <tile id="192">
   <properties>
    <property name="attribute" value="0"/>
    <property name="palette" value="0"/>
    <property name="priority" value="0"/>
   </properties>
  </tile>
  <tile id="193">
   <properties>
    <property name="attribute" value="0"/>
    <property name="palette" value="0"/>
    <property name="priority" value="0"/>
   </properties>
  </tile>
  <tile id="194">
   <properties>
    <property name="attribute" value="0"/>
    <property name="palette" value="0"/>
    <property name="priority" value="0"/>
   </properties>
  </tile>
  <tile id="195">
   <properties>
    <property name="attribute" value="0"/>
    <property name="palette" value="0"/>
    <property name="priority" value="0"/>
   </properties>
  </tile>
  <tile id="196">
   <properties>
    <property name="attribute" value="0"/>
    <property name="palette" value="0"/>
    <property name="priority" value="0"/>
   </properties>
  </tile>
  <tile id="197">
   <properties>
    <property name="attribute" value="0"/>
    <property name="palette" value="0"/>
    <property name="priority" value="0"/>
   </properties>
  </tile>
  <tile id="198">
   <properties>
    <property name="attribute" value="0"/>
    <property name="palette" value="0"/>
    <property name="priority" value="0"/>
   </properties>
  </tile>
  <tile id="199">
   <properties>
    <property name="attribute" value="0"/>
    <property name="palette" value="0"/>
    <property name="priority" value="0"/>
   </properties>
  </tile>
  <tile id="200">
   <properties>
    <property name="attribute" value="0"/>
    <property name="palette" value="0"/>
    <property name="priority" value="0"/>
   </properties>
  </tile>
  <tile id="201">
   <properties>
    <property name="attribute" value="0"/>
    <property name="palette" value="0"/>
    <property name="priority" value="0"/>
   </properties>
  </tile>
  <tile id="202">
   <properties>
    <property name="attribute" value="0"/>
    <property name="palette" value="0"/>
    <property name="priority" value="0"/>
   </properties>
  </tile>
  <tile id="203">
   <properties>
    <property name="attribute" value="0"/>
    <property name="palette" value="0"/>
    <property name="priority" value="0"/>
   </properties>
  </tile>
  <tile id="204">
   <properties>
    <property name="attribute" value="0"/>
    <property name="palette" value="0"/>
    <property name="priority" value="0"/>
   </properties>
  </tile>
  <tile id="205">
   <properties>
    <property name="attribute" value="0"/>
    <property name="palette" value="0"/>
    <property name="priority" value="0"/>
   </properties>
  </tile>
  <tile id="206">
   <properties>
    <property name="attribute" value="0"/>
    <property name="palette" value="0"/>
    <property name="priority" value="0"/>
   </properties>
  </tile>
  <tile id="207">
   <properties>
    <property name="attribute" value="0"/>
    <property name="palette" value="0"/>
    <property name="priority" value="0"/>
   </properties>
  </tile>
  <tile id="208">
   <properties>
    <property name="attribute" value="0"/>
    <property name="palette" value="0"/>
    <property name="priority" value="0"/>
   </properties>
  </tile>
  <tile id="209">
   <properties>
    <property name="attribute" value="0"/>
    <property name="palette" value="0"/>
    <property name="priority" value="0"/>
   </properties>
  </tile>
  <tile id="210">
   <properties>
    <property name="attribute" value="0"/>
    <property name="palette" value="0"/>
    <property name="priority" value="0"/>
   </properties>
  </tile>
  <tile id="211">
   <properties>
    <property name="attribute" value="0"/>
    <property name="palette" value="0"/>
    <property name="priority" value="0"/>
   </properties>
  </tile>
  <tile id="212">
   <properties>
    <property name="attribute" value="0"/>
    <property name="palette" value="0"/>
    <property name="priority" value="0"/>
   </properties>
  </tile>
  <tile id="213">
   <properties>
    <property name="attribute" value="0"/>
    <property name="palette" value="0"/>
    <property name="priority" value="0"/>
   </properties>
  </tile>
  <tile id="214">
   <properties>
    <property name="attribute" value="0"/>
    <property name="palette" value="0"/>
    <property name="priority" value="0"/>
   </properties>
  </tile>
  <tile id="215">
   <properties>
    <property name="attribute" value="0"/>
    <property name="palette" value="0"/>
    <property name="priority" value="0"/>
   </properties>
  </tile>
  <tile id="216">
   <properties>
    <property name="attribute" value="0"/>
    <property name="palette" value="0"/>
    <property name="priority" value="0"/>
   </properties>
  </tile>
  <tile id="217">
   <properties>
    <property name="attribute" value="0"/>
    <property name="palette" value="0"/>
    <property name="priority" value="0"/>
   </properties>
  </tile>
  <tile id="218">
   <properties>
    <property name="attribute" value="0"/>
    <property name="palette" value="0"/>
    <property name="priority" value="0"/>
   </properties>
  </tile>
  <tile id="219">
   <properties>
    <property name="attribute" value="0"/>
    <property name="palette" value="0"/>
    <property name="priority" value="0"/>
   </properties>
  </tile>
  <tile id="220">
   <properties>
    <property name="attribute" value="0"/>
    <property name="palette" value="0"/>
    <property name="priority" value="0"/>
   </properties>
  </tile>
  <tile id="221">
   <properties>
    <property name="attribute" value="0"/>
    <property name="palette" value="0"/>
    <property name="priority" value="0"/>
   </properties>
  </tile>
  <tile id="222">
   <properties>
    <property name="attribute" value="0"/>
    <property name="palette" value="0"/>
    <property name="priority" value="0"/>
   </properties>
  </tile>
  <tile id="223">
   <properties>
    <property name="attribute" value="0"/>
    <property name="palette" value="0"/>
    <property name="priority" value="0"/>
   </properties>
  </tile>
  <tile id="224">
   <properties>
    <property name="attribute" value="0"/>
    <property name="palette" value="0"/>
    <property name="priority" value="0"/>
   </properties>
  </tile>
  <tile id="225">
   <properties>
    <property name="attribute" value="0"/>
    <property name="palette" value="0"/>
    <property name="priority" value="0"/>
   </properties>
  </tile>
  <tile id="226">
   <properties>
    <property name="attribute" value="0"/>
    <property name="palette" value="0"/>
    <property name="priority" value="0"/>
   </properties>
  </tile>
  <tile id="227">
   <properties>
    <property name="attribute" value="0"/>
    <property name="palette" value="0"/>
    <property name="priority" value="0"/>
   </properties>
  </tile>
  <tile id="228">
   <properties>
    <property name="attribute" value="0"/>
    <property name="palette" value="0"/>
    <property name="priority" value="0"/>
   </properties>
  </tile>
  <tile id="229">
   <properties>
    <property name="attribute" value="0"/>
    <property name="palette" value="0"/>
    <property name="priority" value="0"/>
   </properties>
  </tile>
  <tile id="230">
   <properties>
    <property name="attribute" value="0"/>
    <property name="palette" value="0"/>
    <property name="priority" value="0"/>
   </properties>
  </tile>
  <tile id="231">
   <properties>
    <property name="attribute" value="0"/>
    <property name="palette" value="0"/>
    <property name="priority" value="0"/>
   </properties>
  </tile>
  <tile id="232">
   <properties>
    <property name="attribute" value="0"/>
    <property name="palette" value="0"/>
    <property name="priority" value="0"/>
   </properties>
  </tile>
  <tile id="233">
   <properties>
    <property name="attribute" value="0"/>
    <property name="palette" value="0"/>
    <property name="priority" value="0"/>
   </properties>
  </tile>
  <tile id="234">
   <properties>
    <property name="attribute" value="0"/>
    <property name="palette" value="0"/>
    <property name="priority" value="0"/>
   </properties>
  </tile>
  <tile id="235">
   <properties>
    <property name="attribute" value="0"/>
    <property name="palette" value="0"/>
    <property name="priority" value="0"/>
   </properties>
  </tile>
  <tile id="236">
   <properties>
    <property name="attribute" value="0"/>
    <property name="palette" value="0"/>
    <property name="priority" value="0"/>
   </properties>
  </tile>
  <tile id="237">
   <properties>
    <property name="attribute" value="0"/>
    <property name="palette" value="0"/>
    <property name="priority" value="0"/>
   </properties>
  </tile>
  <tile id="238">
   <properties>
    <property name="attribute" value="0"/>
    <property name="palette" value="0"/>
    <property name="priority" value="0"/>
   </properties>
  </tile>
  <tile id="239">
   <properties>
    <property name="attribute" value="0"/>
    <property name="palette" value="0"/>
    <property name="priority" value="0"/>
   </properties>
  </tile>
  <tile id="240">
   <properties>
    <property name="attribute" value="0"/>
    <property name="palette" value="0"/>
    <property name="priority" value="0"/>
   </properties>
  </tile>
  <tile id="241">
   <properties>
    <property name="attribute" value="0"/>
    <property name="palette" value="0"/>
    <property name="priority" value="0"/>
   </properties>
  </tile>
  <tile id="242">
   <properties>
    <property name="attribute" value="0"/>
    <property name="palette" value="0"/>
    <property name="priority" value="0"/>
   </properties>
  </tile>
  <tile id="243">
   <properties>
    <property name="attribute" value="0"/>
    <property name="palette" value="0"/>
    <property name="priority" value="0"/>
   </properties>
  </tile>
  <tile id="244">
   <properties>
    <property name="attribute" value="0"/>
    <property name="palette" value="0"/>
    <property name="priority" value="0"/>
   </properties>
  </tile>
  <tile id="245">
   <properties>
    <property name="attribute" value="0"/>
    <property name="palette" value="0"/>
    <property name="priority" value="0"/>
   </properties>
  </tile>
  <tile id="246">
   <properties>
    <property name="attribute" value="0"/>
    <property name="palette" value="0"/>
    <property name="priority" value="0"/>
   </properties>
  </tile>
  <tile id="247">
   <properties>
    <property name="attribute" value="0"/>
    <property name="palette" value="0"/>
    <property name="priority" value="0"/>
   </properties>
  </tile>
  <tile id="248">
   <properties>
    <property name="attribute" value="0"/>
    <property name="palette" value="0"/>
    <property name="priority" value="0"/>
   </properties>
  </tile>
  <tile id="249">
   <properties>
    <property name="attribute" value="0"/>
    <property name="palette" value="0"/>
    <property name="priority" value="0"/>
   </properties>
  </tile>
  <tile id="250">
   <properties>
    <property name="attribute" value="0"/>
    <property name="palette" value="0"/>
    <property name="priority" value="0"/>
   </properties>
  </tile>
  <tile id="251">
   <properties>
    <property name="attribute" value="0"/>
    <property name="palette" value="0"/>
    <property name="priority" value="0"/>
   </properties>
  </tile>
  <tile id="252">
   <properties>
    <property name="attribute" value="0"/>
    <property name="palette" value="0"/>
    <property name="priority" value="0"/>
   </properties>
  </tile>
  <tile id="253">
   <properties>
    <property name="attribute" value="0"/>
    <property name="palette" value="0"/>
    <property name="priority" value="0"/>
   </properties>
  </tile>
  <tile id="254">
   <properties>
    <property name="attribute" value="0"/>
    <property name="palette" value="0"/>
    <property name="priority" value="0"/>
   </properties>
  </tile>
  <tile id="255">
   <properties>
    <property name="attribute" value="0"/>
    <property name="palette" value="0"/>
    <property name="priority" value="0"/>
   </properties>
  </tile>
 </tileset>
 <layer id="1" name="BG1" width="512" height="512">
  <data encoding="csv">
1,2,1,2,1,2,1,2,1,2,1,2,1,2,1,2,1,2,1,2,1,2,1,2,1,2,1,2,1,2,1,2,1,2,1,2,1,2,1,2,1,2,1,2,1,2,1,2,1,2,1,2,1,2,1,2,1,2,1,2,1,2,1,2,1,2,1,2,1,2,1,2,1,2,1,2,1,2,1,2,1,2,1,2,1,2,1,2,1,2,1,2,1,2,1,2,1,2,1,2,1,2,1,2,1,2,1,2,1,2,1,2,1,2,1,2,1,2,1,2,1,2,1,2,1,2,1,2,1,2,1,2,1,2,1,2,1,2,1,2,1,2,1,2,1,2,1,2,1,2,1,2,1,2,1,2,1,2,1,2,1,2,1,2,1,2,1,2,1,2,1,2,1,2,1,2,1,2,1,2,1,2,1,2,1,2,1,2,1,2,1,2,1,2,1,2,1,2,1,2,1,2,1,2,1,2,1,2,1,2,1,2,1,2,1,2,1,2,1,2,1,2,1,2,1,2,1,2,1,2,1,2,1,2,1,2,1,2,1,2,1,2,1,2,1,2,1,2,1,2,1,2,1,2,1,2,1,2,1,2,1,2,1,2,1,2,1,2,1,2,1,2,1,2,1,2,1,2,1,2,1,2,1,2,1,2,1,2,1,2,1,2,1,2,1,2,1,2,1,2,1,2,1,2,1,2,1,2,1,2,1,2,1,2,1,2,1,2,1,2,1,2,1,2,1,2,1,2,1,2,1,2,1,2,1,2,1,2,1,2,1,2,1,2,1,2,1,2,1,2,1,2,1,2,1,2,1,2,1,2,1,2,1,2,1,2,1,2,1,2,1,2,1,2,1,2,1,2,1,2,1,2,1,2,1,2,1,2,1,2,1,2,1,2,1,2,1,2,1,2,1,2,1,2,1,2,1,2,1,2,1,2,1,2,1,2,1,2,1,2,1,2,1,2,1,2,1,2,1,2,1,2,1,2,1,2,1,2,1,2,1,2,1,2,1,2,1,2,1,2,1,2,1,2,1,2,1,2,1,2,1,2,1,2,1,2,1,2,1,2,1,2,1,2,1,2,1,2,1,2,1,2,1,2,1,2,1,2,1,2,1,2,1,2,1,2,1,2,1,2,1,2,1,2,1,2,1,2,1,2,1,2,
3,4,3,4,3,4,3,4,3,4,3,4,3,4,3,4,3,4,3,4,3,4,3,4,3,4,3,4,3,4,3,4,3,4,3,4,3,4,3,4,3,4,3,4,3,4,3,4,3,4,3,4,3,4,3,4,3,4,3,4,3,4,3,4,3,4,3,4,3,4,3,4,3,4,3,4,3,4,3,4,3,4,3,4,3,4,3,4,3,4,3,4,3,4,3,4,3,4,3,4,3,4,3,4,3,4,3,4,3,4,3,4,3,4,3,4,3,4,3,4,3,4,3,4,3,4,3,4,3,4,3,4,3,4,3,4,3,4,3,4,3,4,3,4,3,4,3,4,3,4,3,4,3,4,3,4,3,4,3,4,3,4,3,4,3,4,3,4,3,4,3,4,3,4,3,4,3,4,3,4,3,4,3,4,3,4,3,4,3,4,3,4,3,4,3,4,3,4,3,4,3,4,3,4,3,4,3,4,3,4,3,4,3,4,3,4,3,4,3,4,3,4,3,4,3,4,3,4,3,4,3,4,3,4,3,4,3,4,3,4,3,4,3,4,3,4,3,4,3,4,3,4,3,4,3,4,3,4,3,4,3,4,3,4,3,4,3,4,3,4,3,4,3,4,3,4,3,4,3,4,3,4,3,4,3,4,3,4,3,4,3,4,3,4,3,4,3,4,3,4,3,4,3,4,3,4,3,4,3,4,3,4,3,4,3,4,3,4,3,4,3,4,3,4,3,4,3,4,3,4,3,4,3,4,3,4,3,4,3,4,3,4,3,4,3,4,3,4,3,4,3,4,3,4,3,4,3,4,3,4,3,4,3,4,3,4,3,4,3,4,3,4,3,4,3,4,3,4,3,4,3,4,3,4,3,4,3,4,3,4,3,4,3,4,3,4,3,4,3,4,3,4,3,4,3,4,3,4,3,4,3,4,3,4,3,4,3,4,3,4,3,4,3,4,3,4,3,4,3,4,3,4,3,4,3,4,3,4,3,4,3,4,3,4,3,4,3,4,3,4,3,4,3,4,3,4,3,4,3,4,3,4,3,4,3,4,3,4,3,4,3,4,3,4,3,4,3,4,3,4,3,4,3,4,3,4,3,4,3,4,3,4,3,4,3,4,3,4,3,4,3,4,3,4,3,4,3,4,3,4,3,4,
1,2,1,2,1,2,1,2,1,2,1,2,1,2,1,2,1,2,1,2,1,2,1,2,1,2,1,2,1,2,1,2,1,2,1,2,1,2,1,2,1,2,1,2,1,2,1,2,1,2,1,2,1,2,1,2,1,2,1,2,1,2,1,2,1,2,1,2,1,2,1,2,1,2,1,2,1,2,1,2,1,2,1,2,1,2,1,2,1,2,1,2,1,2,1,2,1,2,1,2,1,2,1,2,1,2,1,2,1,2,1,2,1,2,1,2,1,2,1,2,1,2,1,2,1,2,1,2,1,2,1,2,1,2,1,2,1,2,1,2,1,2,1,2,1,2,1,2,1,2,1,2,1,2,1,2,1,2,1,2,1,2,1,2,1,2,1,2,1,2,1,2,1,2,1,2,1,2,1,2,1,2,1,2,1,2,1,2,1,2,1,2,1,2,1,2,1,2,1,2,1,2,1,2,1,2,1,2,1,2,1,2,1,2,1,2,1,2,1,2,1,2,1,2,1,2,1,2,1,2,1,2,1,2,1,2,1,2,1,2,1,2,1,2,1,2,1,2,1,2,1,2,1,2,1,2,1,2,1,2,1,2,1,2,1,2,1,2,1,2,1,2,1,2,1,2,1,2,1,2,1,2,1,2,1,2,1,2,1,2,1,2,1,2,1,2,1,2,1,2,1,2,1,2,1,2,1,2,1,2,1,2,1,2,1,2,1,2,1,2,1,2,1,2,1,2,1,2,1,2,1,2,1,2,1,2,1,2,1,2,1,2,1,2,1,2,1,2,1,2,1,2,1,2,1,2,1,2,1,2,1,2,1,2,1,2,1,2,1,2,1,2,1,2,1,2,1,2,1,2,1,2,1,2,1,2,1,2,1,2,1,2,1,2,1,2,1,2,1,2,1,2,1,2,1,2,1,2,1,2,1,2,1,2,1,2,1,2,1,2,1,2,1,2,1,2,1,2,1,2,1,2,1,2,1,2,1,2,1,2,1,2,1,2,1,2,1,2,1,2,1,2,1,2,1,2,1,2,1,2,1,2,1,2,1,2,1,2,1,2,1,2,1,2,1,2,1,2,1,2,1,2,1,2,1,2,1,2,1,2,1,2,1,2,1,2,1,2,1,2,1,2,1,2,1,2,1,2,1,2,1,2,
3,4,3,4,3,4,3,4,3,4,3,4,3,4,3,4,3,4,3,4,3,4,3,4,3,4,3,4,3,4,3,4,3,4,3,4,3,4,3,4,3,4,3,4,3,4,3,4,3,4,3,4,3,4,3,4,3,4,3,4,3,4,3,4,3,4,3,4,3,4,3,4,3,4,3,4,3,4,3,4,3,4,3,4,3,4,3,4,3,4,3,4,3,4,3,4,3,4,3,4,3,4,3,4,3,4,3,4,3,4,3,4,3,4,3,4,3,4,3,4,3,4,3,4,3,4,3,4,3,4,3,4,3,4,3,4,3,4,3,4,3,4,3,4,3,4,3,4,3,4,3,4,3,4,3,4,3,4,3,4,3,4,3,4,3,4,3,4,3,4,3,4,3,4,3,4,3,4,3,4,3,4,3,4,3,4,3,4,3,4,3,4,3,4,3,4,3,4,3,4,3,4,3,4,3,4,3,4,3,4,3,4,3,4,3,4,3,4,3,4,3,4,3,4,3,4,3,4,3,4,3,4,3,4,3,4,3,4,3,4,3,4,3,4,3,4,3,4,3,4,3,4,3,4,3,4,3,4,3,4,3,4,3,4,3,4,3,4,3,4,3,4,3,4,3,4,3,4,3,4,3,4,3,4,3,4,3,4,3,4,3,4,3,4,3,4,3,4,3,4,3,4,3,4,3,4,3,4,3,4,3,4,3,4,3,4,3,4,3,4,3,4,3,4,3,4,3,4,3,4,3,4,3,4,3,4,3,4,3,4,3,4,3,4,3,4,3,4,3,4,3,4,3,4,3,4,3,4,3,4,3,4,3,4,3,4,3,4,3,4,3,4,3,4,3,4,3,4,3,4,3,4,3,4,3,4,3,4,3,4,3,4,3,4,3,4,3,4,3,4,3,4,3,4,3,4,3,4,3,4,3,4,3,4,3,4,3,4,3,4,3,4,3,4,3,4,3,4,3,4,3,4,3,4,3,4,3,4,3,4,3,4,3,4,3,4,3,4,3,4,3,4,3,4,3,4,3,4,3,4,3,4,3,4,3,4,3,4,3,4,3,4,3,4,3,4,3,4,3,4,3,4,3,4,3,4,3,4,3,4,3,4,3,4,3,4,3,4,3,4,3,4,3,4,3,4,3,4,3,4,3,4,
1,2,1,2,1,2,1,2,1,2,1,2,1,2,1,2,1,2,1,2,1,2,1,2,1,2,1,2,1,2,1,2,1,2,1,2,1,2,1,2,1,2,1,2,1,2,1,2,1,2,1,2,1,2,1,2,1,2,1,2,1,2,1,2,1,2,1,2,1,2,1,2,1,2,1,2,1,2,1,2,1,2,1,2,1,2,1,2,1,2,1,2,1,2,1,2,1,2,1,2,1,2,1,2,1,2,1,2,1,2,1,2,1,2,1,2,1,2,1,2,1,2,1,2,1,2,1,2,1,2,1,2,1,2,1,2,1,2,1,2,1,2,1,2,1,2,1,2,1,2,1,2,1,2,1,2,1,2,1,2,1,2,1,2,1,2,1,2,1,2,1,2,1,2,1,2,1,2,1,2,1,2,1,2,1,2,1,2,1,2,1,2,1,2,1,2,1,2,1,2,1,2,1,2,1,2,1,2,1,2,1,2,1,2,1,2,1,2,1,2,1,2,1,2,1,2,1,2,1,2,1,2,1,2,1,2,1,2,1,2,1,2,1,2,1,2,1,2,1,2,1,2,1,2,1,2,1,2,1,2,1,2,1,2,1,2,1,2,1,2,1,2,1,2,1,2,1,2,1,2,1,2,1,2,1,2,1,2,1,2,1,2,1,2,1,2,1,2,1,2,1,2,1,2,1,2,1,2,1,2,1,2,1,2,1,2,1,2,1,2,1,2,1,2,1,2,1,2,1,2,1,2,1,2,1,2,1,2,1,2,1,2,1,2,1,2,1,2,1,2,1,2,1,2,1,2,1,2,1,2,1,2,1,2,1,2,1,2,1,2,1,2,1,2,1,2,1,2,1,2,1,2,1,2,1,2,1,2,1,2,1,2,1,2,1,2,1,2,1,2,1,2,1,2,1,2,1,2,1,2,1,2,1,2,1,2,1,2,1,2,1,2,1,2,1,2,1,2,1,2,1,2,1,2,1,2,1,2,1,2,1,2,1,2,1,2,1,2,1,2,1,2,1,2,1,2,1,2,1,2,1,2,1,2,1,2,1,2,1,2,1,2,1,2,1,2,1,2,1,2,1,2,1,2,1,2,1,2,1,2,1,2,1,2,1,2,1,2,1,2,1,2,1,2,1,2,1,2,1,2,1,2,
3,4,3,4,3,4,3,4,3,4,3,4,3,4,3,4,3,4,3,4,3,4,3,4,3,4,3,4,3,4,3,4,3,4,3,4,3,4,3,4,3,4,3,4,3,4,3,4,3,4,3,4,3,4,3,4,3,4,3,4,3,4,3,4,3,4,3,4,3,4,3,4,3,4,3,4,3,4,3,4,3,4,3,4,3,4,3,4,3,4,3,4,3,4,3,4,3,4,3,4,3,4,3,4,3,4,3,4,3,4,3,4,3,4,3,4,3,4,3,4,3,4,3,4,3,4,3,4,3,4,3,4,3,4,3,4,3,4,3,4,3,4,3,4,3,4,3,4,3,4,3,4,3,4,3,4,3,4,3,4,3,4,3,4,3,4,3,4,3,4,3,4,3,4,3,4,3,4,3,4,3,4,3,4,3,4,3,4,3,4,3,4,3,4,3,4,3,4,3,4,3,4,3,4,3,4,3,4,3,4,3,4,3,4,3,4,3,4,3,4,3,4,3,4,3,4,3,4,3,4,3,4,3,4,3,4,3,4,3,4,3,4,3,4,3,4,3,4,3,4,3,4,3,4,3,4,3,4,3,4,3,4,3,4,3,4,3,4,3,4,3,4,3,4,3,4,3,4,3,4,3,4,3,4,3,4,3,4,3,4,3,4,3,4,3,4,3,4,3,4,3,4,3,4,3,4,3,4,3,4,3,4,3,4,3,4,3,4,3,4,3,4,3,4,3,4,3,4,3,4,3,4,3,4,3,4,3,4,3,4,3,4,3,4,3,4,3,4,3,4,3,4,3,4,3,4,3,4,3,4,3,4,3,4,3,4,3,4,3,4,3,4,3,4,3,4,3,4,3,4,3,4,3,4,3,4,3,4,3,4,3,4,3,4,3,4,3,4,3,4,3,4,3,4,3,4,3,4,3,4,3,4,3,4,3,4,3,4,3,4,3,4,3,4,3,4,3,4,3,4,3,4,3,4,3,4,3,4,3,4,3,4,3,4,3,4,3,4,3,4,3,4,3,4,3,4,3,4,3,4,3,4,3,4,3,4,3,4,3,4,3,4,3,4,3,4,3,4,3,4,3,4,3,4,3,4,3,4,3,4,3,4,3,4,3,4,3,4,3,4,3,4,3,4,3,4,3,4,3,4,3,4,
1,2,1,2,1,2,1,2,1,2,1,2,1,2,1,2,1,2,1,2,1,2,1,2,1,2,1,2,1,2,1,2,1,2,1,2,1,2,1,2,1,2,1,2,1,2,1,2,1,2,1,2,1,2,1,2,1,2,1,2,1,2,1,2,1,2,1,2,1,2,1,2,1,2,1,2,1,2,1,2,1,2,1,2,1,2,1,2,1,2,1,2,1,2,1,2,1,2,1,2,1,2,1,2,1,2,1,2,1,2,1,2,1,2,1,2,1,2,1,2,1,2,1,2,1,2,1,2,1,2,1,2,1,2,1,2,1,2,1,2,1,2,1,2,1,2,1,2,1,2,1,2,1,2,1,2,1,2,1,2,1,2,1,2,1,2,1,2,1,2,1,2,1,2,1,2,1,2,1,2,1,2,1,2,1,2,1,2,1,2,1,2,1,2,1,2,1,2,1,2,1,2,1,2,1,2,1,2,1,2,1,2,1,2,1,2,1,2,1,2,1,2,1,2,1,2,1,2,1,2,1,2,1,2,1,2,1,2,1,2,1,2,1,2,1,2,1,2,1,2,1,2,1,2,1,2,1,2,1,2,1,2,1,2,1,2,1,2,1,2,1,2,1,2,1,2,1,2,1,2,1,2,1,2,1,2,1,2,1,2,1,2,1,2,1,2,1,2,1,2,1,2,1,2,1,2,1,2,1,2,1,2,1,2,1,2,1,2,1,2,1,2,1,2,1,2,1,2,1,2,1,2,1,2,1,2,1,2,1,2,1,2,1,2,1,2,1,2,1,2,1,2,1,2,1,2,1,2,1,2,1,2,1,2,1,2,1,2,1,2,1,2,1,2,1,2,1,2,1,2,1,2,1,2,1,2,1,2,1,2,1,2,1,2,1,2,1,2,1,2,1,2,1,2,1,2,1,2,1,2,1,2,1,2,1,2,1,2,1,2,1,2,1,2,1,2,1,2,1,2,1,2,1,2,1,2,1,2,1,2,1,2,1,2,1,2,1,2,1,2,1,2,1,2,1,2,1,2,1,2,1,2,1,2,1,2,1,2,1,2,1,2,1,2,1,2,1,2,1,2,1,2,1,2,1,2,1,2,1,2,1,2,1,2,1,2,1,2,1,2,1,2,1,2,1,2,1,2,1,2,1,2,
3,4,3,4,3,4,3,4,3,4,3,4,3,4,3,4,3,4,3,4,3,4,3,4,3,4,3,4,3,4,3,4,3,4,3,4,3,4,3,4,3,4,3,4,3,4,3,4,3,4,3,4,3,4,3,4,3,4,3,4,3,4,3,4,3,4,3,4,3,4,3,4,3,4,3,4,3,4,3,4,3,4,3,4,3,4,3,4,3,4,3,4,3,4,3,4,3,4,3,4,3,4,3,4,3,4,3,4,3,4,3,4,3,4,3,4,3,4,3,4,3,4,3,4,3,4,3,4,3,4,3,4,3,4,3,4,3,4,3,4,3,4,3,4,3,4,3,4,3,4,3,4,3,4,3,4,3,4,3,4,3,4,3,4,3,4,3,4,3,4,3,4,3,4,3,4,3,4,3,4,3,4,3,4,3,4,3,4,3,4,3,4,3,4,3,4,3,4,3,4,3,4,3,4,3,4,3,4,3,4,3,4,3,4,3,4,3,4,3,4,3,4,3,4,3,4,3,4,3,4,3,4,3,4,3,4,3,4,3,4,3,4,3,4,3,4,3,4,3,4,3,4,3,4,3,4,3,4,3,4,3,4,3,4,3,4,3,4,3,4,3,4,3,4,3,4,3,4,3,4,3,4,3,4,3,4,3,4,3,4,3,4,3,4,3,4,3,4,3,4,3,4,3,4,3,4,3,4,3,4,3,4,3,4,3,4,3,4,3,4,3,4,3,4,3,4,3,4,3,4,3,4,3,4,3,4,3,4,3,4,3,4,3,4,3,4,3,4,3,4,3,4,3,4,3,4,3,4,3,4,3,4,3,4,3,4,3,4,3,4,3,4,3,4,3,4,3,4,3,4,3,4,3,4,3,4,3,4,3,4,3,4,3,4,3,4,3,4,3,4,3,4,3,4,3,4,3,4,3,4,3,4,3,4,3,4,3,4,3,4,3,4,3,4,3,4,3,4,3,4,3,4,3,4,3,4,3,4,3,4,3,4,3,4,3,4,3,4,3,4,3,4,3,4,3,4,3,4,3,4,3,4,3,4,3,4,3,4,3,4,3,4,3,4,3,4,3,4,3,4,3,4,3,4,3,4,3,4,3,4,3,4,3,4,3,4,3,4,3,4,3,4,3,4,3,4,3,4,3,4,3,4,
1,2,1,2,1,2,1,2,1,2,1,2,1,2,1,2,1,2,1,2,1,2,1,2,1,2,1,2,1,2,1,2,1,2,1,2,1,2,1,2,1,2,1,2,1,2,1,2,1,2,1,2,1,2,1,2,1,2,1,2,1,2,1,2,1,2,1,2,1,2,1,2,1,2,1,2,1,2,1,2,1,2,1,2,1,2,1,2,1,2,1,2,1,2,1,2,1,2,1,2,1,2,1,2,1,2,1,2,1,2,1,2,1,2,1,2,1,2,1,2,1,2,1,2,1,2,1,2,1,2,1,2,1,2,1,2,1,2,1,2,1,2,1,2,1,2,1,2,1,2,1,2,1,2,1,2,1,2,1,2,1,2,1,2,1,2,1,2,1,2,1,2,1,2,1,2,1,2,1,2,1,2,1,2,1,2,1,2,1,2,1,2,1,2,1,2,1,2,1,2,1,2,1,2,1,2,1,2,1,2,1,2,1,2,1,2,1,2,1,2,1,2,1,2,1,2,1,2,1,2,1,2,1,2,1,2,1,2,1,2,1,2,1,2,1,2,1,2,1,2,1,2,1,2,1,2,1,2,1,2,1,2,1,2,1,2,1,2,1,2,1,2,1,2,1,2,1,2,1,2,1,2,1,2,1,2,1,2,1,2,1,2,1,2,1,2,1,2,1,2,1,2,1,2,1,2,1,2,1,2,1,2,1,2,1,2,1,2,1,2,1,2,1,2,1,2,1,2,1,2,1,2,1,2,1,2,1,2,1,2,1,2,1,2,1,2,1,2,1,2,1,2,1,2,1,2,1,2,1,2,1,2,1,2,1,2,1,2,1,2,1,2,1,2,1,2,1,2,1,2,1,2,1,2,1,2,1,2,1,2,1,2,1,2,1,2,1,2,1,2,1,2,1,2,1,2,1,2,1,2,1,2,1,2,1,2,1,2,1,2,1,2,1,2,1,2,1,2,1,2,1,2,1,2,1,2,1,2,1,2,1,2,1,2,1,2,1,2,1,2,1,2,1,2,1,2,1,2,1,2,1,2,1,2,1,2,1,2,1,2,1,2,1,2,1,2,1,2,1,2,1,2,1,2,1,2,1,2,1,2,1,2,1,2,1,2,1,2,1,2,1,2,1,2,1,2,1,2,1,2,1,2,
3,4,3,4,3,4,3,4,3,4,3,4,3,4,3,4,3,4,3,4,3,4,3,4,3,4,3,4,3,4,3,4,3,4,3,4,3,4,3,4,3,4,3,4,3,4,3,4,3,4,3,4,3,4,3,4,3,4,3,4,3,4,3,4,3,4,3,4,3,4,3,4,3,4,3,4,3,4,3,4,3,4,3,4,3,4,3,4,3,4,3,4,3,4,3,4,3,4,3,4,3,4,3,4,3,4,3,4,3,4,3,4,3,4,3,4,3,4,3,4,3,4,3,4,3,4,3,4,3,4,3,4,3,4,3,4,3,4,3,4,3,4,3,4,3,4,3,4,3,4,3,4,3,4,3,4,3,4,3,4,3,4,3,4,3,4,3,4,3,4,3,4,3,4,3,4,3,4,3,4,3,4,3,4,3,4,3,4,3,4,3,4,3,4,3,4,3,4,3,4,3,4,3,4,3,4,3,4,3,4,3,4,3,4,3,4,3,4,3,4,3,4,3,4,3,4,3,4,3,4,3,4,3,4,3,4,3,4,3,4,3,4,3,4,3,4,3,4,3,4,3,4,3,4,3,4,3,4,3,4,3,4,3,4,3,4,3,4,3,4,3,4,3,4,3,4,3,4,3,4,3,4,3,4,3,4,3,4,3,4,3,4,3,4,3,4,3,4,3,4,3,4,3,4,3,4,3,4,3,4,3,4,3,4,3,4,3,4,3,4,3,4,3,4,3,4,3,4,3,4,3,4,3,4,3,4,3,4,3,4,3,4,3,4,3,4,3,4,3,4,3,4,3,4,3,4,3,4,3,4,3,4,3,4,3,4,3,4,3,4,3,4,3,4,3,4,3,4,3,4,3,4,3,4,3,4,3,4,3,4,3,4,3,4,3,4,3,4,3,4,3,4,3,4,3,4,3,4,3,4,3,4,3,4,3,4,3,4,3,4,3,4,3,4,3,4,3,4,3,4,3,4,3,4,3,4,3,4,3,4,3,4,3,4,3,4,3,4,3,4,3,4,3,4,3,4,3,4,3,4,3,4,3,4,3,4,3,4,3,4,3,4,3,4,3,4,3,4,3,4,3,4,3,4,3,4,3,4,3,4,3,4,3,4,3,4,3,4,3,4,3,4,3,4,3,4,3,4,3,4,3,4,
1,2,1,2,1,2,1,2,1,2,1,2,1,2,1,2,1,2,1,2,1,2,1,2,1,2,1,2,1,2,1,2,1,2,1,2,1,2,1,2,1,2,1,2,1,2,1,2,1,2,1,2,1,2,1,2,1,2,1,2,1,2,1,2,1,2,1,2,1,2,1,2,1,2,1,2,1,2,1,2,1,2,1,2,1,2,1,2,1,2,1,2,1,2,1,2,1,2,1,2,1,2,1,2,1,2,1,2,1,2,1,2,1,2,1,2,1,2,1,2,1,2,1,2,1,2,1,2,1,2,1,2,1,2,1,2,1,2,1,2,1,2,1,2,1,2,1,2,1,2,1,2,1,2,1,2,1,2,1,2,1,2,1,2,1,2,1,2,1,2,1,2,1,2,1,2,1,2,1,2,1,2,1,2,1,2,1,2,1,2,1,2,1,2,1,2,1,2,1,2,1,2,1,2,1,2,1,2,1,2,1,2,1,2,1,2,1,2,1,2,1,2,1,2,1,2,1,2,1,2,1,2,1,2,1,2,1,2,1,2,1,2,1,2,1,2,1,2,1,2,1,2,1,2,1,2,1,2,1,2,1,2,1,2,1,2,1,2,1,2,1,2,1,2,1,2,1,2,1,2,1,2,1,2,1,2,1,2,1,2,1,2,1,2,1,2,1,2,1,2,1,2,1,2,1,2,1,2,1,2,1,2,1,2,1,2,1,2,1,2,1,2,1,2,1,2,1,2,1,2,1,2,1,2,1,2,1,2,1,2,1,2,1,2,1,2,1,2,1,2,1,2,1,2,1,2,1,2,1,2,1,2,1,2,1,2,1,2,1,2,1,2,1,2,1,2,1,2,1,2,1,2,1,2,1,2,1,2,1,2,1,2,1,2,1,2,1,2,1,2,1,2,1,2,1,2,1,2,1,2,1,2,1,2,1,2,1,2,1,2,1,2,1,2,1,2,1,2,1,2,1,2,1,2,1,2,1,2,1,2,1,2,1,2,1,2,1,2,1,2,1,2,1,2,1,2,1,2,1,2,1,2,1,2,1,2,1,2,1,2,1,2,1,2,1,2,1,2,1,2,1,2,1,2,1,2,1,2,1,2,1,2,1,2,1,2,1,2,1,2,1,2,1,2,1,2,1,2,1,2,1,2,
3,4,3,4,3,4,3,4,3,4,3,4,3,4,3,4,3,4,3,4,3,4,3,4,3,4,3,4,3,4,3,4,3,4,3,4,3,4,3,4,3,4,3,4,3,4,3,4,3,4,3,4,3,4,3,4,3,4,3,4,3,4,3,4,3,4,3,4,3,4,3,4,3,4,3,4,3,4,3,4,3,4,3,4,3,4,3,4,3,4,3,4,3,4,3,4,3,4,3,4,3,4,3,4,3,4,3,4,3,4,3,4,3,4,3,4,3,4,3,4,3,4,3,4,3,4,3,4,3,4,3,4,3,4,3,4,3,4,3,4,3,4,3,4,3,4,3,4,3,4,3,4,3,4,3,4,3,4,3,4,3,4,3,4,3,4,3,4,3,4,3,4,3,4,3,4,3,4,3,4,3,4,3,4,3,4,3,4,3,4,3,4,3,4,3,4,3,4,3,4,3,4,3,4,3,4,3,4,3,4,3,4,3,4,3,4,3,4,3,4,3,4,3,4,3,4,3,4,3,4,3,4,3,4,3,4,3,4,3,4,3,4,3,4,3,4,3,4,3,4,3,4,3,4,3,4,3,4,3,4,3,4,3,4,3,4,3,4,3,4,3,4,3,4,3,4,3,4,3,4,3,4,3,4,3,4,3,4,3,4,3,4,3,4,3,4,3,4,3,4,3,4,3,4,3,4,3,4,3,4,3,4,3,4,3,4,3,4,3,4,3,4,3,4,3,4,3,4,3,4,3,4,3,4,3,4,3,4,3,4,3,4,3,4,3,4,3,4,3,4,3,4,3,4,3,4,3,4,3,4,3,4,3,4,3,4,3,4,3,4,3,4,3,4,3,4,3,4,3,4,3,4,3,4,3,4,3,4,3,4,3,4,3,4,3,4,3,4,3,4,3,4,3,4,3,4,3,4,3,4,3,4,3,4,3,4,3,4,3,4,3,4,3,4,3,4,3,4,3,4,3,4,3,4,3,4,3,4,3,4,3,4,3,4,3,4,3,4,3,4,3,4,3,4,3,4,3,4,3,4,3,4,3,4,3,4,3,4,3,4,3,4,3,4,3,4,3,4,3,4,3,4,3,4,3,4,3,4,3,4,3,4,3,4,3,4,3,4,3,4,3,4,3,4,3,4,3,4,3,4,3,4,
1,2,1,2,1,2,1,2,1,2,1,2,1,2,1,2,1,2,1,2,1,2,1,2,1,2,1,2,1,2,1,2,1,2,1,2,1,2,1,2,1,2,1,2,1,2,1,2,1,2,1,2,1,2,1,2,1,2,1,2,1,2,1,2,1,2,1,2,1,2,1,2,1,2,1,2,1,2,1,2,1,2,1,2,1,2,1,2,1,2,1,2,1,2,1,2,1,2,1,2,1,2,1,2,1,2,1,2,1,2,1,2,1,2,1,2,1,2,1,2,1,2,1,2,1,2,1,2,1,2,1,2,1,2,1,2,1,2,1,2,1,2,1,2,1,2,1,2,1,2,1,2,1,2,1,2,1,2,1,2,1,2,1,2,1,2,1,2,1,2,1,2,1,2,1,2,1,2,1,2,1,2,1,2,1,2,1,2,1,2,1,2,1,2,1,2,1,2,1,2,1,2,1,2,1,2,1,2,1,2,1,2,1,2,1,2,1,2,1,2,1,2,1,2,1,2,1,2,1,2,1,2,1,2,1,2,1,2,1,2,1,2,1,2,1,2,1,2,1,2,1,2,1,2,1,2,1,2,1,2,1,2,1,2,1,2,1,2,1,2,1,2,1,2,1,2,1,2,1,2,1,2,1,2,1,2,1,2,1,2,1,2,1,2,1,2,1,2,1,2,1,2,1,2,1,2,1,2,1,2,1,2,1,2,1,2,1,2,1,2,1,2,1,2,1,2,1,2,1,2,1,2,1,2,1,2,1,2,1,2,1,2,1,2,1,2,1,2,1,2,1,2,1,2,1,2,1,2,1,2,1,2,1,2,1,2,1,2,1,2,1,2,1,2,1,2,1,2,1,2,1,2,1,2,1,2,1,2,1,2,1,2,1,2,1,2,1,2,1,2,1,2,1,2,1,2,1,2,1,2,1,2,1,2,1,2,1,2,1,2,1,2,1,2,1,2,1,2,1,2,1,2,1,2,1,2,1,2,1,2,1,2,1,2,1,2,1,2,1,2,1,2,1,2,1,2,1,2,1,2,1,2,1,2,1,2,1,2,1,2,1,2,1,2,1,2,1,2,1,2,1,2,1,2,1,2,1,2,1,2,1,2,1,2,1,2,1,2,1,2,1,2,1,2,1,2,1,2,1,2,1,2,
3,4,3,4,3,4,3,4,3,4,3,4,3,4,3,4,3,4,3,4,3,4,3,4,3,4,3,4,3,4,3,4,3,4,3,4,3,4,3,4,3,4,3,4,3,4,3,4,3,4,3,4,3,4,3,4,3,4,3,4,3,4,3,4,3,4,3,4,3,4,3,4,3,4,3,4,3,4,3,4,3,4,3,4,3,4,3,4,3,4,3,4,3,4,3,4,3,4,3,4,3,4,3,4,3,4,3,4,5,3,4,3,4,3,4,3,4,3,4,3,4,3,4,3,4,3,4,3,4,3,4,3,4,3,4,3,4,3,4,3,4,3,4,3,4,3,4,3,4,3,4,3,4,3,4,3,4,3,4,3,4,3,4,3,4,3,4,3,4,3,4,3,4,3,4,3,4,3,4,3,4,3,4,3,4,3,4,3,4,3,4,3,4,3,4,3,4,3,4,3,4,3,4,3,4,3,4,3,4,3,4,3,4,3,4,3,4,3,4,3,4,3,4,3,4,3,4,3,4,3,4,3,4,3,4,3,4,3,4,3,4,3,4,3,4,3,4,3,4,3,4,3,4,3,4,3,4,3,4,3,4,3,4,3,4,3,4,3,4,3,4,3,4,3,4,3,4,3,4,3,4,3,4,3,4,3,4,3,4,3,4,3,4,3,4,3,4,3,4,3,4,3,4,3,4,3,4,3,4,3,4,3,4,3,4,3,4,3,4,3,4,3,4,3,4,3,4,3,4,3,4,3,4,3,4,3,4,3,4,3,4,3,4,3,4,3,4,3,4,3,4,3,4,3,4,3,4,3,4,3,4,3,4,3,4,3,4,3,4,3,4,3,4,3,4,3,4,3,4,3,4,3,4,3,4,3,4,3,4,3,4,3,4,3,4,3,4,3,4,3,4,3,4,3,4,3,4,3,4,3,4,3,4,3,4,3,4,3,4,3,4,3,4,3,4,3,4,3,4,3,4,3,4,3,4,3,4,3,4,3,4,3,4,3,4,3,4,3,4,3,4,3,4,3,4,3,4,3,4,3,4,3,4,3,4,3,4,3,4,3,4,3,4,3,4,3,4,3,4,3,4,3,4,3,4,3,4,3,4,3,4,3,4,3,4,3,4,3,4,3,4,3,4,3,4,3,4,3,4,3,4,3,
1,2,1,2,1,2,1,2,1,2,1,2,1,2,1,2,1,2,1,2,1,2,1,2,1,2,1,2,1,2,1,2,1,2,1,2,1,2,1,2,1,2,1,2,1,2,1,2,1,2,1,2,1,2,1,2,1,2,1,2,1,2,1,2,1,2,1,2,1,2,1,2,1,2,1,2,1,2,1,2,1,2,1,2,1,2,1,2,1,2,1,2,1,2,1,2,1,2,1,2,1,2,1,2,1,2,1,6,7,2,1,2,1,2,1,2,1,2,1,2,1,2,1,2,1,2,1,2,1,2,1,2,1,2,1,2,1,2,1,2,1,2,1,2,1,2,1,2,1,2,1,2,1,2,1,2,1,2,1,2,1,2,1,2,1,2,1,2,1,2,1,2,1,2,1,2,1,2,1,2,1,2,1,2,1,2,1,2,1,2,1,2,1,2,1,2,1,2,1,2,1,2,1,2,1,2,1,2,1,2,1,2,1,2,1,2,1,2,1,2,1,2,1,2,1,2,1,2,1,2,1,2,1,2,1,2,1,2,1,2,1,2,1,2,1,2,1,2,1,2,1,2,1,2,1,2,1,2,1,2,1,2,1,2,1,2,1,2,1,2,1,2,1,2,1,2,1,2,1,2,1,2,1,2,1,2,1,2,1,2,1,2,1,2,1,2,1,2,1,2,1,2,1,2,1,2,1,2,1,2,1,2,1,2,1,2,1,2,1,2,1,2,1,2,1,2,1,2,1,2,1,2,1,2,1,2,1,2,1,2,1,2,1,2,1,2,1,2,1,2,1,2,1,2,1,2,1,2,1,2,1,2,1,2,1,2,1,2,1,2,1,2,1,2,1,2,1,2,1,2,1,2,1,2,1,2,1,2,1,2,1,2,1,2,1,2,1,2,1,2,1,2,1,2,1,2,1,2,1,2,1,2,1,2,1,2,1,2,1,2,1,2,1,2,1,2,1,2,1,2,1,2,1,2,1,2,1,2,1,2,1,2,1,2,1,2,1,2,1,2,1,2,1,2,1,2,1,2,1,2,1,2,1,2,1,2,1,2,1,2,1,2,1,2,1,2,1,2,1,2,1,2,1,2,1,2,1,2,1,2,1,2,1,2,1,2,1,2,1,2,1,2,1,2,1,2,1,2,1,2,1,2,
3,4,3,4,3,4,3,4,3,4,3,4,3,4,3,4,3,4,3,4,3,4,3,4,3,4,3,4,3,4,3,4,3,4,3,4,3,4,3,4,3,4,3,4,3,4,3,4,3,4,3,4,3,4,3,4,3,4,3,4,3,4,3,4,3,4,3,4,3,4,3,4,3,4,3,4,3,4,3,4,3,4,3,4,3,4,3,4,3,4,3,4,3,4,3,4,3,4,3,4,3,4,3,4,3,4,8,9,10,3,4,3,4,3,4,3,4,3,4,3,4,3,4,3,4,3,4,3,4,3,4,3,4,3,4,3,4,3,4,3,4,3,4,3,4,3,4,3,4,3,4,3,4,3,4,3,4,3,4,3,4,3,4,3,4,3,4,3,4,3,4,3,4,3,4,3,4,3,4,3,4,3,4,3,4,3,4,3,4,3,4,3,4,3,4,3,4,3,4,3,4,3,4,3,4,3,4,3,4,3,4,3,4,3,4,3,4,3,4,3,4,3,4,3,4,3,4,3,4,3,4,3,4,3,4,3,4,3,4,3,4,3,4,3,4,3,4,3,4,3,4,3,4,3,4,3,4,3,4,3,4,3,4,3,4,3,4,3,4,3,4,3,4,3,4,3,4,3,4,3,4,3,4,3,4,3,4,3,4,3,4,3,4,3,4,3,4,3,4,3,4,3,4,3,4,3,4,3,4,3,4,3,4,3,4,3,4,3,4,3,4,3,4,3,4,3,4,3,4,3,4,3,4,3,4,3,4,3,4,3,4,3,4,3,4,3,4,3,4,3,4,3,4,3,4,3,4,3,4,3,4,3,4,3,4,3,4,3,4,3,4,3,4,3,4,3,4,3,4,3,4,3,4,3,4,3,4,3,4,3,4,3,4,3,4,3,4,3,4,3,4,3,4,3,4,3,4,3,4,3,4,3,4,3,4,3,4,3,4,3,4,3,4,3,4,3,4,3,4,3,4,3,4,3,4,3,4,3,4,3,4,3,4,3,4,3,4,3,4,3,4,3,4,3,4,3,4,3,4,3,4,3,4,3,4,3,4,3,4,3,4,3,4,3,4,3,4,3,4,3,4,3,4,3,4,3,4,3,4,3,4,3,4,3,4,3,4,3,4,3,4,3,4,3,4,3,4,3,4,3,4,3,
1,2,1,2,1,2,1,2,1,2,1,2,1,2,1,2,1,2,1,2,1,2,1,2,1,2,1,2,1,2,1,2,1,2,1,2,1,2,1,2,1,2,1,2,1,2,1,2,1,2,1,2,1,2,1,2,1,2,1,2,1,2,1,2,1,2,1,2,1,2,1,2,1,2,1,2,1,2,1,2,1,2,1,2,1,2,1,2,1,2,1,2,1,2,1,2,1,2,1,2,1,2,1,2,1,11,12,13,14,2,1,2,1,2,1,2,1,2,1,2,1,2,1,2,1,2,1,2,1,2,1,2,1,2,1,2,1,2,1,2,1,2,1,2,1,2,1,2,1,2,1,2,1,2,1,2,1,2,1,2,1,2,1,2,1,2,1,2,1,2,1,2,1,2,1,2,1,2,1,2,1,2,1,2,1,2,1,2,1,2,1,2,1,2,1,2,1,2,1,2,1,2,1,2,1,2,1,2,1,2,1,2,1,2,1,2,1,2,1,2,1,2,1,2,1,2,1,2,1,2,1,2,1,2,1,2,1,2,1,2,1,2,1,2,1,2,1,2,1,2,1,2,1,2,1,2,1,2,1,2,1,2,1,2,1,2,1,2,1,2,1,2,1,2,1,2,1,2,1,2,1,2,1,2,1,2,1,2,1,2,1,2,1,2,1,2,1,2,1,2,1,2,1,2,1,2,1,2,1,2,1,2,1,2,1,2,1,2,1,2,1,2,1,2,1,2,1,2,1,2,1,2,1,2,1,2,1,2,1,2,1,2,1,2,1,2,1,2,1,2,1,2,1,2,1,2,1,2,1,2,1,2,1,2,1,2,1,2,1,2,1,2,1,2,1,2,1,2,1,2,1,2,1,2,1,2,1,2,1,2,1,2,1,2,1,2,1,2,1,2,1,2,1,2,1,2,1,2,1,2,1,2,1,2,1,2,1,2,1,2,1,2,1,2,1,2,1,2,1,2,1,2,1,2,1,2,1,2,1,2,1,2,1,2,1,2,1,2,1,2,1,2,1,2,1,2,1,2,1,2,1,2,1,2,1,2,1,2,1,2,1,2,1,2,1,2,1,2,1,2,1,2,1,2,1,2,1,2,1,2,1,2,1,2,1,2,1,2,1,2,1,2,1,2,1,2,1,2,1,2,1,2,
3,4,3,4,3,4,3,4,3,4,3,4,3,4,3,4,3,4,3,4,3,4,3,4,3,4,3,4,3,4,3,4,3,4,3,4,3,4,3,4,3,4,3,4,3,4,3,4,3,4,3,4,3,4,3,4,3,4,3,4,3,4,3,4,3,4,3,4,3,4,3,4,3,4,3,4,3,4,3,4,3,4,3,4,3,4,3,4,3,4,3,4,3,4,3,4,3,4,3,4,3,4,3,4,3,15,16,17,18,3,4,3,4,3,4,3,4,3,4,3,4,3,4,3,4,3,4,3,4,3,4,3,4,3,4,3,4,3,4,3,4,3,4,3,4,3,4,3,4,3,4,3,4,3,4,3,4,3,4,3,4,3,4,3,4,3,4,3,4,3,4,3,4,3,4,3,4,3,4,3,4,3,4,3,4,3,4,3,4,3,4,3,4,3,4,3,4,3,4,3,4,3,4,3,4,3,4,3,4,3,4,3,4,3,4,3,4,3,4,3,4,3,4,3,4,3,4,3,4,3,4,3,4,3,4,3,4,3,4,3,4,3,4,3,4,3,4,3,4,3,4,3,4,3,4,3,4,3,4,3,4,3,4,3,4,3,4,3,4,3,4,3,4,3,4,3,4,3,4,3,4,3,4,3,4,3,4,3,4,3,4,3,4,3,4,3,4,3,4,3,4,3,4,3,4,3,4,3,4,3,4,3,4,3,4,3,4,3,4,3,4,3,4,3,4,3,4,3,4,3,4,3,4,3,4,3,4,3,4,3,4,3,4,3,4,3,4,3,4,3,4,3,4,3,4,3,4,3,4,3,4,3,4,3,4,3,4,3,4,3,4,3,4,3,4,3,4,3,4,3,4,3,4,3,4,3,4,3,4,3,4,3,4,3,4,3,4,3,4,3,4,3,4,3,4,3,4,3,4,3,4,3,4,3,4,3,4,3,4,3,4,3,4,3,4,3,4,3,4,3,4,3,4,3,4,3,4,3,4,3,4,3,4,3,4,3,4,3,4,3,4,3,4,3,4,3,4,3,4,3,4,3,4,3,4,3,4,3,4,3,4,3,4,3,4,3,4,3,4,3,4,3,4,3,4,3,4,3,4,3,4,3,4,3,4,3,4,3,4,3,4,3,4,3,4,3,4,3,4,3,4,3,
1,2,1,2,1,2,1,2,1,2,1,2,1,2,1,2,1,2,1,2,1,2,1,2,1,2,1,2,1,2,1,2,1,2,1,2,1,2,1,2,1,2,1,2,1,2,1,2,1,2,1,2,1,2,1,2,1,2,1,2,1,2,1,2,1,2,1,2,1,2,1,2,1,2,1,2,1,2,1,2,1,2,1,2,1,2,1,2,1,2,1,2,1,2,1,2,1,2,1,2,1,2,1,2,1,19,12,13,7,2,1,2,1,2,1,2,1,2,1,2,1,2,1,2,1,2,1,2,1,2,1,2,1,2,1,2,1,2,1,2,1,2,1,2,1,2,1,2,1,2,1,2,1,2,1,2,1,2,1,2,1,2,1,2,1,2,1,2,1,2,1,2,1,2,1,2,1,2,1,2,1,2,1,2,1,2,1,2,1,2,1,2,1,2,1,2,1,2,1,2,1,2,1,2,1,2,1,2,1,2,1,2,1,2,1,2,1,2,1,2,1,2,1,2,1,2,1,2,1,2,1,2,1,2,1,2,1,2,1,2,1,2,1,2,1,2,1,2,1,2,1,2,1,2,1,2,1,2,1,2,1,2,1,2,1,2,1,2,1,2,1,2,1,2,1,2,1,2,1,2,1,2,1,2,1,2,1,2,1,2,1,2,1,2,1,2,1,2,1,2,1,2,1,2,1,2,1,2,1,2,1,2,1,2,1,2,1,2,1,2,1,2,1,2,1,2,1,2,1,2,1,2,1,2,1,2,1,2,1,2,1,2,1,2,1,2,1,2,1,2,1,2,1,2,1,2,1,2,1,2,1,2,1,2,1,2,1,2,1,2,1,2,1,2,1,2,1,2,1,2,1,2,1,2,1,2,1,2,1,2,1,2,1,2,1,2,1,2,1,2,1,2,1,2,1,2,1,2,1,2,1,2,1,2,1,2,1,2,1,2,1,2,1,2,1,2,1,2,1,2,1,2,1,2,1,2,1,2,1,2,1,2,1,2,1,2,1,2,1,2,1,2,1,2,1,2,1,2,1,2,1,2,1,2,1,2,1,2,1,2,1,2,1,2,1,2,1,2,1,2,1,2,1,2,1,2,1,2,1,2,1,2,1,2,1,2,1,2,1,2,1,2,1,2,1,2,1,2,1,2,1,2,
3,4,3,4,3,4,3,4,3,4,3,4,3,4,3,4,3,4,3,4,3,4,3,4,3,4,3,4,3,4,3,4,3,4,3,4,3,4,3,4,3,4,3,4,3,4,3,4,3,4,3,4,3,4,3,4,3,4,3,4,3,4,3,4,3,4,3,4,3,4,3,4,3,4,3,4,3,4,3,4,3,4,3,4,3,4,3,4,3,4,3,4,3,4,3,4,3,4,3,4,3,4,3,4,3,20,16,17,10,3,4,3,4,3,4,3,4,3,4,3,4,3,4,3,4,3,4,3,4,3,4,3,4,3,4,3,4,3,4,3,4,3,4,3,4,3,4,3,4,3,4,3,4,3,4,3,4,3,4,3,4,3,4,3,4,3,4,3,4,3,4,3,4,3,4,3,4,3,4,3,4,3,4,3,4,3,4,3,4,3,4,3,4,3,4,3,4,3,4,3,4,3,4,3,4,3,4,3,4,3,4,3,4,3,4,3,4,3,4,3,4,3,4,3,4,3,4,3,4,3,4,3,4,3,4,3,4,3,4,3,4,3,4,3,4,3,4,3,4,3,4,3,4,3,4,3,4,3,4,3,4,3,4,3,4,3,4,3,4,3,4,3,4,3,4,3,4,3,4,3,4,3,4,3,4,3,4,3,4,3,4,3,4,3,4,3,4,3,4,3,4,3,4,3,4,3,4,3,4,3,4,3,4,3,4,3,4,3,4,3,4,3,4,3,4,3,4,3,4,3,4,3,4,3,4,3,4,3,4,3,4,3,4,3,4,3,4,3,4,3,4,3,4,3,4,3,4,3,4,3,4,3,4,3,4,3,4,3,4,3,4,3,4,3,4,3,4,3,4,3,4,3,4,3,4,3,4,3,4,3,4,3,4,3,4,3,4,3,4,3,4,3,4,3,4,3,4,3,4,3,4,3,4,3,4,3,4,3,4,3,4,3,4,3,4,3,4,3,4,3,4,3,4,3,4,3,4,3,4,3,4,3,4,3,4,3,4,3,4,3,4,3,4,3,4,3,4,3,4,3,4,3,4,3,4,3,4,3,4,3,4,3,4,3,4,3,4,3,4,3,4,3,4,3,4,3,4,3,4,3,4,3,4,3,4,3,4,3,4,3,4,3,4,3,4,3,4,3,4,3,4,3,
1,2,1,2,1,2,1,2,1,2,1,2,1,2,1,2,1,2,1,2,1,2,1,2,1,2,1,2,1,2,1,2,1,2,1,2,1,2,1,2,1,2,1,2,1,2,1,2,1,2,1,2,1,2,1,2,1,2,1,2,1,2,1,2,1,2,1,2,1,2,1,2,1,2,1,2,1,2,1,2,1,2,1,2,1,2,1,2,1,2,1,2,1,2,1,2,1,2,1,2,1,2,1,2,1,11,12,13,14,2,1,2,1,2,1,2,1,2,1,2,1,2,1,2,1,2,1,2,1,2,1,2,1,2,1,2,1,2,1,2,1,2,1,2,1,2,1,2,1,2,1,2,1,2,1,2,1,2,1,2,1,2,1,2,1,2,1,2,1,2,1,2,1,2,1,2,1,2,1,2,1,2,1,2,1,2,1,2,1,2,1,2,1,2,1,2,1,2,1,2,1,2,1,2,1,2,1,2,1,2,1,2,1,2,1,2,1,2,1,2,1,2,1,2,1,2,1,2,1,2,1,2,1,2,1,2,1,2,1,2,1,2,1,2,1,2,1,2,1,2,1,2,1,2,1,2,1,2,1,2,1,2,1,2,1,2,1,2,1,2,1,2,1,2,1,2,1,2,1,2,1,2,1,2,1,2,1,2,1,2,1,2,1,2,1,2,1,2,1,2,1,2,1,2,1,2,1,2,1,2,1,2,1,2,1,2,1,2,1,2,1,2,1,2,1,2,1,2,1,2,1,2,1,2,1,2,1,2,1,2,1,2,1,2,1,2,1,2,1,2,1,2,1,2,1,2,1,2,1,2,1,2,1,2,1,2,1,2,1,2,1,2,1,2,1,2,1,2,1,2,1,2,1,2,1,2,1,2,1,2,1,2,1,2,1,2,1,2,1,2,1,2,1,2,1,2,1,2,1,2,1,2,1,2,1,2,1,2,1,2,1,2,1,2,1,2,1,2,1,2,1,2,1,2,1,2,1,2,1,2,1,2,1,2,1,2,1,2,1,2,1,2,1,2,1,2,1,2,1,2,1,2,1,2,1,2,1,2,1,2,1,2,1,2,1,2,1,2,1,2,1,2,1,2,1,2,1,2,1,2,1,2,1,2,1,2,1,2,1,2,1,2,1,2,1,2,1,2,1,2,1,2,
3,4,3,4,3,4,3,4,3,4,3,4,3,4,3,4,3,4,3,4,3,4,3,4,3,4,3,4,3,4,3,4,3,4,3,4,3,4,3,4,3,4,3,4,3,4,3,4,3,4,3,4,3,4,3,4,3,4,3,4,3,4,3,4,3,4,3,4,3,4,3,4,3,4,3,4,3,4,3,4,3,4,3,4,3,4,3,4,3,4,3,4,3,4,3,4,3,4,3,4,3,4,3,4,3,15,16,17,18,3,4,3,4,3,4,3,4,3,4,3,4,3,4,3,4,3,4,3,4,3,4,3,4,3,4,3,4,3,4,3,4,3,4,3,4,3,4,3,4,3,4,3,4,3,4,3,4,3,4,3,4,3,4,3,4,3,4,3,4,3,4,3,4,3,4,3,4,3,4,3,4,3,4,3,4,3,4,3,4,3,4,3,4,3,4,3,4,3,4,3,4,3,4,3,4,3,4,3,4,3,4,3,4,3,4,3,4,3,4,3,4,3,4,3,4,3,4,3,4,3,4,3,4,3,4,3,4,3,4,3,4,3,4,3,4,3,4,3,4,3,4,3,4,3,4,3,4,3,4,3,4,3,4,3,4,3,4,3,4,3,4,3,4,3,4,3,4,3,4,3,4,3,4,3,4,3,4,3,4,3,4,3,4,3,4,3,4,3,4,3,4,3,4,3,4,3,4,3,4,3,4,3,4,3,4,3,4,3,4,3,4,3,4,3,4,3,4,3,4,3,4,3,4,3,4,3,4,3,4,3,4,3,4,3,4,3,4,3,4,3,4,3,4,3,4,3,4,3,4,3,4,3,4,3,4,3,4,3,4,3,4,3,4,3,4,3,4,3,4,3,4,3,4,3,4,3,4,3,4,3,4,3,4,3,4,3,4,3,4,3,4,3,4,3,4,3,4,3,4,3,4,3,4,3,4,3,4,3,4,3,4,4,5,3,4,3,4,3,4,3,4,3,4,3,4,3,4,3,4,3,4,3,4,3,4,3,4,3,4,3,4,3,4,3,4,3,4,3,4,3,4,3,4,3,4,3,4,3,4,3,4,3,4,3,4,3,4,3,4,3,4,3,4,3,4,3,4,3,4,3,4,3,4,3,4,3,4,3,4,3,4,3,4,3,4,3,4,3,4,3,4,3,
1,2,1,2,1,2,1,2,1,2,1,2,1,2,1,2,1,2,1,2,1,2,1,2,1,2,1,2,1,2,1,2,1,2,1,2,1,2,1,2,1,2,1,2,1,2,1,2,1,2,1,2,1,2,1,2,1,2,1,2,1,2,1,2,1,2,1,2,1,2,1,2,1,2,1,2,1,2,1,2,1,2,1,2,1,2,1,2,1,2,1,2,1,2,1,2,1,2,1,2,1,2,1,2,1,6,12,13,7,2,1,2,1,2,1,2,1,2,1,2,1,2,1,2,1,2,1,2,1,2,1,2,1,2,1,2,1,2,1,2,1,2,1,2,1,2,1,2,1,2,1,2,1,2,1,2,1,2,1,2,1,2,1,2,1,2,1,2,1,2,1,2,1,2,1,2,1,2,1,2,1,2,1,2,1,2,1,2,1,2,1,2,1,2,1,2,1,2,1,2,1,2,1,2,1,2,1,2,1,2,1,2,1,2,1,2,1,2,1,2,1,2,1,2,1,2,1,2,1,2,1,2,1,2,1,2,1,2,1,2,1,2,1,2,1,2,1,2,1,2,1,2,1,2,1,2,1,2,1,2,1,2,1,2,1,2,1,2,1,2,1,2,1,2,1,2,1,2,1,2,1,2,1,2,1,2,1,2,1,2,1,2,1,2,1,2,1,2,1,2,1,2,1,2,1,2,1,2,1,2,1,2,1,2,1,2,1,2,1,2,1,2,1,2,1,2,1,2,1,2,1,2,1,2,1,2,1,2,1,2,1,2,1,2,1,2,1,2,1,2,1,2,1,2,1,2,1,2,1,2,1,2,1,2,1,2,1,2,1,2,1,2,1,2,1,2,1,2,1,2,1,2,1,2,1,2,1,2,1,2,1,2,1,2,1,2,1,2,1,2,1,2,1,2,1,2,1,2,1,2,1,2,1,2,1,2,1,2,1,2,1,6,21,2,1,2,1,2,1,2,1,2,1,2,1,2,1,2,1,2,1,2,1,2,1,2,1,2,1,2,1,2,1,2,1,2,1,2,1,2,1,2,1,2,1,2,1,2,1,2,1,2,1,2,1,2,1,2,1,2,1,2,1,2,1,2,1,2,1,2,1,2,1,2,1,2,1,2,1,2,1,2,1,2,1,2,1,2,1,2,1,2,
3,4,3,4,3,4,3,4,3,4,3,4,3,4,3,4,3,4,3,4,3,4,3,4,3,4,3,4,3,4,3,4,3,4,3,4,3,4,3,4,3,4,3,4,3,4,3,4,3,4,3,4,3,4,3,4,3,4,3,4,3,4,3,4,3,4,3,4,3,4,3,4,3,4,22,23,24,25,22,23,24,25,22,23,24,25,22,23,24,25,22,23,5,3,4,4,24,25,22,23,24,25,22,23,8,9,16,17,10,3,4,3,4,3,4,3,4,3,4,3,4,3,4,3,4,3,4,3,4,3,4,3,4,3,4,3,4,3,4,3,4,3,4,3,4,3,4,3,4,3,4,3,4,3,4,3,4,3,4,3,4,3,4,3,4,3,4,3,4,3,4,3,4,3,4,3,4,3,4,3,4,3,4,3,4,3,4,3,4,3,4,3,4,3,4,3,4,3,4,3,4,3,4,3,4,3,4,3,4,3,4,3,4,3,4,3,4,3,4,3,4,3,4,3,4,3,4,3,4,3,4,3,4,3,4,3,4,3,4,3,4,3,4,3,4,3,4,3,4,3,4,3,4,3,4,3,4,3,4,3,4,3,4,3,4,3,4,3,4,3,4,3,4,3,4,3,4,3,4,3,4,3,4,3,4,3,4,3,4,3,4,3,4,3,4,3,4,3,4,3,4,3,4,3,4,3,4,3,4,3,4,3,4,3,4,3,4,3,4,3,4,3,4,3,4,3,4,3,4,3,4,3,4,3,4,3,4,3,4,3,4,3,4,3,4,3,4,3,4,3,4,3,4,3,4,3,4,3,4,3,4,3,4,3,4,3,4,3,4,3,4,3,4,3,4,3,4,3,4,3,4,3,4,3,4,3,4,3,4,3,4,3,4,3,4,3,4,3,4,3,4,3,4,3,4,3,4,3,4,3,4,3,4,3,4,3,4,3,4,4,8,9,16,26,5,3,4,3,4,3,4,3,4,3,4,3,4,3,4,3,4,3,4,3,4,3,4,3,4,3,4,3,4,3,4,3,4,3,4,3,4,3,4,3,4,3,4,3,4,3,4,3,4,3,4,3,4,3,4,3,4,3,4,3,4,3,4,3,4,3,4,3,4,3,4,3,4,3,4,3,4,3,4,3,4,3,4,3,4,3,4,3,
1,2,1,2,1,2,1,2,1,2,1,2,1,2,1,2,1,2,1,2,1,2,1,2,1,2,1,2,1,2,1,2,1,2,1,2,1,2,1,2,1,2,1,2,1,2,1,2,1,2,1,2,1,2,1,2,1,2,1,2,1,2,1,2,1,2,1,2,1,2,1,2,1,27,28,29,12,13,12,13,12,13,12,13,12,13,12,30,31,32,33,13,21,2,1,6,12,30,31,32,31,32,31,32,33,13,12,13,14,2,1,2,1,2,1,2,1,2,1,2,1,2,1,2,1,2,1,2,1,2,1,2,1,2,1,2,1,2,1,2,1,2,1,2,1,2,1,2,1,2,1,2,1,2,1,2,1,2,1,2,1,2,1,2,1,2,1,2,1,2,1,2,1,2,1,2,1,2,1,2,1,2,1,2,1,2,1,2,1,2,1,2,1,2,1,2,1,2,1,2,1,2,1,2,1,2,1,2,1,2,1,2,1,2,1,2,1,2,1,2,1,2,1,2,1,2,1,2,1,2,1,2,1,2,1,2,1,2,1,2,1,2,1,2,1,2,1,2,1,2,1,2,1,2,1,2,1,2,1,2,1,2,1,2,1,2,1,2,1,2,1,2,1,2,1,2,1,2,1,2,1,2,1,2,1,2,1,2,1,2,1,2,1,2,1,2,1,2,1,2,1,2,1,2,1,2,1,2,1,2,1,2,1,2,1,2,1,2,1,2,1,2,1,2,1,2,1,2,1,2,1,2,1,2,1,2,1,2,1,2,1,2,1,2,1,2,1,2,1,2,1,2,1,2,1,2,1,2,1,2,1,2,1,2,1,2,1,2,1,2,1,2,1,2,1,2,1,2,1,2,1,2,1,2,1,2,1,2,1,2,1,2,1,2,1,2,1,2,1,2,1,2,1,2,1,2,1,2,1,2,1,2,1,2,1,2,1,2,1,11,12,13,12,13,7,2,1,2,1,2,1,2,1,2,1,2,1,2,1,2,1,2,1,2,1,2,1,2,1,2,1,2,1,2,1,2,1,2,1,2,1,2,1,2,1,2,1,2,1,2,1,2,1,2,1,2,1,2,1,2,1,2,1,2,1,2,1,2,1,2,1,2,1,2,1,2,1,2,1,2,1,2,1,2,1,2,1,2,1,2,1,2,
3,4,3,4,3,4,3,4,3,4,3,4,3,4,3,4,3,4,3,4,3,4,3,4,3,4,3,4,3,4,3,4,3,4,3,4,3,4,3,4,3,4,3,4,3,4,3,4,3,4,3,4,3,4,3,4,3,4,3,4,3,4,3,4,3,4,3,4,3,4,3,4,3,4,34,28,35,17,16,17,16,17,16,17,16,17,36,37,38,39,40,41,16,26,8,9,36,37,38,39,38,39,38,39,40,41,17,35,18,3,4,3,4,3,4,3,4,3,4,3,4,3,4,3,4,3,4,3,4,3,4,3,4,3,4,3,4,3,4,3,4,3,4,3,4,3,4,3,4,3,4,3,4,3,4,3,4,3,4,3,4,3,4,3,4,3,4,3,4,3,4,3,4,3,4,3,4,3,4,3,4,3,4,3,4,3,4,3,4,3,4,3,4,3,4,3,4,3,4,3,4,3,4,3,4,3,4,3,4,3,4,3,4,3,4,3,4,3,4,3,4,3,4,3,4,3,4,3,4,3,4,3,4,3,4,3,4,3,4,3,4,3,4,3,4,3,4,3,4,3,4,3,4,3,4,3,4,3,4,3,4,3,4,3,4,3,4,3,4,3,4,3,4,3,4,3,4,3,4,3,4,3,4,3,4,3,4,3,4,3,4,3,4,3,4,3,4,3,4,3,4,3,4,3,4,3,4,3,4,3,4,3,4,3,4,3,4,3,4,3,4,3,4,3,4,3,4,3,4,3,4,3,4,3,4,3,4,3,4,3,4,3,4,3,4,3,4,3,4,3,4,3,4,3,4,3,4,3,4,3,4,3,4,3,4,3,4,3,4,3,4,3,4,3,4,3,4,3,4,3,4,3,4,3,4,3,4,3,4,3,4,3,4,3,4,3,4,3,4,3,4,3,4,3,4,3,4,3,4,3,4,3,4,3,4,3,4,3,4,15,16,17,16,17,10,3,4,3,4,3,4,3,4,3,4,3,4,3,4,3,4,3,4,3,4,3,4,3,4,3,4,3,4,3,4,3,4,3,4,3,4,3,4,3,4,3,4,3,4,3,4,3,4,3,4,3,4,3,4,3,4,3,4,3,4,3,4,3,4,3,4,3,4,3,4,3,4,3,4,3,4,3,4,3,4,3,4,3,4,3,4,3,
1,2,1,2,1,2,1,2,1,2,1,2,1,2,1,2,1,2,1,2,1,2,1,2,1,2,1,2,1,2,1,2,1,2,1,2,1,2,1,2,1,2,1,2,1,2,1,2,1,2,1,2,1,2,1,2,1,2,1,2,1,2,1,2,1,2,1,2,1,2,1,2,1,2,1,27,42,43,44,45,28,29,12,13,12,13,46,47,48,49,48,49,31,32,31,32,48,49,48,49,48,49,50,51,52,53,54,55,56,2,1,2,1,2,1,2,1,2,1,2,1,2,1,2,1,2,1,2,1,2,1,2,1,2,1,2,1,2,1,2,1,2,1,2,1,2,1,2,1,2,1,2,1,2,1,2,1,2,1,2,1,2,1,2,1,2,1,2,1,2,1,2,1,2,1,2,1,2,1,2,1,2,1,2,1,2,1,2,1,2,1,2,1,2,1,2,1,2,1,2,1,2,1,2,1,2,1,2,1,2,1,2,1,2,1,2,1,2,1,2,1,2,1,2,1,2,1,2,1,2,1,2,1,2,1,2,1,2,1,2,1,2,1,2,1,2,1,2,1,2,1,2,1,2,1,2,1,2,1,2,1,2,1,2,1,2,1,2,1,2,1,2,1,2,1,2,1,2,1,2,1,2,1,2,1,2,1,2,1,2,1,2,1,2,1,2,1,2,1,2,1,2,1,2,1,2,1,2,1,2,1,2,1,2,1,2,1,2,1,2,1,2,1,2,1,2,1,2,1,2,1,2,1,2,1,2,1,2,1,2,1,2,1,2,1,2,1,2,1,2,1,2,1,2,1,2,1,2,1,2,1,2,1,2,1,2,1,2,1,2,1,2,1,2,1,2,1,2,1,2,1,2,1,2,1,2,1,2,1,2,1,2,1,2,1,2,1,2,1,2,1,2,1,2,1,2,1,2,1,2,1,2,1,2,1,2,1,2,1,19,12,13,12,13,14,2,1,2,1,2,1,2,1,2,1,2,1,2,1,2,1,2,1,2,1,2,1,2,1,2,1,2,1,2,1,2,1,2,1,2,1,2,1,2,1,2,1,2,1,2,1,2,1,2,1,2,1,2,1,2,1,2,1,2,1,2,1,2,1,2,1,2,1,2,1,2,1,2,1,2,1,2,1,2,1,2,1,2,1,2,1,2,
3,4,3,4,3,4,3,4,3,4,3,4,3,4,3,4,3,4,3,4,3,4,3,4,3,4,3,4,3,4,3,4,3,4,3,4,3,4,3,4,3,4,3,4,3,4,3,4,3,4,3,4,3,4,3,4,3,4,3,4,3,4,3,4,3,4,3,4,3,4,3,4,3,4,3,4,3,57,58,57,34,28,35,17,16,17,59,60,61,62,61,62,38,39,38,39,61,62,61,62,61,62,63,64,65,17,55,57,3,4,3,4,3,4,3,4,3,4,3,4,3,4,3,4,3,4,3,4,3,4,3,4,3,4,3,4,3,4,3,4,3,4,3,4,3,4,3,4,3,4,3,4,3,4,3,4,3,4,3,4,3,4,3,4,3,4,3,4,3,4,3,4,3,4,3,4,3,4,3,4,3,4,3,4,3,4,3,4,3,4,3,4,3,4,3,4,3,4,3,4,3,4,3,4,3,4,3,4,3,4,3,4,3,4,3,4,3,4,3,4,3,4,3,4,3,4,3,4,3,4,3,4,3,4,3,4,3,4,3,4,3,4,3,4,3,4,3,4,3,4,3,4,3,4,3,4,3,4,3,4,3,4,3,4,3,4,3,4,3,4,3,4,3,4,3,4,3,4,3,4,3,4,3,4,3,4,3,4,3,4,3,4,3,4,3,4,3,4,3,4,3,4,3,4,3,4,3,4,3,4,3,4,3,4,3,4,3,4,3,4,3,4,3,4,3,4,3,4,3,4,3,4,3,4,3,4,3,4,3,4,3,4,3,4,3,4,3,4,3,4,3,4,3,4,3,4,3,4,3,4,5,3,4,3,4,3,4,3,4,3,4,3,4,3,4,3,4,3,4,3,4,3,4,3,4,3,4,3,4,3,4,3,4,3,4,3,4,3,4,3,4,3,4,3,4,3,4,3,4,3,4,3,4,3,4,3,4,3,4,20,16,17,16,17,18,3,4,3,4,3,4,3,4,3,4,3,4,3,4,3,4,3,4,3,4,3,4,3,4,3,4,3,4,3,4,3,4,3,4,3,4,3,4,3,4,3,4,3,4,3,4,3,4,3,4,3,4,3,4,3,4,3,4,3,4,3,4,3,4,3,4,3,4,3,4,3,4,3,4,3,4,3,4,3,4,3,4,3,4,3,4,3,
1,2,1,2,1,2,1,2,1,2,1,2,1,2,1,2,1,2,1,2,1,2,1,2,1,2,1,2,1,2,1,2,1,2,1,2,1,2,1,2,1,2,1,2,1,2,1,2,1,2,1,2,1,2,1,2,1,2,1,2,1,2,1,2,1,2,1,2,1,2,1,2,1,2,1,2,1,2,1,2,1,27,44,45,28,29,46,47,48,49,48,49,48,49,48,49,48,49,48,49,66,67,54,55,68,69,56,2,1,2,1,2,1,2,1,2,1,2,1,2,1,2,1,2,1,2,1,2,1,2,1,2,1,2,1,2,1,2,1,2,1,2,1,2,1,2,1,2,1,2,1,2,1,2,1,2,1,2,1,2,1,2,1,2,1,2,1,2,1,2,1,2,1,2,1,2,1,2,1,2,1,2,1,2,1,2,1,2,1,2,1,2,1,2,1,2,1,2,1,2,1,2,1,2,1,2,1,2,1,2,1,2,1,2,1,2,1,2,1,2,1,2,1,2,1,2,1,2,1,2,1,2,1,2,1,2,1,2,1,2,1,2,1,2,1,2,1,2,1,2,1,2,1,2,1,2,1,2,1,2,1,2,1,2,1,2,1,2,1,2,1,2,1,2,1,2,1,2,1,2,1,2,1,2,1,2,1,2,1,2,1,2,1,2,1,2,1,2,1,2,1,2,1,2,1,2,1,2,1,2,1,2,1,2,1,2,1,2,1,2,1,2,1,2,1,2,1,2,1,2,1,2,1,2,1,2,1,2,1,2,1,2,1,2,1,2,1,2,1,2,1,2,1,2,1,2,1,2,1,11,21,2,1,2,1,2,1,2,1,2,1,2,1,2,1,2,1,2,1,2,1,2,1,2,1,2,1,2,1,2,1,2,1,2,1,2,1,2,1,2,1,2,1,2,1,2,1,2,1,2,1,2,1,2,1,2,1,2,1,11,12,13,12,13,21,2,1,2,1,2,1,2,1,2,1,2,1,2,1,2,1,2,1,2,1,2,1,2,1,2,1,2,1,2,1,2,1,2,1,2,1,2,1,2,1,2,1,2,1,2,1,2,1,2,1,2,1,2,1,2,1,2,1,2,1,2,1,2,1,2,1,2,1,2,1,2,1,2,1,2,1,2,1,2,1,2,1,2,1,2,1,2,
3,4,3,4,3,4,3,4,3,4,3,4,3,4,3,4,3,4,3,4,3,4,3,4,3,4,3,4,3,4,3,4,3,4,3,4,3,4,3,4,3,4,3,4,3,4,3,4,3,4,3,4,3,4,3,4,3,4,3,4,3,4,3,4,3,4,3,4,3,4,3,4,3,4,3,4,3,4,3,4,3,4,58,57,34,28,59,60,61,62,61,62,61,62,61,62,61,62,61,62,70,71,55,57,3,4,3,4,3,4,3,4,3,4,3,4,3,4,3,4,3,4,3,4,3,4,3,4,3,4,3,4,3,4,3,4,3,4,3,4,3,4,3,4,3,4,3,4,3,4,3,4,3,4,3,4,3,4,3,4,3,4,3,4,3,4,3,4,3,4,3,4,3,4,3,4,3,4,3,4,3,4,3,4,3,4,3,4,3,4,3,4,3,4,3,4,3,4,3,4,3,4,3,4,3,4,3,4,3,4,3,4,3,4,3,4,3,4,3,4,3,4,3,4,3,4,3,4,3,4,3,4,3,4,3,4,3,4,3,4,3,4,3,4,3,4,3,4,3,4,3,4,3,4,3,4,3,4,3,4,3,4,3,4,3,4,3,4,3,4,3,4,3,4,3,4,3,4,3,4,3,4,3,4,3,4,3,4,3,4,3,4,3,4,3,4,3,4,3,4,3,4,3,4,3,4,3,4,3,4,3,4,3,4,3,4,3,4,3,4,3,4,3,4,3,4,3,4,3,4,3,4,3,4,3,4,3,4,3,4,3,4,3,4,3,4,3,4,3,4,3,4,3,4,3,4,3,4,3,15,16,26,5,3,4,3,4,3,4,3,4,3,4,3,4,3,4,3,4,4,5,3,4,3,4,3,4,3,4,3,4,3,4,3,4,3,4,3,4,3,4,3,4,3,4,3,4,3,4,3,4,3,4,3,4,3,4,3,4,15,16,17,16,17,16,26,5,3,4,3,4,3,4,3,4,3,4,3,4,3,4,3,4,3,4,3,4,3,4,3,4,3,4,3,4,3,4,3,4,3,4,3,4,3,4,3,4,3,4,3,4,3,4,3,4,3,4,3,4,3,4,3,4,3,4,3,4,3,4,3,4,3,4,3,4,3,4,3,4,3,4,3,4,3,4,3,4,3,4,3,4,3,
1,2,1,2,1,2,1,2,1,2,1,2,1,2,1,2,1,2,1,2,1,2,1,2,1,2,1,2,1,2,1,2,1,2,1,2,1,2,1,2,1,2,1,2,1,2,1,2,1,2,1,2,1,2,1,2,1,2,1,2,1,2,1,2,1,2,1,2,1,2,1,2,1,2,1,2,1,2,1,2,1,2,1,2,1,11,46,47,48,49,48,49,48,49,48,49,48,49,48,49,66,67,21,2,1,2,1,2,1,2,1,2,1,2,1,2,1,2,1,2,1,2,1,2,1,2,1,2,1,2,1,2,1,2,1,2,1,2,1,2,1,2,1,2,1,2,1,2,1,2,1,2,1,2,1,2,1,2,1,2,1,2,1,2,1,2,1,2,1,2,1,2,1,2,1,2,1,2,1,2,1,2,1,2,1,2,1,2,1,2,1,2,1,2,1,2,1,2,1,2,1,2,1,2,1,2,1,2,1,2,1,2,1,2,1,2,1,2,1,2,1,2,1,2,1,2,1,2,1,2,1,2,1,2,1,2,1,2,1,2,1,2,1,2,1,2,1,2,1,2,1,2,1,2,1,2,1,2,1,2,1,2,1,2,1,2,1,2,1,2,1,2,1,2,1,2,1,2,1,2,1,2,1,2,1,2,1,2,1,2,1,2,1,2,1,2,1,2,1,2,1,2,1,2,1,2,1,2,1,2,1,2,1,2,1,2,1,2,1,2,1,2,1,2,1,2,1,2,1,2,1,2,1,2,1,2,1,2,1,2,1,2,1,2,1,2,1,2,1,2,1,2,1,2,1,2,1,2,1,19,12,13,7,2,1,2,1,2,1,2,1,2,1,2,1,2,1,2,1,19,21,2,1,2,1,2,1,2,1,2,1,2,1,2,1,2,1,2,1,2,1,2,1,2,1,2,1,2,1,2,1,2,1,2,1,2,1,2,1,19,12,13,12,13,54,55,56,2,1,2,1,2,1,2,1,2,1,2,1,2,1,2,1,2,1,2,1,2,1,2,1,2,1,2,1,2,1,2,1,2,1,2,1,2,1,2,1,2,1,2,1,2,1,2,1,2,1,2,1,2,1,2,1,2,1,2,1,2,1,2,1,2,1,2,1,2,1,2,1,2,1,2,1,2,1,2,1,2,1,2,1,2,
3,4,3,4,3,4,3,4,3,4,3,4,3,4,3,4,3,4,3,4,3,4,3,4,3,4,3,4,3,4,3,4,3,4,3,4,3,4,3,4,3,4,3,4,3,4,3,4,3,4,3,4,3,4,3,4,3,4,3,4,3,4,3,4,3,4,3,4,3,4,3,4,3,4,3,4,3,4,3,4,3,4,3,4,3,15,59,60,61,62,61,62,61,62,61,62,61,62,61,62,70,71,16,26,22,23,24,25,5,3,4,3,4,3,4,3,4,3,4,3,4,3,4,3,4,3,4,3,4,3,4,3,4,3,4,3,4,3,4,3,4,3,4,3,4,3,4,3,4,3,4,3,4,3,4,3,4,3,4,3,4,3,4,3,4,3,4,3,4,3,4,3,4,3,4,3,4,3,4,3,4,3,4,3,4,3,4,3,4,3,4,3,4,3,4,3,4,3,4,3,4,3,4,3,4,3,4,3,4,3,4,3,4,3,4,3,4,3,4,3,4,3,4,3,4,3,4,3,4,3,4,3,4,3,4,3,4,3,4,3,4,3,4,3,4,3,4,3,4,3,4,3,4,3,4,3,4,3,4,3,4,3,4,3,4,3,4,3,4,3,4,3,4,3,4,3,4,3,4,3,4,3,4,3,4,3,4,3,4,3,4,3,4,3,4,3,4,3,4,3,4,3,4,3,4,3,4,3,4,3,4,3,4,3,4,3,4,3,4,3,4,3,4,3,4,3,4,3,4,3,4,3,4,3,4,3,4,3,4,3,4,3,4,3,4,3,4,3,4,3,4,3,4,3,4,3,4,3,4,20,16,17,10,3,4,3,4,3,4,3,4,3,4,3,4,3,4,3,4,20,16,26,5,3,4,3,4,3,4,3,4,4,5,3,4,3,4,3,4,3,4,3,4,3,4,3,4,3,4,3,4,3,4,3,4,3,4,3,4,20,16,17,16,17,55,57,3,4,3,4,3,4,3,4,3,4,3,4,3,4,3,4,3,4,3,4,3,4,3,4,3,4,3,4,3,4,3,4,3,4,3,4,3,4,3,4,3,4,3,4,3,4,3,4,3,4,3,4,3,4,3,4,3,4,3,4,3,4,3,4,3,4,3,4,3,4,3,4,3,4,3,4,3,4,3,4,3,4,3,4,3,4,
1,2,1,2,1,2,1,2,1,2,1,2,1,2,1,2,1,2,1,2,1,2,1,2,1,2,1,2,1,2,1,2,1,2,1,2,1,2,1,2,1,2,1,2,1,2,1,2,1,2,1,2,1,2,1,2,1,2,1,2,1,2,1,2,1,2,1,2,1,2,1,2,1,2,1,2,1,2,1,2,1,2,1,2,1,19,46,47,48,49,48,49,48,49,48,49,48,49,48,49,48,49,31,32,31,32,33,13,21,2,1,2,1,2,1,2,1,2,1,2,1,2,1,2,1,2,1,2,1,2,1,2,1,2,1,2,1,2,1,2,1,2,1,2,1,2,1,2,1,2,1,2,1,2,1,2,1,2,1,2,1,2,1,2,1,2,1,2,1,2,1,2,1,2,1,2,1,2,1,2,1,2,1,2,1,2,1,2,1,2,1,2,1,2,1,2,1,2,1,2,1,2,1,2,1,2,1,2,1,2,1,2,1,2,1,2,1,2,1,2,1,2,1,2,1,2,1,2,1,2,1,2,1,2,1,2,1,2,1,2,1,2,1,2,1,2,1,2,1,2,1,2,1,2,1,2,1,2,1,2,1,2,1,2,1,2,1,2,1,2,1,2,1,2,1,2,1,2,1,2,1,2,1,2,1,2,1,2,1,2,1,2,1,2,1,2,1,2,1,2,1,2,1,2,1,2,1,2,1,2,1,2,1,2,1,2,1,2,1,2,1,2,1,2,1,2,1,2,1,2,1,2,1,2,1,2,1,2,1,2,1,2,1,2,1,2,1,2,1,2,1,2,1,2,1,2,1,2,1,11,12,13,14,2,1,2,1,2,1,2,1,2,1,2,1,2,1,2,1,11,12,13,7,2,1,2,1,2,1,2,1,6,7,2,1,2,1,2,1,2,1,2,1,2,1,2,1,2,1,2,1,2,1,2,1,2,1,2,1,11,12,13,12,13,14,2,1,2,1,2,1,2,1,2,1,2,1,2,1,2,1,2,1,2,1,2,1,2,1,2,1,2,1,2,1,2,1,2,1,2,1,2,1,2,1,2,1,2,1,2,1,2,1,2,1,2,1,2,1,2,1,2,1,2,1,2,1,2,1,2,1,2,1,2,1,2,1,2,1,2,1,2,1,2,1,2,1,2,1,2,1,2,
3,4,3,4,3,4,3,4,3,4,3,4,3,4,3,4,3,4,3,4,3,4,3,4,3,4,3,4,3,4,3,4,3,4,3,4,3,4,3,4,3,4,3,4,3,4,3,4,3,4,3,4,3,4,3,4,3,4,3,4,3,4,3,4,3,4,3,4,3,4,3,4,3,4,3,4,3,4,3,4,3,4,3,4,3,20,59,60,61,62,61,62,61,62,61,62,61,62,61,62,61,62,38,39,38,39,40,41,16,26,22,23,5,3,4,3,4,3,4,3,4,3,4,3,4,3,4,3,4,3,4,3,4,3,4,3,4,3,4,3,4,3,4,3,4,3,4,3,4,3,4,3,4,3,4,3,4,3,4,3,4,3,4,3,4,3,4,3,4,3,4,3,4,3,4,3,4,3,4,3,4,3,4,3,4,3,4,3,4,3,4,3,4,3,4,3,4,3,4,3,4,3,4,3,4,3,4,3,4,3,4,3,4,3,4,3,4,3,4,3,4,3,4,3,4,3,4,3,4,3,4,3,4,3,4,3,4,3,4,3,4,3,4,3,4,3,4,3,4,3,4,3,4,3,4,3,4,3,4,3,4,3,4,3,4,3,4,3,4,3,4,3,4,3,4,3,4,3,4,3,4,3,4,3,4,3,4,3,4,3,4,3,4,3,4,3,4,3,4,3,4,3,4,3,4,3,4,3,4,3,4,3,4,3,4,3,4,3,4,3,4,3,4,3,4,3,4,3,4,3,4,3,4,3,4,3,4,3,4,3,4,3,4,3,4,3,4,3,4,3,4,3,4,3,4,3,4,3,4,15,16,17,18,3,4,3,4,3,4,3,4,3,4,3,4,3,4,3,4,15,16,17,10,3,4,3,4,3,4,4,8,9,10,3,4,3,4,3,4,3,4,3,4,3,4,3,4,3,4,3,4,3,4,3,4,3,4,3,4,15,16,17,16,17,18,3,4,3,4,3,4,3,4,3,4,3,4,3,4,3,4,3,4,3,4,3,4,3,4,3,4,3,4,3,4,3,4,3,4,3,4,3,4,3,4,3,4,3,4,3,4,3,4,3,4,3,4,3,4,3,4,3,4,3,4,3,4,3,4,3,4,3,4,3,4,3,4,3,4,3,4,3,4,3,4,3,4,3,4,3,4,3,
1,2,1,2,1,2,1,2,1,2,1,2,1,2,1,2,1,2,1,2,1,2,1,2,1,2,1,2,1,2,1,2,1,2,1,2,1,2,1,2,1,2,1,2,1,2,1,2,1,2,1,2,1,2,1,2,1,2,1,2,1,2,1,2,1,2,1,2,1,2,1,2,1,2,1,2,1,2,1,2,1,2,1,2,1,6,46,47,48,49,48,49,48,49,48,49,48,49,48,49,48,49,48,49,48,49,48,49,31,32,33,13,21,2,1,2,1,2,1,2,1,2,1,2,1,2,1,2,1,2,1,2,1,2,1,2,1,2,1,2,1,2,1,2,1,2,1,2,1,2,1,2,1,2,1,2,1,2,1,2,1,2,1,2,1,2,1,2,1,2,1,2,1,2,1,2,1,2,1,2,1,2,1,2,1,2,1,2,1,2,1,2,1,2,1,2,1,2,1,2,1,2,1,2,1,2,1,2,1,2,1,2,1,2,1,2,1,2,1,2,1,2,1,2,1,2,1,2,1,2,1,2,1,2,1,2,1,2,1,2,1,2,1,2,1,2,1,2,1,2,1,2,1,2,1,2,1,2,1,2,1,2,1,2,1,2,1,2,1,2,1,2,1,2,1,2,1,2,1,2,1,2,1,2,1,2,1,2,1,2,1,2,1,2,1,2,1,2,1,2,1,2,1,2,1,2,1,2,1,2,1,2,1,2,1,2,1,2,1,2,1,2,1,2,1,2,1,2,1,2,1,2,1,2,1,2,1,2,1,2,1,2,1,2,1,2,1,2,1,2,1,2,1,2,1,2,1,2,1,19,12,13,21,2,1,2,1,2,1,2,1,2,1,2,1,2,1,2,1,6,12,13,21,2,1,2,1,2,1,6,12,13,14,2,1,2,1,2,1,2,1,2,1,2,1,2,1,2,1,2,1,2,1,2,1,2,1,2,1,19,12,13,12,13,21,2,1,2,1,2,1,2,1,2,1,2,1,2,1,2,1,2,1,2,1,2,1,2,1,2,1,2,1,2,1,2,1,2,1,2,1,2,1,2,1,2,1,2,1,2,1,2,1,2,1,2,1,2,1,2,1,2,1,2,1,2,1,2,1,2,1,2,1,2,1,2,1,2,1,2,1,2,1,2,1,2,1,2,1,2,1,2,
3,4,3,4,3,4,3,4,3,4,3,4,3,4,3,4,3,4,3,4,3,4,3,4,3,4,3,4,3,4,3,4,3,4,3,4,3,4,3,4,3,4,3,4,3,4,3,4,3,4,3,4,3,4,3,4,3,4,3,4,3,4,3,4,3,4,3,4,3,4,3,4,3,4,3,4,3,4,3,4,3,4,3,4,8,9,59,60,61,62,61,62,72,73,74,75,76,62,61,62,61,62,61,62,61,62,61,62,38,39,40,41,16,26,22,23,24,25,5,3,4,3,4,3,4,3,4,3,4,3,4,3,4,3,4,3,4,3,4,3,4,3,4,3,4,3,4,3,4,3,4,3,4,3,4,3,4,3,4,3,4,3,4,3,4,3,4,3,4,3,4,3,4,3,4,3,4,3,4,3,4,3,4,3,4,3,4,3,4,3,4,3,4,3,4,3,4,3,4,3,4,3,4,3,4,3,4,3,4,3,4,3,4,3,4,3,4,3,4,3,4,3,4,3,4,3,4,3,4,3,4,3,4,3,4,3,4,3,4,3,4,3,4,3,4,3,4,3,4,3,4,3,4,3,4,3,4,3,4,3,4,3,4,3,4,3,4,3,4,3,4,3,4,3,4,3,4,3,4,3,4,3,4,3,4,3,4,3,4,3,4,3,4,3,4,3,4,3,4,3,4,3,4,3,4,3,4,3,4,3,4,3,4,3,4,3,4,3,4,3,4,3,4,3,4,3,4,3,4,3,4,3,4,3,4,3,4,3,4,3,4,3,4,3,4,3,4,3,4,3,4,3,4,3,4,3,4,3,4,20,16,17,16,26,24,25,5,3,4,3,4,3,4,3,4,3,4,4,8,9,16,17,16,26,22,23,24,25,8,9,16,17,18,3,4,3,4,3,4,3,4,3,4,3,4,3,4,3,4,3,4,3,4,3,4,3,4,3,4,20,16,17,16,17,16,26,5,3,4,3,4,3,4,3,4,3,4,3,4,3,4,3,4,3,4,3,4,3,4,3,4,3,4,3,4,3,4,3,4,3,4,3,4,3,4,3,4,3,4,3,4,3,4,3,4,3,4,3,4,3,4,3,4,3,4,3,4,3,4,3,4,3,4,3,4,3,4,3,4,3,4,3,4,3,4,3,4,3,4,3,4,3,
1,2,1,2,1,2,1,2,1,2,1,2,1,2,1,2,1,2,1,2,1,2,1,2,1,2,1,2,1,2,1,2,1,2,1,2,1,2,1,2,1,2,1,2,1,2,1,2,1,2,1,2,1,2,1,2,1,2,1,2,1,2,1,2,1,2,1,2,1,2,1,2,1,2,1,2,1,2,1,2,1,2,1,11,12,30,48,49,48,49,77,78,79,80,81,82,83,49,48,49,48,49,48,49,48,49,48,49,48,49,66,67,12,13,12,13,54,55,56,2,1,2,1,2,1,2,1,2,1,2,1,2,1,2,1,2,1,2,1,2,1,2,1,2,1,2,1,2,1,2,1,2,1,2,1,2,1,2,1,2,1,2,1,2,1,2,1,2,1,2,1,2,1,2,1,2,1,2,1,2,1,2,1,2,1,2,1,2,1,2,1,2,1,2,1,2,1,2,1,2,1,2,1,2,1,2,1,2,1,2,1,2,1,2,1,2,1,2,1,2,1,2,1,2,1,2,1,2,1,2,1,2,1,2,1,2,1,2,1,2,1,2,1,2,1,2,1,2,1,2,1,2,1,2,1,2,1,2,1,2,1,2,1,2,1,2,1,2,1,2,1,2,1,2,1,2,1,2,1,2,1,2,1,2,1,2,1,2,1,2,1,2,1,2,1,2,1,2,1,2,1,2,1,2,1,2,1,2,1,2,1,2,1,2,1,2,1,2,1,2,1,2,1,2,1,2,1,2,1,2,1,2,1,2,1,2,1,2,1,2,1,2,1,2,1,2,1,2,1,2,1,2,1,2,1,2,1,2,1,11,12,13,12,13,12,13,21,2,1,2,1,2,1,2,1,2,1,19,12,13,12,13,12,13,12,13,12,13,12,13,12,13,21,2,1,2,1,2,1,2,1,2,1,2,1,2,1,2,1,2,1,2,1,2,1,2,1,2,1,19,12,13,12,30,33,13,14,2,1,2,1,2,1,2,1,2,1,2,1,2,1,2,1,2,1,2,1,2,1,2,1,2,1,2,1,2,1,2,1,2,1,2,1,2,1,2,1,2,1,2,1,2,1,2,1,2,1,2,1,2,1,2,1,2,1,2,1,2,1,2,1,2,1,2,1,2,1,2,1,2,1,2,1,2,1,2,1,2,1,2,1,2,
3,4,3,4,3,4,3,4,3,4,3,4,3,4,3,4,3,4,3,4,3,4,3,4,3,4,3,4,3,4,3,4,3,4,3,4,3,4,3,4,3,4,3,4,3,4,3,4,3,4,3,4,3,4,3,4,3,4,3,4,3,4,3,4,3,4,3,4,3,4,3,4,3,4,3,4,3,4,3,4,3,4,3,15,36,37,61,62,61,62,84,85,86,87,88,89,90,62,61,62,61,62,72,73,74,75,76,62,61,62,70,71,16,17,17,35,55,57,3,4,3,4,3,4,3,4,3,4,3,4,3,4,3,4,3,4,3,4,3,4,3,4,3,4,3,4,3,4,3,4,3,4,3,4,3,4,3,4,3,4,3,4,3,4,3,4,3,4,3,4,3,4,3,4,3,4,3,4,3,4,3,4,3,4,3,4,3,4,3,4,3,4,3,4,3,4,3,4,3,4,3,4,3,4,3,4,3,4,3,4,3,4,3,4,3,4,3,4,3,4,3,4,3,4,3,4,3,4,3,4,3,4,3,4,3,4,3,4,3,4,3,4,3,4,3,4,3,4,3,4,3,4,3,4,3,4,3,4,3,4,3,4,3,4,3,4,3,4,3,4,3,4,3,4,3,4,3,4,3,4,3,4,3,4,3,4,3,4,3,4,3,4,3,4,3,4,3,4,3,4,3,4,3,4,3,4,3,4,3,4,3,4,3,4,3,4,3,4,3,4,3,4,3,4,3,4,3,4,3,4,3,4,3,4,3,4,3,4,3,4,3,4,3,4,3,4,3,4,3,4,3,4,3,4,3,4,3,4,3,15,16,17,16,17,16,17,16,26,5,3,4,3,4,3,4,3,4,20,16,17,16,17,16,17,16,17,16,17,16,17,16,17,16,26,5,3,4,3,4,3,4,3,4,3,4,3,4,3,4,3,4,4,5,3,4,3,4,3,4,20,16,17,36,37,40,41,18,3,4,3,4,3,4,3,4,3,4,3,4,3,4,3,4,3,4,3,4,3,4,3,4,3,4,3,4,3,4,3,4,3,4,3,4,3,4,3,4,3,4,3,4,3,4,3,4,3,4,3,4,3,4,3,4,3,4,3,4,3,4,3,4,3,4,3,4,3,4,3,4,3,4,3,4,3,4,3,4,3,4,3,4,3,
1,2,1,2,1,2,1,2,1,2,1,2,1,2,1,2,1,2,1,2,1,2,1,2,1,2,1,2,1,2,1,2,1,2,1,2,1,2,1,2,1,2,1,2,1,2,1,2,1,2,1,2,1,2,1,2,1,2,1,2,1,2,1,2,1,2,1,2,1,2,1,2,1,2,1,2,1,2,1,2,1,2,1,6,46,47,48,49,48,49,91,92,93,94,95,96,48,49,48,49,77,78,79,80,81,82,83,49,48,49,66,67,54,55,44,45,56,2,1,2,1,2,1,2,1,2,1,2,1,2,1,2,1,2,1,2,1,2,1,2,1,2,1,2,1,2,1,2,1,2,1,2,1,2,1,2,1,2,1,2,1,2,1,2,1,2,1,2,1,2,1,2,1,2,1,2,1,2,1,2,1,2,1,2,1,2,1,2,1,2,1,2,1,2,1,2,1,2,1,2,1,2,1,2,1,2,1,2,1,2,1,2,1,2,1,2,1,2,1,2,1,2,1,2,1,2,1,2,1,2,1,2,1,2,1,2,1,2,1,2,1,2,1,2,1,2,1,2,1,2,1,2,1,2,1,2,1,2,1,2,1,2,1,2,1,2,1,2,1,2,1,2,1,2,1,2,1,2,1,2,1,2,1,2,1,2,1,2,1,2,1,2,1,2,1,2,1,2,1,2,1,2,1,2,1,2,1,2,1,2,1,2,1,2,1,2,1,2,1,2,1,2,1,2,1,2,1,2,1,2,1,2,1,2,1,2,1,2,1,2,1,2,1,2,1,2,1,2,1,2,1,2,1,2,1,2,1,2,1,19,12,13,12,13,12,13,12,13,14,2,1,2,1,2,1,2,1,6,12,13,12,13,12,13,12,13,12,13,12,13,12,13,12,13,21,2,1,2,1,2,1,2,1,2,1,2,1,2,1,2,1,6,21,2,1,2,1,2,1,6,12,30,48,49,66,67,7,2,1,2,1,2,1,2,1,2,1,2,1,2,1,2,1,2,1,2,1,2,1,2,1,2,1,2,1,2,1,2,1,2,1,2,1,2,1,2,1,2,1,2,1,2,1,2,1,2,1,2,1,2,1,2,1,2,1,2,1,2,1,2,1,2,1,2,1,2,1,2,1,2,1,2,1,2,1,2,1,2,1,2,1,2,
3,4,3,4,3,4,3,4,3,4,3,4,3,4,3,4,3,4,3,4,3,4,3,4,3,4,3,4,3,4,3,4,3,4,3,4,3,4,3,4,3,4,3,4,3,4,3,4,3,4,3,4,3,4,3,4,3,4,3,4,3,4,3,4,3,4,3,4,3,4,3,4,3,4,3,4,3,4,3,4,3,4,8,9,59,60,61,62,61,62,61,62,97,98,99,100,61,62,61,62,84,85,86,87,88,89,90,62,61,62,70,71,55,57,58,57,3,4,3,4,3,4,3,4,3,4,3,4,3,4,3,4,3,4,3,4,3,4,3,4,3,4,3,4,3,4,3,4,3,4,3,4,3,4,3,4,3,4,3,4,3,4,3,4,3,4,3,4,3,4,3,4,3,4,3,4,3,4,3,4,3,4,3,4,3,4,3,4,3,4,3,4,3,4,3,4,3,4,3,4,3,4,3,4,3,4,3,4,3,4,3,4,3,4,3,4,3,4,3,4,3,4,3,4,3,4,3,4,3,4,3,4,3,4,3,4,3,4,3,4,3,4,3,4,3,4,3,4,3,4,3,4,3,4,3,4,3,4,3,4,3,4,3,4,3,4,3,4,3,4,3,4,3,4,3,4,3,4,3,4,3,4,3,4,3,4,3,4,3,4,3,4,3,4,3,4,3,4,3,4,3,4,3,4,3,4,3,4,3,4,3,4,3,4,3,4,3,4,3,4,3,4,3,4,3,4,3,4,3,4,3,4,3,4,3,4,3,4,3,4,3,4,3,4,3,4,3,4,3,4,3,4,3,4,3,4,3,4,3,20,16,17,16,17,16,17,16,17,18,3,4,3,4,3,4,4,8,9,16,17,16,17,16,17,16,17,16,17,16,17,16,17,16,17,16,26,22,23,24,25,22,23,24,25,22,23,24,25,22,23,8,9,16,26,22,23,24,25,8,9,36,37,61,62,70,71,10,3,4,3,4,3,4,3,4,3,4,3,4,3,4,3,4,3,4,3,4,3,4,3,4,3,4,3,4,3,4,3,4,3,4,3,4,3,4,3,4,3,4,3,4,3,4,3,4,3,4,3,4,3,4,3,4,3,4,3,4,3,4,3,4,3,4,3,4,3,4,3,4,3,4,3,4,3,4,3,4,3,4,3,4,3,
1,2,1,2,1,2,1,2,1,2,1,2,1,2,1,2,1,2,1,2,1,2,1,2,1,2,1,2,1,2,1,2,1,2,1,2,1,2,1,2,1,2,1,2,1,2,1,2,1,2,1,2,1,2,1,2,1,2,1,2,1,2,1,2,1,2,1,2,1,2,1,2,1,2,1,2,1,2,1,2,1,6,12,30,48,49,48,49,48,49,48,49,91,92,101,102,48,49,48,49,91,92,93,94,95,96,48,49,48,49,66,67,7,2,1,2,1,2,1,2,1,2,1,2,1,2,1,2,1,2,1,2,1,2,1,2,1,2,1,2,1,2,1,2,1,2,1,2,1,2,1,2,1,2,1,2,1,2,1,2,1,2,1,2,1,2,1,2,1,2,1,2,1,2,1,2,1,2,1,2,1,2,1,2,1,2,1,2,1,2,1,2,1,2,1,2,1,2,1,2,1,2,1,2,1,2,1,2,1,2,1,2,1,2,1,2,1,2,1,2,1,2,1,2,1,2,1,2,1,2,1,2,1,2,1,2,1,2,1,2,1,2,1,2,1,2,1,2,1,2,1,2,1,2,1,2,1,2,1,2,1,2,1,2,1,2,1,2,1,2,1,2,1,2,1,2,1,2,1,2,1,2,1,2,1,2,1,2,1,2,1,2,1,2,1,2,1,2,1,2,1,2,1,2,1,2,1,2,1,2,1,2,1,2,1,2,1,2,1,2,1,2,1,2,1,2,1,2,1,2,1,2,1,2,1,2,1,2,1,2,1,2,1,2,1,2,1,2,1,2,1,2,1,2,1,2,1,2,1,6,12,13,12,103,104,13,12,13,7,2,1,2,1,2,1,11,12,13,12,13,12,13,12,13,12,30,33,13,12,13,12,13,12,13,12,13,12,13,12,13,12,13,12,13,12,13,12,13,12,30,31,32,31,32,31,32,31,32,31,32,48,49,48,49,66,67,14,2,1,2,1,2,1,2,1,2,1,2,1,2,1,2,1,2,1,2,1,2,1,2,1,2,1,2,1,2,1,2,1,2,1,2,1,2,1,2,1,2,1,2,1,2,1,2,1,2,1,2,1,2,1,2,1,2,1,2,1,2,1,2,1,2,1,2,1,2,1,2,1,2,1,2,1,2,1,2,1,2,1,2,1,2,
3,4,3,4,3,4,3,4,3,4,3,4,3,4,3,4,3,4,3,4,3,4,3,4,3,4,3,4,3,4,3,4,3,4,3,4,3,4,3,4,3,4,3,4,3,4,3,4,3,4,3,4,3,4,3,4,3,4,3,4,3,4,3,4,3,4,3,4,3,4,3,4,3,4,3,4,3,4,3,4,8,9,36,37,61,62,61,62,61,62,61,62,61,62,61,62,61,62,61,62,61,62,97,98,99,100,61,62,61,62,70,71,10,3,4,3,4,3,4,4,22,23,5,3,4,3,4,3,4,3,4,3,4,3,4,3,4,3,4,3,4,3,4,3,4,3,4,3,4,3,4,3,4,3,4,3,4,3,4,3,4,3,4,3,4,3,4,3,4,3,4,3,4,3,4,3,4,3,4,3,4,3,4,3,4,3,4,3,4,3,4,3,4,3,4,3,4,3,4,3,4,3,4,3,4,3,4,3,4,3,4,3,4,3,4,3,4,3,4,3,4,3,4,3,4,3,4,3,4,3,4,3,4,3,4,3,4,3,4,3,4,3,4,3,4,3,4,3,4,3,4,3,4,3,4,3,4,3,4,3,4,3,4,3,4,3,4,3,4,3,4,3,4,3,4,3,4,3,4,3,4,3,4,3,4,3,4,3,4,3,4,3,4,3,4,3,4,3,4,3,4,3,4,3,4,3,4,3,4,3,4,3,4,3,4,3,4,3,4,3,4,3,4,3,4,3,4,3,4,3,4,3,4,3,4,3,4,3,4,3,4,3,4,3,4,3,4,3,4,3,4,3,4,3,4,3,4,4,8,9,16,17,105,106,107,108,16,17,10,3,4,3,4,3,4,15,16,17,16,17,16,17,16,17,36,37,40,41,16,17,16,17,16,17,16,17,16,17,16,17,16,17,16,17,16,17,16,17,36,37,38,39,38,39,38,39,38,39,38,39,61,62,61,62,70,71,18,3,4,3,4,3,4,4,5,3,4,3,4,3,4,3,4,3,4,3,4,3,4,3,4,3,4,4,5,3,4,3,4,3,4,3,4,3,4,3,4,3,4,3,4,3,4,3,4,3,4,3,4,3,4,3,4,3,4,3,4,3,4,3,4,3,4,3,4,3,4,3,4,3,4,3,4,3,4,3,4,3,4,3,4,3,
1,2,1,2,1,2,1,2,1,2,1,2,1,2,1,2,1,2,1,2,1,2,1,2,1,2,1,2,1,2,1,2,1,2,1,2,1,2,1,2,1,2,1,2,1,2,1,2,1,2,1,2,1,2,1,2,1,2,1,2,1,2,1,2,1,2,1,2,1,2,1,2,1,2,1,2,1,2,1,19,12,30,48,49,48,49,48,49,48,49,48,49,48,49,48,49,52,53,109,110,48,49,91,92,101,102,48,49,50,51,52,53,21,2,1,2,1,2,1,6,12,13,21,2,1,2,1,2,1,2,1,2,1,2,1,2,1,2,1,2,1,2,1,2,1,2,1,2,1,2,1,2,1,2,1,2,1,2,1,2,1,2,1,2,1,2,1,2,1,2,1,2,1,2,1,2,1,2,1,2,1,2,1,2,1,2,1,2,1,2,1,2,1,2,1,2,1,2,1,2,1,2,1,2,1,2,1,2,1,2,1,2,1,2,1,2,1,2,1,2,1,2,1,2,1,2,1,2,1,2,1,2,1,2,1,2,1,2,1,2,1,2,1,2,1,2,1,2,1,2,1,2,1,2,1,2,1,2,1,2,1,2,1,2,1,2,1,2,1,2,1,2,1,2,1,2,1,2,1,2,1,2,1,2,1,2,1,2,1,2,1,2,1,2,1,2,1,2,1,2,1,2,1,2,1,2,1,2,1,2,1,2,1,2,1,2,1,2,1,2,1,2,1,2,1,2,1,2,1,2,1,2,1,2,1,2,1,2,1,2,1,2,1,2,1,2,1,2,1,2,1,2,1,2,1,2,1,6,12,103,111,112,113,114,113,114,104,13,21,2,1,2,1,2,1,6,12,13,12,13,12,30,31,32,48,49,48,49,31,32,31,32,33,13,12,13,12,13,12,13,12,13,12,13,12,13,12,30,48,49,48,49,48,49,48,49,48,49,48,49,48,49,48,49,66,67,21,2,1,2,1,2,1,6,21,2,1,2,1,2,1,2,1,2,1,2,1,2,1,2,1,2,1,6,21,2,1,2,1,2,1,2,1,2,1,2,1,2,1,2,1,2,1,2,1,2,1,2,1,2,1,2,1,2,1,2,1,2,1,2,1,2,1,2,1,2,1,2,1,2,1,2,1,2,1,2,1,2,1,2,1,2,
3,4,3,4,3,4,3,4,3,4,3,4,3,4,3,4,3,4,3,4,3,4,3,4,3,4,3,4,3,4,3,4,3,4,3,4,3,4,3,4,3,4,3,4,3,4,3,4,3,4,3,4,3,4,3,4,3,4,3,4,3,4,3,4,3,4,3,4,3,4,3,4,3,4,3,4,3,4,3,20,36,37,61,62,61,62,61,62,61,62,61,62,61,62,61,62,65,17,16,115,61,62,61,62,61,62,61,62,63,64,65,17,16,26,22,23,24,25,8,9,16,17,16,26,5,3,4,3,4,3,4,3,4,3,4,3,4,3,4,3,4,3,4,3,4,3,4,3,4,3,4,3,4,3,4,3,4,3,4,3,4,3,4,3,4,3,4,3,4,3,4,3,4,3,4,3,4,3,4,3,4,3,4,3,4,3,4,3,4,3,4,3,4,3,4,3,4,3,4,3,4,3,4,3,4,3,4,3,4,3,4,3,4,3,4,3,4,3,4,3,4,3,4,3,4,3,4,3,4,3,4,3,4,3,4,3,4,3,4,3,4,3,4,3,4,3,4,3,4,3,4,3,4,3,4,3,4,3,4,3,4,3,4,3,4,3,4,3,4,3,4,3,4,3,4,3,4,3,4,3,4,3,4,3,4,3,4,3,4,3,4,3,4,3,4,3,4,3,4,3,4,3,4,3,4,3,4,3,4,3,4,3,4,3,4,3,4,3,4,3,4,3,4,3,4,3,4,3,4,3,4,3,4,3,4,3,4,3,4,3,4,3,4,3,4,3,4,3,4,3,4,3,4,3,4,4,8,9,105,106,107,106,107,106,107,106,107,108,16,26,22,23,24,25,8,9,16,17,16,17,36,37,38,39,61,62,61,62,38,39,38,39,40,41,16,17,16,17,16,17,16,17,16,17,16,17,36,37,61,62,61,62,61,62,61,62,61,62,61,62,61,62,61,62,70,71,16,26,22,23,24,25,8,9,16,26,5,3,4,3,4,3,4,3,4,3,4,3,4,4,22,23,8,9,16,26,5,3,4,3,4,3,4,3,4,3,4,3,4,3,4,3,4,3,4,3,4,3,4,3,4,3,4,3,4,3,4,3,4,3,4,3,4,3,4,3,4,3,4,3,4,3,4,3,4,3,4,3,4,3,4,3,
1,2,1,2,1,2,1,2,1,2,1,2,1,2,1,2,1,2,1,2,1,2,1,2,1,2,1,2,1,2,1,2,1,2,1,2,1,2,1,2,1,2,1,2,1,2,1,2,1,2,1,2,1,2,1,2,1,2,1,2,1,2,1,2,1,2,1,2,1,2,1,2,1,2,1,2,1,2,1,11,46,47,48,49,48,49,48,49,48,49,48,49,50,51,52,53,54,55,28,29,109,110,50,51,50,51,52,53,54,55,28,29,12,30,31,32,31,32,33,13,12,13,54,55,56,2,1,2,1,2,1,2,1,2,1,2,1,2,1,2,1,2,1,2,1,2,1,2,1,2,1,2,1,2,1,2,1,2,1,2,1,2,1,2,1,2,1,2,1,2,1,2,1,2,1,2,1,2,1,2,1,2,1,2,1,2,1,2,1,2,1,2,1,2,1,2,1,2,1,2,1,2,1,2,1,2,1,2,1,2,1,2,1,2,1,2,1,2,1,2,1,2,1,2,1,2,1,2,1,2,1,2,1,2,1,2,1,2,1,2,1,2,1,2,1,2,1,2,1,2,1,2,1,2,1,2,1,2,1,2,1,2,1,2,1,2,1,2,1,2,1,2,1,2,1,2,1,2,1,2,1,2,1,2,1,2,1,2,1,2,1,2,1,2,1,2,1,2,1,2,1,2,1,2,1,2,1,2,1,2,1,2,1,2,1,2,1,2,1,2,1,2,1,2,1,2,1,2,1,2,1,2,1,2,1,2,1,2,1,2,1,2,1,2,1,2,1,2,1,2,1,2,1,2,1,11,12,103,113,114,113,114,113,114,113,114,113,114,111,112,111,112,111,112,104,13,12,13,12,13,109,110,48,49,48,49,48,49,48,49,48,49,48,49,31,32,31,32,31,32,31,32,31,32,31,32,48,49,48,49,48,49,48,49,48,49,48,49,48,49,48,49,48,49,48,49,33,13,12,13,12,13,12,13,12,13,14,2,1,2,1,2,1,2,1,2,1,2,1,6,12,13,12,13,12,13,21,2,1,2,1,2,1,2,1,2,1,2,1,2,1,2,1,2,1,2,1,2,1,2,1,2,1,2,1,2,1,2,1,2,1,2,1,2,1,2,1,2,1,2,1,2,1,2,1,2,1,2,1,2,1,2,
3,4,3,4,3,4,3,4,3,4,3,4,3,4,3,4,3,4,3,4,3,4,3,4,3,4,3,4,3,4,3,4,3,4,3,4,3,4,3,4,3,4,3,4,3,4,3,4,3,4,3,4,3,4,3,4,3,4,3,4,3,4,3,4,3,4,3,4,3,4,3,4,3,4,3,4,3,4,3,15,59,60,61,62,61,62,61,62,61,62,61,62,63,64,65,17,55,57,34,28,16,115,63,64,63,64,65,17,55,57,34,28,36,37,38,39,38,39,40,41,17,35,55,57,3,4,3,4,3,4,3,4,3,4,3,4,3,4,3,4,3,4,3,4,3,4,3,4,3,4,3,4,3,4,3,4,3,4,3,4,3,4,3,4,3,4,3,4,3,4,3,4,3,4,3,4,3,4,3,4,3,4,3,4,3,4,3,4,3,4,3,4,3,4,3,4,3,4,3,4,3,4,3,4,3,4,3,4,3,4,3,4,3,4,3,4,3,4,3,4,3,4,3,4,3,4,3,4,3,4,3,4,3,4,3,4,3,4,3,4,3,4,3,4,3,4,3,4,3,4,3,4,3,4,3,4,3,4,3,4,3,4,3,4,3,4,3,4,3,4,3,4,3,4,3,4,3,4,3,4,3,4,3,4,3,4,3,4,3,4,3,4,3,4,3,4,3,4,3,4,3,4,3,4,3,4,3,4,3,4,3,4,3,4,3,4,3,4,3,4,3,4,3,4,3,4,3,4,3,4,3,4,3,4,3,4,3,4,3,4,3,4,3,4,3,4,3,4,3,4,3,4,3,4,3,15,105,106,107,106,107,106,107,106,107,106,107,106,107,106,107,106,107,106,107,108,16,17,16,17,16,115,61,62,61,62,61,62,61,62,61,62,61,62,38,39,38,39,38,39,38,39,38,39,38,39,61,62,61,62,61,62,61,62,61,62,61,62,61,62,61,62,61,62,61,62,40,41,16,17,16,17,16,17,16,17,18,3,4,3,4,3,4,3,4,3,4,4,8,9,16,17,16,17,16,17,16,26,5,3,4,3,4,3,4,3,4,3,4,3,4,3,4,3,4,3,4,3,4,3,4,3,4,3,4,3,4,3,4,3,4,3,4,3,4,3,4,3,4,3,4,3,4,3,4,3,4,3,4,3,4,3,
1,2,1,2,1,2,1,2,1,2,1,2,1,2,1,2,1,2,1,2,1,2,1,2,1,2,1,2,1,2,1,2,1,2,1,2,1,2,1,2,1,2,1,2,1,2,1,2,1,2,1,2,1,2,1,2,1,2,1,2,1,2,1,2,1,2,1,2,1,2,1,2,1,2,1,2,1,2,1,6,46,47,48,49,48,49,48,49,48,49,52,53,54,55,44,45,56,2,1,27,28,29,54,55,44,45,68,69,56,2,1,19,46,47,48,49,48,49,52,53,54,55,56,2,1,2,1,2,1,2,1,2,1,2,1,2,1,2,1,2,1,2,1,2,1,2,1,2,1,2,1,2,1,2,1,2,1,2,1,2,1,2,1,2,1,2,1,2,1,2,1,2,1,2,1,2,1,2,1,2,1,2,1,2,1,2,1,2,1,2,1,2,1,2,1,2,1,2,1,2,1,2,1,2,1,2,1,2,1,2,1,2,1,2,1,2,1,2,1,2,1,2,1,2,1,2,1,2,1,2,1,2,1,2,1,2,1,2,1,2,1,2,1,2,1,2,1,2,1,2,1,2,1,2,1,2,1,2,1,2,1,2,1,2,1,2,1,2,1,2,1,2,1,2,1,2,1,2,1,2,1,2,1,2,1,2,1,2,1,2,1,2,1,2,1,2,1,2,1,2,1,2,1,2,1,2,1,2,1,2,1,2,1,2,1,2,1,2,1,2,1,2,1,2,1,2,1,2,1,2,1,2,1,2,1,2,1,2,1,2,1,2,1,2,1,2,1,2,1,2,1,2,1,2,1,19,113,114,113,114,113,114,113,114,113,114,113,114,113,114,113,114,113,114,113,114,111,112,104,13,12,13,46,47,48,49,48,49,48,49,48,49,48,49,48,49,48,49,48,49,48,49,48,49,48,49,48,49,48,49,48,49,48,49,48,49,48,49,48,49,48,49,48,49,48,49,66,67,12,13,12,13,12,13,12,13,21,2,1,2,1,2,1,2,1,2,1,27,28,29,12,13,12,13,12,13,12,13,14,2,1,2,1,2,1,2,1,2,1,2,1,2,1,2,1,2,1,2,1,2,1,2,1,2,1,2,1,2,1,2,1,2,1,2,1,2,1,2,1,2,1,2,1,2,1,2,1,2,1,2,1,2,
3,4,3,4,3,4,3,4,3,4,3,4,3,4,3,4,3,4,3,4,3,4,3,4,3,4,3,4,3,4,3,4,3,4,3,4,3,4,3,4,3,4,3,4,3,4,3,4,3,4,3,4,3,4,3,4,3,4,3,4,3,4,3,4,3,4,3,4,3,4,3,4,3,4,3,4,3,4,8,9,59,60,61,62,61,62,61,62,61,62,65,17,55,57,58,57,3,4,3,4,34,28,55,57,58,57,3,4,3,4,3,20,59,60,61,62,61,62,65,17,55,57,3,4,3,4,3,4,3,4,3,4,3,4,3,4,3,4,3,4,3,4,3,4,3,4,3,4,3,4,3,4,3,4,3,4,3,4,3,4,3,4,3,4,3,4,3,4,3,4,3,4,3,4,3,4,3,4,3,4,3,4,3,4,3,4,3,4,3,4,3,4,3,4,3,4,3,4,3,4,3,4,3,4,3,4,3,4,3,4,3,4,3,4,3,4,3,4,3,4,3,4,3,4,3,4,3,4,3,4,3,4,3,4,3,4,3,4,3,4,3,4,3,4,3,4,3,4,3,4,3,4,3,4,3,4,3,4,3,4,3,4,3,4,3,4,3,4,3,4,3,4,3,4,3,4,3,4,3,4,3,4,3,4,3,4,3,4,3,4,3,4,3,4,3,4,3,4,3,4,3,4,3,4,3,4,3,4,3,4,3,4,3,4,3,4,3,4,3,4,3,4,3,4,3,4,3,4,3,4,3,4,3,4,3,4,3,4,3,4,3,4,3,4,3,4,3,4,3,4,3,4,3,4,3,20,116,106,107,106,107,106,107,106,107,106,107,106,107,106,107,106,107,106,107,106,107,106,107,108,16,17,59,60,61,62,61,62,61,62,61,62,61,62,61,62,61,62,61,62,61,62,61,62,61,62,61,62,61,62,61,62,61,62,61,62,61,62,61,62,61,62,61,62,61,62,70,71,16,17,16,17,35,17,16,17,16,26,5,3,4,3,4,3,4,3,4,3,34,28,16,17,16,17,16,17,16,17,18,3,4,3,4,3,4,3,4,3,4,3,4,3,4,3,4,3,4,3,4,3,4,3,4,3,4,3,4,3,4,3,4,3,4,3,4,3,4,3,4,3,4,3,4,3,4,3,4,3,4,3,4,3,
1,2,1,2,1,2,1,2,1,2,1,2,1,2,1,2,1,2,1,2,1,2,1,2,1,2,1,2,1,2,1,2,1,2,1,2,1,2,1,2,1,2,1,2,1,2,1,2,1,2,1,2,1,2,1,2,1,2,1,2,1,2,1,2,1,2,1,2,1,2,1,2,1,2,1,2,1,6,12,30,48,49,48,49,48,49,48,49,66,67,54,55,56,2,1,2,1,2,1,2,1,27,56,2,1,2,1,2,1,2,1,11,109,110,50,51,52,53,54,55,56,2,1,2,1,2,1,2,1,2,1,2,1,2,1,2,1,2,1,2,1,2,1,2,1,2,1,2,1,2,1,2,1,2,1,2,1,2,1,2,1,2,1,2,1,2,1,2,1,2,1,2,1,2,1,2,1,2,1,2,1,2,1,2,1,2,1,2,1,2,1,2,1,2,1,2,1,2,1,2,1,2,1,2,1,2,1,2,1,2,1,2,1,2,1,2,1,2,1,2,1,2,1,2,1,2,1,2,1,2,1,2,1,2,1,2,1,2,1,2,1,2,1,2,1,2,1,2,1,2,1,2,1,2,1,2,1,2,1,2,1,2,1,2,1,2,1,2,1,2,1,2,1,2,1,2,1,2,1,2,1,2,1,2,1,2,1,2,1,2,1,2,1,2,1,2,1,2,1,2,1,2,1,2,1,2,1,2,1,2,1,2,1,2,1,2,1,2,1,2,1,2,1,2,1,2,1,2,1,2,1,2,1,2,1,2,1,2,1,2,1,2,1,2,1,2,1,2,1,2,1,2,1,2,1,6,113,114,113,114,113,114,113,114,113,114,113,114,113,114,113,114,113,114,113,114,113,114,113,114,104,13,109,110,48,49,48,49,48,49,48,49,48,49,48,49,48,49,48,49,48,49,48,49,48,49,48,49,48,49,48,49,48,49,48,49,48,49,48,49,48,49,48,49,48,49,52,53,54,55,44,45,28,29,12,13,12,13,7,2,1,2,1,2,1,2,1,2,1,19,12,13,12,13,12,13,12,13,21,2,1,2,1,2,1,2,1,2,1,2,1,2,1,2,1,2,1,2,1,2,1,2,1,2,1,2,1,2,1,2,1,2,1,2,1,2,1,2,1,2,1,2,1,2,1,2,1,2,1,2,1,2,
3,4,3,4,3,4,3,4,3,4,3,4,3,4,3,4,3,4,3,4,3,4,3,4,3,4,3,4,3,4,3,4,3,4,3,4,3,4,3,4,3,4,3,4,3,4,3,4,3,4,3,4,3,4,3,4,3,4,3,4,3,4,3,4,3,4,3,4,3,4,3,4,3,4,3,4,8,9,36,37,61,62,61,62,61,62,61,62,70,71,55,57,3,4,3,4,3,4,3,4,3,4,3,4,3,4,3,4,3,4,3,15,16,115,63,64,65,17,55,57,3,4,3,4,3,4,3,4,3,4,3,4,3,4,3,4,3,4,3,4,3,4,3,4,3,4,3,4,3,4,3,4,3,4,3,4,3,4,3,4,3,4,3,4,3,4,3,4,3,4,3,4,3,4,3,4,3,4,3,4,3,4,3,4,3,4,3,4,3,4,3,4,3,4,3,4,3,4,3,4,3,4,3,4,3,4,3,4,3,4,3,4,3,4,3,4,3,4,3,4,3,4,3,4,3,4,3,4,3,4,3,4,3,4,3,4,3,4,3,4,3,4,3,4,3,4,3,4,3,4,3,4,3,4,3,4,3,4,3,4,3,4,3,4,3,4,3,4,3,4,3,4,3,4,3,4,3,4,3,4,3,4,3,4,3,4,3,4,3,4,3,4,3,4,3,4,3,4,3,4,3,4,3,4,3,4,3,4,3,4,3,4,3,4,3,4,3,4,3,4,3,4,3,4,3,4,3,4,3,4,3,4,3,4,3,4,3,4,3,4,3,4,3,4,3,4,3,4,3,4,22,23,24,25,8,9,116,106,107,106,107,106,107,106,107,106,107,106,107,106,107,106,107,106,107,106,107,106,107,106,107,108,16,115,61,62,61,62,61,62,61,62,61,62,61,62,61,62,61,62,61,62,61,62,61,62,61,62,61,62,61,62,61,62,61,62,72,73,74,75,76,62,61,62,61,62,65,17,55,57,58,57,34,28,35,17,16,17,10,3,4,3,4,3,4,3,4,3,4,20,35,17,16,17,16,17,16,17,16,26,5,3,4,3,4,3,4,3,4,3,4,3,4,3,4,3,4,3,4,3,4,3,4,3,4,3,4,3,4,3,4,3,4,3,4,3,4,3,4,3,4,3,4,3,4,3,4,3,4,3,4,3,
1,2,1,2,1,2,1,2,1,2,1,2,1,2,1,2,1,2,1,2,1,2,1,2,1,2,1,2,1,2,1,2,1,2,1,2,1,2,1,2,1,2,1,2,1,2,1,2,1,2,1,2,1,2,1,2,1,2,1,2,1,2,1,2,1,2,1,2,1,2,1,2,1,2,1,19,12,30,48,49,48,49,48,49,48,49,48,49,66,67,14,2,1,2,1,2,1,2,1,2,1,2,1,2,1,2,1,2,1,2,1,6,54,55,44,45,68,69,56,2,1,2,1,2,1,2,1,2,1,2,1,2,1,2,1,2,1,2,1,2,1,2,1,2,1,2,1,2,1,2,1,2,1,2,1,2,1,2,1,2,1,2,1,2,1,2,1,2,1,2,1,2,1,2,1,2,1,2,1,2,1,2,1,2,1,2,1,2,1,2,1,2,1,2,1,2,1,2,1,2,1,2,1,2,1,2,1,2,1,2,1,2,1,2,1,2,1,2,1,2,1,2,1,2,1,2,1,2,1,2,1,2,1,2,1,2,1,2,1,2,1,2,1,2,1,2,1,2,1,2,1,2,1,2,1,2,1,2,1,2,1,2,1,2,1,2,1,2,1,2,1,2,1,2,1,2,1,2,1,2,1,2,1,2,1,2,1,2,1,2,1,2,1,2,1,2,1,2,1,2,1,2,1,2,1,2,1,2,1,2,1,2,1,2,1,2,1,2,1,2,1,2,1,2,1,2,1,2,1,2,1,2,1,2,1,2,1,2,1,2,1,2,1,2,1,2,1,2,1,6,12,13,12,13,12,103,113,114,113,114,113,114,111,114,111,114,111,114,113,114,113,114,113,114,113,114,113,114,113,114,111,117,12,13,46,47,48,49,48,49,48,49,48,49,48,49,48,49,48,49,48,49,48,49,48,49,48,49,48,49,48,49,48,49,77,78,79,80,81,82,83,49,48,49,66,67,54,55,56,2,1,2,1,27,44,45,28,29,14,2,1,2,1,2,1,2,1,2,1,27,28,29,12,13,12,13,12,13,12,13,7,2,1,2,1,2,1,2,1,2,1,2,1,2,1,2,1,2,1,2,1,2,1,2,1,2,1,2,1,2,1,2,1,2,1,2,1,2,1,2,1,2,1,2,1,2,1,2,1,2,1,2,
3,4,3,4,3,4,3,4,3,4,3,4,3,4,3,4,3,4,3,4,3,4,3,4,3,4,3,4,3,4,3,4,3,4,3,4,3,4,3,4,3,4,3,4,3,4,3,4,3,4,3,4,3,4,3,4,3,4,3,4,3,4,3,4,3,4,3,4,3,4,3,4,3,4,3,20,36,37,61,62,61,62,61,62,61,62,61,62,70,71,18,3,4,3,4,3,4,3,4,3,4,3,4,3,4,3,4,3,4,4,8,9,55,57,58,57,3,4,3,4,3,4,3,4,3,4,3,4,3,4,3,4,3,4,3,4,3,4,3,4,3,4,3,4,3,4,3,4,3,4,3,4,3,4,3,4,3,4,3,4,3,4,3,4,3,4,3,4,3,4,3,4,3,4,3,4,3,4,3,4,3,4,3,4,3,4,3,4,3,4,3,4,3,4,3,4,3,4,3,4,3,4,3,4,3,4,3,4,3,4,3,4,3,4,3,4,3,4,3,4,3,4,3,4,3,4,3,4,3,4,3,4,3,4,3,4,3,4,3,4,3,4,3,4,3,4,3,4,3,4,3,4,3,4,3,4,3,4,3,4,3,4,3,4,3,4,3,4,3,4,3,4,3,4,3,4,3,4,3,4,3,4,3,4,3,4,3,4,3,4,3,4,3,4,3,4,3,4,3,4,3,4,3,4,3,4,3,4,3,4,3,4,3,4,3,4,3,4,3,4,3,4,3,4,3,4,3,4,3,4,3,4,3,4,3,4,3,4,3,4,3,4,3,4,3,4,3,4,8,9,16,17,16,17,105,106,107,106,107,106,107,106,118,119,118,119,118,119,107,106,107,106,107,106,107,106,107,106,107,106,107,120,16,17,59,60,61,62,61,62,61,62,61,62,61,62,61,62,61,62,61,62,61,62,61,62,72,73,74,75,76,62,61,62,84,85,86,87,88,89,90,62,61,62,70,71,55,57,3,4,3,4,3,4,58,57,34,28,18,3,4,3,4,3,4,3,4,3,4,3,34,28,16,17,16,17,16,17,16,17,10,3,4,3,4,3,4,3,4,3,4,3,4,3,4,3,4,3,4,3,4,3,4,3,4,3,4,3,4,3,4,3,4,3,4,3,4,3,4,3,4,3,4,3,4,3,4,3,4,3,4,3,
1,2,1,2,1,2,1,2,1,2,1,2,1,2,1,2,1,2,1,2,1,2,1,2,1,2,1,2,1,2,1,2,1,2,1,2,1,2,1,2,1,2,1,2,1,2,1,2,1,2,1,2,1,2,1,2,1,2,1,2,1,2,1,2,1,2,1,2,1,2,1,2,1,2,1,11,46,47,48,49,48,49,48,49,48,49,48,49,66,67,7,2,1,2,1,2,1,2,1,2,1,2,1,2,1,2,1,2,1,19,12,13,7,2,1,2,1,2,1,2,1,2,1,2,1,2,1,2,1,2,1,2,1,2,1,2,1,2,1,2,1,2,1,2,1,2,1,2,1,2,1,2,1,2,1,2,1,2,1,2,1,2,1,2,1,2,1,2,1,2,1,2,1,2,1,2,1,2,1,2,1,2,1,2,1,2,1,2,1,2,1,2,1,2,1,2,1,2,1,2,1,2,1,2,1,2,1,2,1,2,1,2,1,2,1,2,1,2,1,2,1,2,1,2,1,2,1,2,1,2,1,2,1,2,1,2,1,2,1,2,1,2,1,2,1,2,1,2,1,2,1,2,1,2,1,2,1,2,1,2,1,2,1,2,1,2,1,2,1,2,1,2,1,2,1,2,1,2,1,2,1,2,1,2,1,2,1,2,1,2,1,2,1,2,1,2,1,2,1,2,1,2,1,2,1,2,1,2,1,2,1,2,1,2,1,2,1,2,1,2,1,2,1,2,1,2,1,2,1,2,1,2,1,2,1,2,1,2,1,2,1,2,1,2,1,2,1,27,28,29,12,13,12,103,113,114,113,114,113,114,111,121,54,55,44,45,28,29,122,114,113,114,113,114,113,114,113,114,113,114,113,114,104,13,46,47,48,49,48,49,48,49,48,49,48,49,48,49,48,49,48,49,48,49,77,78,79,80,81,82,83,49,48,49,91,92,93,94,95,96,48,49,48,49,66,67,7,2,1,2,1,2,1,2,1,2,1,27,56,2,1,2,1,2,1,2,1,2,1,2,1,27,28,29,12,13,12,13,12,13,14,2,1,2,1,2,1,2,1,2,1,2,1,2,1,2,1,2,1,2,1,2,1,2,1,2,1,2,1,2,1,2,1,2,1,2,1,2,1,2,1,2,1,2,1,2,1,2,1,2,1,2,
3,4,3,4,3,4,3,4,3,4,3,4,3,4,3,4,3,4,3,4,3,4,3,4,3,4,3,4,3,4,3,4,3,4,3,4,3,4,3,4,3,4,3,4,3,4,3,4,3,4,3,4,3,4,3,4,3,4,3,4,3,4,3,4,3,4,3,4,3,4,3,4,3,4,3,15,59,60,61,62,61,62,61,62,61,62,61,62,70,71,10,3,4,3,4,3,4,3,4,3,4,3,4,3,4,3,4,3,4,20,16,17,10,3,4,3,4,3,4,3,4,3,4,3,4,3,4,3,4,3,4,3,4,3,4,3,4,3,4,3,4,4,5,3,4,3,4,3,4,3,4,3,4,3,4,3,4,3,4,3,4,3,4,3,4,3,4,3,4,3,4,3,4,3,4,3,4,3,4,3,4,3,4,3,4,3,4,3,4,3,4,3,4,3,4,3,4,3,4,3,4,3,4,3,4,3,4,3,4,3,4,3,4,3,4,3,4,3,4,3,4,3,4,3,4,3,4,3,4,3,4,3,4,3,4,3,4,3,4,3,4,3,4,3,4,3,4,3,4,3,4,3,4,3,4,3,4,3,4,3,4,3,4,3,4,3,4,3,4,3,4,3,4,3,4,3,4,3,4,3,4,3,4,3,4,3,4,3,4,3,4,3,4,3,4,3,4,3,4,3,4,3,4,3,4,3,4,3,4,3,4,3,4,3,4,3,4,3,4,3,4,3,4,3,4,3,4,3,4,3,4,3,4,3,4,3,4,3,4,3,4,3,4,3,4,3,4,3,34,28,16,17,105,106,107,106,107,106,107,106,123,17,55,57,58,57,34,28,16,124,107,106,107,106,107,106,107,106,107,106,107,106,107,108,59,60,61,62,61,62,61,62,61,62,61,62,61,62,61,62,61,62,61,62,84,85,86,87,88,89,90,62,61,62,61,62,97,98,99,100,61,62,61,62,70,71,10,3,4,3,4,3,4,3,4,3,4,3,4,3,4,3,4,3,4,3,4,3,4,3,4,3,34,28,16,17,16,17,16,17,18,3,4,3,4,3,4,3,4,3,4,3,4,3,4,3,4,3,4,4,24,25,22,23,5,3,4,3,4,3,4,3,4,3,4,3,4,3,4,3,4,3,4,3,4,3,4,3,4,3,4,3,
1,2,1,2,1,2,1,2,1,2,1,2,1,2,1,2,1,2,1,2,1,2,1,2,1,2,1,2,1,2,1,2,1,2,1,2,1,2,1,2,1,2,1,2,1,2,1,2,1,2,1,2,1,2,1,2,1,2,1,2,1,2,1,2,1,2,1,2,1,2,1,2,1,2,1,6,46,47,48,49,48,49,48,49,48,49,48,49,52,53,14,2,1,2,1,2,1,2,1,2,1,2,1,2,1,2,1,2,1,11,12,13,14,2,1,2,1,2,1,2,1,2,1,2,1,2,1,2,1,2,1,2,1,2,1,2,1,2,1,2,1,19,21,2,1,2,1,2,1,2,1,2,1,2,1,2,1,2,1,2,1,2,1,2,1,2,1,2,1,2,1,2,1,2,1,2,1,2,1,2,1,2,1,2,1,2,1,2,1,2,1,2,1,2,1,2,1,2,1,2,1,2,1,2,1,2,1,2,1,2,1,2,1,2,1,2,1,2,1,2,1,2,1,2,1,2,1,2,1,2,1,2,1,2,1,2,1,2,1,2,1,2,1,2,1,2,1,2,1,2,1,2,1,2,1,2,125,2,125,2,1,2,1,2,1,2,1,2,1,2,1,2,1,2,1,2,1,2,1,2,1,2,125,2,1,2,1,2,1,2,1,2,1,2,1,2,1,2,1,2,1,2,1,2,1,2,1,2,1,2,1,2,1,2,1,2,1,2,1,2,1,2,1,2,1,2,1,2,1,2,1,2,1,2,1,2,1,2,1,2,1,2,1,2,1,2,1,2,1,11,12,13,113,114,113,114,113,114,111,117,54,55,56,2,1,2,1,27,28,29,113,114,113,114,113,114,113,114,113,114,113,114,111,117,46,47,48,49,48,49,50,51,50,51,50,51,50,51,48,49,48,49,48,49,91,92,93,94,95,96,48,49,48,49,48,49,91,92,101,102,48,49,48,49,66,67,14,2,1,2,1,2,1,2,1,2,1,2,1,2,1,2,1,2,1,2,1,2,1,2,1,2,1,11,12,13,12,13,12,13,21,2,1,2,1,2,1,2,1,2,1,2,1,2,1,2,1,2,1,6,12,13,12,13,14,2,1,2,1,2,1,2,1,2,1,2,1,2,1,2,1,2,1,2,1,2,1,2,1,2,1,2,
3,4,3,4,3,4,3,4,3,4,3,4,3,4,3,4,3,4,3,4,3,4,3,4,3,4,3,4,3,4,3,4,3,4,3,4,3,4,3,4,3,4,3,4,3,4,3,4,3,4,3,4,3,4,3,4,3,4,3,4,3,4,3,4,3,4,3,4,3,4,3,4,3,4,8,9,59,60,61,62,61,62,61,62,61,62,61,62,65,17,18,3,4,3,4,3,4,3,4,3,4,3,4,3,4,3,4,3,4,15,17,35,18,3,4,3,4,3,4,3,4,3,4,3,4,3,4,3,4,3,4,3,4,3,4,3,4,3,4,3,4,20,16,26,5,3,4,3,4,3,4,3,4,3,4,3,4,3,4,3,4,3,4,3,4,3,4,3,4,3,4,3,4,3,4,3,4,3,4,3,4,3,4,3,4,4,5,3,4,3,4,3,4,3,4,3,4,3,4,3,4,3,4,3,4,3,4,3,4,3,4,3,4,3,4,3,4,3,4,3,4,3,4,3,4,3,4,3,4,3,4,3,4,3,4,3,4,4,22,23,5,3,4,3,4,3,4,3,4,3,4,3,4,3,4,3,126,127,126,127,3,4,3,4,3,4,3,4,3,4,3,4,3,4,3,4,3,4,3,4,3,4,126,127,3,4,3,4,3,4,3,4,3,4,3,4,3,4,3,4,3,4,3,4,3,4,3,4,3,4,3,4,3,4,3,4,3,4,3,4,3,4,3,4,3,4,3,4,3,4,3,4,3,4,3,4,3,4,3,4,3,4,3,4,3,4,3,4,3,15,16,17,116,106,107,106,107,106,107,120,55,57,3,4,3,4,3,4,34,28,116,106,107,106,107,106,107,106,107,106,107,106,107,120,59,60,61,62,61,62,63,64,63,64,63,64,63,64,61,62,61,62,61,62,61,62,97,98,99,100,61,62,61,62,61,62,61,62,61,62,61,62,61,62,70,71,18,3,4,3,4,3,4,3,4,3,4,3,4,3,4,3,4,3,4,3,4,3,4,3,4,3,4,15,35,17,16,17,16,17,16,26,22,23,24,25,5,3,4,4,22,23,24,25,22,23,22,23,8,9,16,17,17,35,18,3,4,3,4,3,4,3,4,3,4,3,4,3,4,3,4,3,4,3,4,3,4,3,4,3,4,3,
1,2,1,2,1,2,1,2,1,2,1,2,1,2,1,2,1,2,1,2,1,2,1,2,1,2,1,2,1,2,1,2,1,2,1,2,1,2,1,2,1,2,1,2,1,2,1,2,1,2,1,2,1,2,1,2,1,2,1,2,1,2,1,2,1,2,1,2,1,2,1,2,1,6,12,30,48,49,48,49,48,49,50,51,50,51,52,53,54,55,56,2,1,2,1,2,1,2,1,2,1,2,1,2,1,2,1,2,1,6,54,55,56,2,1,2,1,2,1,2,1,2,1,2,1,2,1,2,1,2,1,2,1,2,1,2,1,2,1,2,1,11,12,13,21,2,1,2,1,2,1,2,1,2,1,2,1,2,1,2,1,2,1,2,1,2,1,2,1,2,1,2,1,2,1,2,1,2,1,2,1,2,1,2,1,6,21,2,1,2,1,2,1,2,1,2,1,2,1,2,1,2,1,2,1,2,1,2,1,2,1,2,1,2,1,2,1,2,1,2,1,2,1,2,1,2,1,2,1,2,1,2,1,2,1,2,1,6,12,13,7,2,1,2,1,2,1,2,1,2,1,2,1,2,1,2,1,2,125,2,125,2,1,2,1,2,1,2,1,2,125,2,1,2,1,2,1,2,1,2,1,2,1,2,1,2,1,2,125,2,125,2,1,2,1,2,1,2,1,2,125,2,1,2,1,2,1,2,1,2,1,2,1,2,1,2,1,2,1,2,1,2,1,2,1,2,1,2,1,2,1,2,1,2,1,2,1,2,1,2,1,2,1,2,1,2,1,2,1,19,12,13,113,114,113,114,113,114,111,117,7,2,1,2,1,2,1,2,1,19,113,114,113,114,113,114,113,114,113,114,113,114,111,121,46,47,48,49,52,53,12,13,12,13,12,13,12,13,109,110,50,51,48,49,48,49,91,92,101,102,48,49,48,49,48,49,48,49,48,49,48,49,48,49,66,67,21,2,1,2,1,2,1,2,1,2,1,2,1,2,1,2,1,2,1,2,1,2,1,2,1,2,1,27,28,29,12,13,12,13,12,13,12,13,12,13,21,2,1,6,12,13,12,13,12,13,12,13,12,13,12,13,54,55,56,2,1,2,1,2,1,2,1,2,1,2,1,2,1,2,1,2,1,2,1,2,1,2,1,2,1,2,
3,4,3,4,3,4,3,4,3,4,3,4,3,4,3,4,3,4,3,4,3,4,3,4,3,4,3,4,3,4,3,4,3,4,3,4,3,4,3,4,3,4,3,4,3,4,3,4,3,4,3,4,3,4,3,4,3,4,3,4,3,4,3,4,3,4,3,4,3,4,3,4,8,9,36,37,61,62,61,62,61,62,63,64,63,64,65,17,55,57,3,4,3,4,3,4,3,4,3,4,3,4,3,4,3,4,3,4,8,9,55,57,3,4,3,4,3,4,3,4,3,4,3,4,3,4,3,4,3,4,3,4,3,4,3,4,3,4,3,4,3,15,16,17,16,26,24,25,5,3,4,3,4,3,4,3,4,3,4,3,4,3,4,3,4,3,4,3,4,3,4,3,4,3,4,3,4,3,4,3,4,3,4,4,8,9,16,26,5,3,4,3,4,3,4,3,4,3,4,3,4,3,4,3,4,3,4,3,4,3,4,3,4,3,4,3,4,3,4,3,4,3,4,3,4,3,4,3,4,3,4,3,4,4,24,25,8,9,16,17,10,3,4,3,4,3,4,3,4,3,4,3,4,3,4,3,4,3,126,127,126,127,3,4,3,4,3,4,3,4,126,127,3,4,3,4,3,4,3,4,3,4,3,4,3,4,3,4,126,127,126,127,3,4,3,4,5,3,4,3,126,127,3,4,3,4,3,4,3,4,3,4,3,4,3,4,3,4,3,4,3,4,3,4,3,4,3,4,3,4,3,4,3,4,3,4,3,4,3,4,3,4,3,4,3,4,3,4,3,20,16,17,116,106,107,106,107,106,107,120,10,3,4,3,4,3,4,3,4,20,116,106,107,106,107,106,107,106,107,106,107,106,123,17,59,60,61,62,65,17,16,17,16,17,16,17,16,17,16,115,63,64,61,62,61,62,61,62,61,62,61,62,61,62,72,73,74,75,76,62,61,62,61,62,70,71,16,26,5,3,4,3,4,3,4,3,4,3,4,3,4,3,4,3,4,3,4,3,4,3,4,3,4,3,34,28,35,17,16,17,16,17,16,17,16,17,16,26,8,9,16,17,16,17,16,17,16,17,16,17,16,17,55,57,3,4,3,4,3,4,3,4,3,4,3,4,3,4,3,4,3,4,3,4,3,4,3,4,3,4,3,4,
1,2,1,2,1,2,1,2,1,2,1,2,1,2,1,2,1,2,1,2,1,2,1,2,1,2,1,2,1,2,1,2,1,2,1,2,1,2,1,2,1,2,1,2,1,2,1,2,1,2,1,2,1,2,1,2,1,2,1,2,1,2,1,2,1,2,1,2,1,2,1,19,12,30,48,49,48,49,48,49,66,67,54,55,44,45,42,43,56,2,1,2,1,2,1,2,1,2,1,2,1,2,1,2,1,2,1,11,12,13,7,2,1,2,1,2,1,2,1,2,1,2,1,2,1,2,1,2,1,2,1,2,1,2,1,2,1,2,1,2,1,19,12,30,31,32,33,13,21,2,1,2,1,2,1,2,1,2,1,2,1,2,1,2,1,2,1,2,1,2,1,2,1,2,1,2,1,2,1,2,1,2,1,6,12,30,33,13,21,2,1,2,1,2,1,2,1,2,1,2,1,2,1,2,1,2,1,2,1,2,1,2,1,2,1,2,1,2,1,2,1,2,1,2,1,2,1,2,1,2,1,2,1,6,12,30,31,32,33,13,21,2,1,2,1,2,1,2,1,2,1,2,1,2,1,2,1,2,125,2,1,2,125,2,1,2,1,2,1,2,1,2,1,2,125,2,1,2,125,2,1,2,1,2,1,2,125,2,125,2,1,2,1,2,1,6,7,2,1,2,1,2,1,2,1,2,1,2,1,2,1,2,1,2,1,2,1,2,1,2,1,2,1,2,1,2,1,2,1,2,1,2,1,2,1,2,1,2,1,2,1,2,1,2,1,2,1,2,1,11,12,13,113,114,113,114,113,114,111,121,14,2,1,2,1,2,1,2,1,11,113,114,113,114,113,114,113,114,113,114,111,117,12,30,48,49,66,67,12,13,12,13,12,13,12,13,12,13,12,13,12,13,46,47,48,49,48,49,48,49,48,49,77,78,79,80,81,82,83,49,48,49,48,49,48,49,33,13,21,2,1,2,1,2,1,2,1,2,1,2,1,2,1,2,1,2,1,2,1,2,1,2,1,2,1,27,44,45,68,69,28,29,12,13,12,30,31,32,31,32,33,13,12,13,12,13,12,13,12,13,54,55,56,2,1,2,1,2,1,2,1,2,1,2,1,2,1,2,1,2,1,2,1,2,1,2,1,2,1,2,1,2,
3,4,3,4,3,4,3,4,3,4,3,4,3,4,3,4,3,4,3,4,3,4,3,4,3,4,3,4,3,4,3,4,3,4,3,4,3,4,3,4,3,4,3,4,3,4,3,4,3,4,3,4,3,4,3,4,3,4,3,4,3,4,3,4,3,4,3,4,3,4,3,20,36,37,61,62,61,62,61,62,70,71,55,57,58,57,3,57,3,4,3,4,3,4,3,4,3,4,3,4,3,4,3,4,3,4,3,15,16,17,10,3,4,3,4,3,4,3,4,3,4,3,4,3,4,3,4,3,4,3,4,3,4,3,4,3,4,3,4,3,4,20,36,37,38,39,40,41,16,26,5,3,4,3,4,3,4,3,4,3,4,3,4,3,4,3,4,3,4,3,4,4,5,3,4,3,4,3,4,3,4,4,8,9,36,37,40,41,16,26,5,3,4,3,4,3,4,3,4,3,4,3,4,3,4,3,4,3,4,3,4,3,4,3,4,3,4,3,4,3,4,3,4,3,4,3,4,3,4,4,22,23,8,9,36,37,38,39,40,41,16,26,5,3,4,3,4,3,4,3,4,3,4,4,5,3,4,3,126,127,3,4,126,127,3,4,3,4,3,4,3,4,3,4,126,127,3,4,126,127,3,4,3,4,3,4,126,127,126,127,3,4,3,4,8,9,10,3,4,3,4,3,4,3,4,3,4,3,4,3,4,3,4,3,4,3,4,3,4,3,4,3,4,3,4,3,4,3,4,3,4,3,4,3,4,3,4,3,4,3,4,3,4,3,4,3,4,3,4,15,16,17,116,106,107,106,107,106,123,17,18,3,4,3,4,3,4,3,4,15,116,106,107,106,107,106,107,106,107,106,107,120,36,37,61,62,70,71,16,17,16,17,16,17,16,17,16,17,16,17,16,17,59,60,61,62,61,62,61,62,61,62,84,85,86,87,88,89,90,62,61,62,61,62,61,62,40,41,16,26,5,3,4,3,4,3,4,3,4,3,4,3,4,3,4,3,4,3,4,3,4,3,4,3,4,3,58,57,3,4,34,28,35,17,36,37,38,39,38,39,40,41,16,17,16,17,16,17,16,17,55,57,3,4,3,4,3,4,3,4,3,4,3,4,3,4,3,4,3,4,3,4,3,4,3,4,3,4,3,4,3,4,
1,2,1,2,1,2,1,2,1,2,1,2,1,2,1,2,1,2,1,2,1,2,1,2,1,2,1,2,1,2,1,2,1,2,1,2,1,2,1,2,1,2,1,2,1,2,1,2,1,2,1,2,1,2,1,2,1,2,1,2,1,2,1,2,1,2,1,2,1,2,1,11,46,47,48,49,48,49,48,49,52,53,7,2,1,2,1,2,1,2,1,2,1,2,1,2,1,2,1,2,1,2,1,2,1,2,1,6,12,13,14,2,1,2,1,2,1,2,1,2,1,2,1,2,1,2,1,2,1,2,1,2,1,2,1,2,1,2,1,2,1,11,46,47,48,49,48,49,33,13,14,2,1,2,1,2,1,2,1,2,1,2,1,2,1,2,1,2,1,2,1,6,21,2,1,2,1,2,1,2,1,11,12,30,48,49,48,49,33,13,21,2,1,2,1,2,1,2,1,2,1,2,1,2,1,2,1,2,1,2,1,2,1,2,1,2,1,2,1,2,1,2,1,2,1,2,1,2,1,27,28,29,12,13,109,110,48,49,48,49,33,13,21,2,1,2,1,2,1,2,1,2,1,6,7,2,1,2,125,2,125,2,1,2,1,2,1,2,125,2,125,2,1,2,125,2,125,2,125,2,125,2,125,2,125,2,125,2,1,2,1,2,1,19,12,13,14,2,125,2,1,2,1,2,125,2,1,2,1,2,1,2,1,2,1,2,1,2,1,2,1,2,1,2,1,2,1,2,1,2,1,2,1,2,1,2,1,2,1,2,1,2,1,2,1,2,1,2,1,19,12,13,113,114,113,114,111,117,12,13,21,2,1,2,1,2,1,2,1,19,113,114,113,114,113,114,113,114,113,114,111,117,46,47,48,49,66,67,12,13,12,13,12,13,12,13,12,13,12,13,12,13,109,110,50,51,48,49,48,49,48,49,91,92,93,94,95,96,48,49,48,49,48,49,48,49,48,49,33,13,7,2,1,2,1,2,1,2,1,2,1,2,1,2,1,2,1,2,1,2,1,2,1,2,1,2,1,2,1,2,1,6,12,30,48,49,48,49,48,49,48,49,31,32,33,13,12,13,12,13,14,2,1,2,1,2,1,2,1,2,1,2,1,2,1,2,1,2,1,2,1,2,1,2,1,2,1,2,1,2,1,2,
3,4,3,4,3,4,3,4,3,4,3,4,3,4,3,4,3,4,3,4,3,4,3,4,3,4,3,4,3,4,3,4,3,4,3,4,3,4,3,4,3,4,3,4,3,4,3,4,3,4,3,4,3,4,3,4,3,4,3,4,3,4,3,4,3,4,3,4,3,4,3,15,59,60,61,62,61,62,61,62,65,17,10,3,4,3,4,3,4,3,4,3,4,3,4,3,4,3,4,3,4,3,4,3,4,4,8,9,17,35,18,3,4,3,4,3,4,3,4,3,4,3,4,3,4,3,4,3,4,3,4,3,4,3,4,3,4,3,4,3,4,15,59,60,61,62,61,62,40,41,18,3,4,3,4,3,4,3,4,3,4,3,4,3,4,3,4,3,4,4,8,9,16,26,5,3,4,3,4,3,4,15,36,37,61,62,61,62,40,41,16,26,22,23,24,25,22,23,24,25,5,3,4,3,4,3,4,3,4,3,4,3,4,3,4,3,4,3,4,3,4,3,4,3,4,3,4,3,4,3,34,28,35,17,16,115,61,62,61,62,40,41,16,26,22,23,24,25,22,23,24,25,8,9,10,3,4,3,126,127,126,127,3,4,3,4,3,4,126,127,126,127,3,4,126,127,126,127,126,127,126,127,126,127,126,127,126,127,3,4,3,4,3,20,16,17,18,127,126,127,3,4,3,4,126,127,3,4,3,4,3,4,3,4,3,4,3,4,3,4,22,23,24,25,22,23,24,25,22,23,5,3,4,3,4,3,4,3,4,3,4,3,4,3,4,3,4,3,4,20,35,17,116,106,107,106,107,120,16,17,16,26,5,3,4,3,4,3,4,20,116,106,107,106,107,106,107,106,107,106,107,120,59,60,61,62,70,71,16,17,16,17,16,17,16,17,16,17,16,17,16,17,16,115,63,64,61,62,61,62,61,62,61,62,97,98,99,100,61,62,61,62,61,62,61,62,61,62,40,41,10,3,4,3,4,3,4,3,4,3,4,3,4,3,4,3,4,3,4,3,4,3,4,3,4,4,22,23,24,25,8,9,36,37,61,62,61,62,61,62,61,62,38,39,40,41,16,17,17,35,18,3,4,3,4,3,4,3,4,3,4,3,4,3,4,3,4,3,4,3,4,3,4,3,4,3,4,3,4,3,4,3,
1,2,1,2,1,2,1,2,1,2,1,2,1,2,1,2,1,2,1,2,1,2,1,2,1,2,1,2,1,2,1,2,1,2,1,2,1,2,1,2,1,2,1,2,1,2,1,2,1,2,1,2,1,2,1,2,1,2,1,2,1,2,1,2,1,2,1,2,1,2,1,6,46,47,48,49,48,49,52,53,54,55,56,2,1,2,1,2,1,2,1,2,1,2,1,2,1,2,1,2,1,2,1,2,1,11,12,13,54,55,56,2,1,2,1,2,1,2,1,2,1,2,1,2,1,2,1,2,1,2,1,2,1,2,1,2,1,2,1,2,1,19,46,47,48,49,48,49,66,67,21,2,1,2,1,2,1,2,1,2,1,2,1,2,1,2,1,2,1,6,12,30,33,13,21,2,1,2,1,2,1,6,46,47,48,49,48,49,48,49,31,32,33,13,12,13,12,13,12,13,21,2,1,2,1,2,1,2,1,2,1,2,1,2,1,2,1,2,1,2,1,2,1,2,1,2,1,2,1,2,1,27,68,69,28,29,46,47,48,49,48,49,31,32,31,32,31,32,31,32,33,13,12,13,14,2,1,2,125,2,125,2,1,2,1,2,125,2,1,2,1,2,125,2,125,2,125,2,125,2,1,2,1,2,125,2,1,2,125,2,125,2,125,11,12,13,14,2,1,2,1,2,1,2,1,2,1,2,1,2,1,2,1,2,1,2,1,2,1,6,12,30,31,32,31,32,31,32,33,13,21,2,1,2,1,2,1,2,1,2,1,2,1,2,1,2,1,2,1,27,28,29,113,114,113,114,111,121,12,13,54,55,56,2,1,2,1,2,1,6,113,114,113,114,113,114,113,114,113,114,111,117,109,110,50,51,52,53,12,13,12,13,12,13,12,13,12,13,12,13,12,13,12,13,12,13,109,110,50,51,48,49,48,49,91,92,101,102,48,49,48,49,48,49,48,49,48,49,52,53,14,2,1,2,1,2,1,2,1,2,1,2,1,2,1,2,1,2,1,2,1,2,1,2,1,6,12,13,12,30,31,32,48,49,48,49,48,49,48,49,48,49,48,49,66,67,12,13,54,55,56,2,1,2,1,2,1,2,1,2,1,2,1,2,1,2,1,2,1,2,1,2,1,2,1,2,1,2,1,2,1,2,
3,4,3,4,3,4,3,4,3,4,3,4,3,4,3,4,3,4,3,4,3,4,3,4,3,4,3,4,3,4,3,4,3,4,3,4,3,4,3,4,3,4,3,4,3,4,3,4,3,4,3,4,3,4,3,4,3,4,3,4,3,4,3,4,3,4,3,4,3,4,8,9,59,60,61,62,61,62,65,17,55,57,3,4,3,4,3,4,3,4,3,4,3,4,3,4,3,4,3,4,3,4,3,4,3,15,16,17,55,57,3,4,3,4,3,4,3,4,3,4,3,4,3,4,3,4,3,4,3,4,3,4,3,4,3,4,3,4,3,4,3,20,59,60,61,62,61,62,70,71,16,26,22,23,24,25,5,3,4,3,4,3,4,3,4,3,4,4,8,9,36,37,40,41,16,26,22,23,24,25,8,9,59,60,61,62,61,62,61,62,38,39,40,41,16,17,16,17,16,17,16,26,5,3,4,3,4,3,4,3,4,3,4,3,4,3,4,3,4,3,4,3,4,3,4,3,4,3,4,3,4,3,4,3,34,28,59,60,61,62,61,62,38,39,38,39,38,39,38,39,40,41,16,17,18,3,4,3,126,127,126,127,3,4,3,4,126,127,3,4,3,4,126,127,126,127,126,127,126,127,3,4,3,4,126,127,3,4,126,127,126,127,126,15,16,17,18,127,3,4,3,4,3,4,3,4,3,4,3,4,3,4,3,4,3,4,22,23,8,9,36,37,38,39,38,39,38,39,40,41,16,26,5,3,4,3,4,3,4,3,4,3,4,3,4,3,4,3,4,3,34,28,116,106,107,106,123,17,17,35,55,57,3,4,3,4,3,4,8,9,116,106,107,106,107,106,107,106,107,106,107,120,16,115,63,64,65,17,16,17,16,17,16,17,16,17,16,17,16,17,16,17,16,17,16,17,16,115,63,64,61,62,61,62,61,62,61,62,61,62,61,62,61,62,61,62,61,62,65,17,18,3,4,3,4,3,4,3,4,3,4,3,4,3,4,3,4,3,4,3,4,3,4,4,8,9,16,17,36,37,38,39,61,62,61,62,61,62,61,62,61,62,61,62,70,71,16,17,55,57,3,4,3,4,3,4,3,4,3,4,3,4,3,4,3,4,3,4,3,4,3,4,3,4,3,4,3,4,3,4,3,4,
1,2,1,2,1,2,1,2,1,2,1,2,1,2,1,2,1,2,1,2,1,2,1,2,1,2,1,2,1,2,1,2,1,2,1,2,1,2,1,2,1,2,1,2,1,2,1,2,1,2,1,2,1,2,1,2,1,2,1,2,1,2,1,2,1,2,1,2,1,6,12,30,48,49,48,49,66,67,54,55,56,2,1,2,1,2,1,2,1,2,1,2,1,2,1,2,1,2,1,2,1,2,1,2,1,19,12,13,7,2,1,2,1,2,1,2,1,2,1,2,1,2,1,2,1,2,1,2,1,2,1,2,1,2,1,2,1,2,1,2,1,11,46,47,48,49,48,49,48,49,31,32,31,32,33,13,21,2,1,2,1,2,1,2,1,2,1,19,12,30,48,49,48,49,31,32,31,32,31,32,31,32,48,49,48,49,48,49,48,49,48,49,52,53,54,55,44,45,42,43,68,69,56,2,1,2,1,2,1,2,1,2,1,2,1,2,1,2,1,2,1,2,1,2,1,2,1,2,1,2,1,2,1,2,1,6,46,47,48,49,48,49,48,49,48,49,48,49,48,49,48,49,33,13,14,2,125,2,1,2,125,2,125,2,125,2,1,2,125,2,125,2,125,2,125,2,1,2,125,2,125,2,125,2,1,2,125,2,125,2,125,2,125,11,12,13,7,2,1,2,1,2,1,2,1,2,1,2,1,2,1,2,1,2,1,6,12,30,31,32,48,49,48,49,48,49,48,49,48,49,33,13,21,2,1,2,1,2,1,2,1,2,1,2,1,2,1,2,1,2,1,6,113,114,111,117,54,55,68,69,56,2,1,2,1,2,1,6,12,13,122,114,113,114,113,114,113,114,113,114,113,114,104,13,12,13,12,13,12,13,12,13,12,13,12,13,12,13,12,13,12,13,12,13,12,13,12,13,12,13,109,110,48,49,48,49,48,49,48,49,48,49,50,51,50,51,52,53,54,55,56,2,1,2,1,2,1,2,1,2,1,2,1,2,1,2,1,2,1,2,1,2,1,19,12,13,12,30,48,49,48,49,48,49,50,51,50,51,50,51,48,49,48,49,66,67,12,13,7,2,1,2,1,2,1,2,1,2,1,2,1,2,1,2,1,2,1,2,1,2,1,2,1,2,1,2,1,2,1,2,1,2,
3,4,3,4,3,4,3,4,3,4,3,4,3,4,3,4,3,4,3,4,3,4,3,4,3,4,3,4,3,4,3,4,3,4,3,4,3,4,3,4,3,4,3,4,3,4,3,4,3,4,3,4,3,4,3,4,3,4,3,4,3,4,3,4,24,25,24,25,8,9,36,37,61,62,61,62,70,71,55,57,3,4,3,4,3,4,3,4,3,4,3,4,3,4,3,4,3,4,3,4,3,4,3,4,3,20,16,17,10,3,4,3,4,3,4,3,4,3,4,3,4,3,4,3,4,3,4,3,4,3,4,3,4,3,4,3,4,3,4,3,4,15,59,60,61,62,61,62,61,62,38,39,38,39,40,41,16,26,5,3,4,3,4,3,4,3,4,20,36,37,61,62,61,62,38,39,38,39,38,39,38,39,61,62,61,62,61,62,61,62,61,62,65,17,55,57,58,57,3,57,3,4,3,4,3,4,3,4,3,4,3,4,3,4,3,4,3,4,3,4,3,4,3,4,3,4,3,4,3,4,22,23,24,25,8,9,59,60,61,62,61,62,61,62,61,62,61,62,61,62,61,62,40,41,18,3,126,127,3,4,126,127,126,127,126,127,3,4,126,127,126,127,126,127,126,127,3,4,126,127,126,127,126,127,3,4,126,127,126,127,126,127,126,15,16,17,10,3,4,3,4,3,4,3,4,3,4,3,4,4,22,23,24,25,8,9,36,37,38,39,61,62,61,62,61,62,61,62,61,62,40,41,16,26,5,3,4,3,4,3,4,3,4,3,4,3,4,3,4,4,8,9,116,106,107,120,55,57,3,4,3,4,3,4,3,4,8,9,16,17,16,124,107,106,107,106,107,106,107,106,107,106,107,108,16,17,16,17,16,17,16,17,16,17,16,17,16,17,16,17,16,17,16,17,16,17,16,17,16,17,16,115,61,62,61,62,61,62,61,62,61,62,63,64,63,64,65,17,55,57,3,4,3,4,3,4,3,4,3,4,3,4,3,4,3,4,3,4,3,4,3,4,3,20,16,17,36,37,61,62,61,62,61,62,63,64,63,64,63,64,61,62,61,62,70,71,17,35,10,3,4,3,4,3,4,3,4,3,4,3,4,3,4,3,4,3,4,3,4,3,4,3,4,3,4,3,4,3,4,3,4,3,
1,2,1,2,1,2,1,2,1,2,1,2,1,2,1,2,1,2,1,2,1,2,1,2,1,2,1,2,1,2,1,2,1,2,1,2,1,2,1,2,1,2,1,2,1,2,1,2,1,2,1,2,1,2,1,2,1,2,1,2,1,2,1,6,12,30,31,32,31,32,48,49,48,49,48,49,66,67,21,2,1,2,1,2,1,2,1,2,1,2,1,2,1,2,1,2,1,2,1,2,1,2,1,2,1,11,12,13,14,2,1,2,1,2,1,2,1,2,1,2,1,2,1,2,1,2,1,2,1,2,1,2,1,2,1,2,1,2,1,2,1,6,46,47,48,49,48,49,48,49,48,49,48,49,48,49,33,13,14,2,1,2,1,2,1,2,1,11,46,47,48,49,48,49,48,49,48,49,48,49,48,49,48,49,48,49,48,49,48,49,52,53,54,55,56,2,1,2,1,2,1,2,1,2,1,2,1,2,1,2,1,2,1,2,1,2,1,2,1,2,1,2,125,2,1,2,1,2,1,6,12,13,12,13,12,13,46,47,48,49,48,49,48,49,48,49,48,49,48,49,48,49,66,67,21,2,1,2,1,2,1,2,125,2,125,2,125,2,125,2,125,2,125,2,125,2,1,2,1,2,125,2,125,2,125,2,125,2,125,2,1,2,1,6,12,13,21,2,1,2,1,2,1,2,1,2,1,2,1,6,12,13,12,13,12,30,48,49,48,49,48,49,48,49,48,49,48,49,48,49,48,49,33,13,7,2,1,2,1,2,1,2,1,2,1,2,1,2,1,6,12,103,113,114,111,121,14,2,1,2,1,2,1,2,1,27,28,29,12,13,12,13,113,114,113,114,113,114,113,114,113,114,113,114,104,13,12,13,12,13,12,13,12,13,12,13,12,13,12,13,12,13,12,13,12,13,12,13,12,13,12,13,109,110,48,49,48,49,50,51,52,53,54,55,44,45,68,69,56,2,1,2,1,2,1,2,1,2,1,2,1,2,1,2,1,2,1,2,1,2,1,2,1,11,12,30,48,49,48,49,48,49,52,53,12,103,111,112,104,13,109,110,48,49,66,67,54,55,56,2,1,2,1,2,1,2,1,2,1,2,1,2,1,2,1,2,1,2,1,2,1,2,1,2,1,2,1,2,1,2,1,2,
3,4,3,4,3,4,3,4,3,4,3,4,3,4,3,4,3,4,3,4,3,4,3,4,3,4,3,4,3,4,3,4,3,4,3,4,3,4,3,4,3,4,3,4,3,4,3,4,3,4,3,4,3,4,3,4,3,4,3,4,3,4,8,9,36,37,38,39,38,39,61,62,61,62,61,62,70,71,16,26,22,23,5,3,4,3,4,3,4,3,4,3,4,3,4,3,4,3,4,3,4,3,4,3,4,15,16,17,18,3,4,3,4,3,4,3,4,3,4,3,4,3,4,3,4,3,4,3,4,3,4,3,4,3,4,3,4,3,4,4,8,9,59,60,61,62,61,62,61,62,61,62,61,62,61,62,40,41,18,3,4,3,4,3,4,3,4,15,59,60,61,62,61,62,61,62,61,62,61,62,61,62,61,62,61,62,61,62,61,62,65,17,55,57,3,4,3,4,3,4,3,4,3,4,3,4,3,4,3,4,3,4,3,4,3,4,3,4,3,4,3,4,126,127,3,4,3,4,8,9,16,17,16,17,16,17,59,60,61,62,61,62,61,62,61,62,61,62,61,62,61,62,70,71,16,26,5,3,4,3,4,3,126,127,126,127,126,127,126,127,126,127,126,127,126,127,3,4,3,4,126,127,126,127,126,127,126,127,126,127,3,4,8,9,16,17,16,26,22,23,24,25,22,23,24,25,24,25,8,9,16,17,16,17,36,37,61,62,61,62,61,62,61,62,61,62,61,62,61,62,61,62,40,41,10,3,4,3,4,3,4,3,4,3,4,4,24,25,8,9,105,106,107,106,123,17,18,3,4,3,4,3,4,3,4,3,34,28,35,17,16,17,116,106,107,106,107,106,107,106,107,106,107,106,107,108,16,17,16,17,16,17,16,17,16,17,16,17,16,17,16,17,16,17,16,17,16,17,16,17,16,17,16,115,61,62,61,62,63,64,65,17,55,57,58,57,3,4,3,4,3,4,3,4,3,4,3,4,3,4,3,4,3,4,3,4,3,4,3,4,3,4,3,15,36,37,61,62,61,62,61,62,65,17,105,106,107,106,107,108,16,115,61,62,70,71,55,57,3,4,3,4,3,4,3,4,3,4,3,4,3,4,3,4,3,4,3,4,3,4,3,4,3,4,3,4,3,4,3,4,3,4,
1,2,1,2,1,2,1,2,1,2,1,2,1,2,1,2,1,2,1,2,1,2,1,2,1,2,1,2,1,2,1,2,1,2,1,2,1,2,1,2,1,2,1,2,1,2,1,2,1,2,1,2,1,2,1,2,1,2,1,2,1,6,12,30,48,49,48,49,48,49,48,49,48,49,48,49,48,49,31,32,33,13,21,2,1,2,1,2,1,2,1,2,1,2,1,2,1,2,1,2,1,2,1,2,1,19,54,55,56,2,1,2,1,2,1,2,1,2,1,2,1,2,1,2,1,2,1,2,1,2,1,2,1,2,1,2,1,2,1,6,12,30,48,49,48,49,48,49,48,49,48,49,48,49,48,49,66,67,21,2,1,2,1,2,1,2,1,6,46,47,48,49,48,49,48,49,48,49,48,49,48,49,50,51,50,51,50,51,52,53,54,55,56,2,1,2,1,2,1,2,1,2,1,2,1,2,1,2,1,2,1,2,1,2,1,2,1,2,1,2,1,2,1,2,1,2,1,27,44,45,42,43,68,69,28,29,109,110,50,51,50,51,48,49,48,49,48,49,50,51,48,49,48,49,33,13,21,2,1,2,125,2,125,2,125,2,125,2,1,2,125,2,125,2,1,2,1,2,1,2,1,2,1,2,1,2,1,2,1,2,1,6,12,13,12,13,12,13,12,13,12,13,12,13,12,13,12,13,12,13,12,13,12,30,48,49,48,49,48,49,48,49,48,49,48,49,48,49,48,49,48,49,66,67,21,2,1,2,1,2,1,2,1,2,1,6,12,103,111,112,113,114,111,117,54,55,56,2,1,2,1,2,1,2,1,2,1,27,28,29,12,13,113,114,113,114,113,114,113,114,113,114,113,114,111,117,12,13,12,13,12,30,33,13,12,13,12,13,12,13,12,13,12,13,12,13,12,13,12,13,12,13,12,13,109,110,52,53,12,13,12,13,21,2,1,2,1,2,1,2,1,2,1,2,1,2,1,2,1,2,1,2,1,2,1,2,1,2,1,2,1,2,1,19,46,47,48,49,48,49,66,67,12,13,113,114,113,114,111,117,12,13,46,47,66,67,21,2,1,2,1,2,1,2,1,2,1,2,1,2,1,2,1,2,1,2,1,2,1,2,1,2,1,2,1,2,1,2,1,2,1,2,
3,4,3,4,3,4,3,4,3,4,3,4,3,4,3,4,3,4,3,4,3,4,3,4,3,4,3,4,3,4,3,4,3,4,3,4,3,4,3,4,3,4,3,4,3,4,3,4,3,4,3,4,24,25,22,23,24,25,24,25,8,9,36,37,61,62,61,62,61,62,61,62,61,62,61,62,61,62,38,39,40,41,16,26,5,3,4,3,4,3,4,3,4,3,4,3,4,3,4,3,4,3,4,3,4,20,55,57,3,4,3,4,3,4,3,4,3,4,3,4,3,4,3,4,3,4,3,4,3,4,3,4,3,4,3,4,3,4,8,9,36,37,61,62,61,62,61,62,61,62,61,62,61,62,61,62,70,71,16,26,24,25,22,23,24,25,8,9,59,60,61,62,61,62,61,62,61,62,61,62,61,62,63,64,63,64,63,64,65,17,55,57,3,4,3,4,3,4,3,4,3,4,3,4,3,4,3,4,3,4,3,4,3,4,3,4,3,4,3,4,5,3,4,3,4,3,4,3,58,57,3,57,3,4,34,28,16,115,63,64,63,64,61,62,61,62,61,62,63,64,61,62,61,62,40,41,16,26,5,3,126,127,126,127,126,127,126,127,3,4,126,127,126,127,3,4,3,4,5,3,4,3,4,3,4,4,22,23,24,25,8,9,16,17,16,17,16,17,16,17,16,17,16,17,16,17,16,17,16,17,16,17,36,37,128,62,61,62,61,62,61,62,61,62,61,62,61,62,61,62,128,62,70,71,16,26,5,3,4,3,4,3,4,4,8,9,105,106,107,106,107,106,107,120,55,57,3,4,3,4,3,4,3,4,3,4,3,4,34,28,16,17,116,106,107,106,107,106,107,106,107,106,107,106,107,120,16,17,16,17,36,37,40,41,16,17,16,17,16,17,16,17,16,17,16,17,16,17,16,17,16,17,16,17,16,115,65,17,16,17,16,17,16,26,5,3,4,3,4,3,4,3,4,3,4,3,4,3,4,3,4,3,4,3,4,3,4,3,4,3,4,3,4,20,59,60,61,62,61,62,70,71,16,17,116,106,107,106,107,120,16,17,59,60,70,71,16,26,5,3,4,3,4,3,4,3,4,3,4,3,4,3,4,3,4,3,4,3,4,3,4,3,4,3,4,3,4,3,4,3,4,3,
1,2,1,2,1,2,1,2,1,2,1,2,1,2,1,2,1,2,1,2,1,2,1,2,1,2,1,2,1,2,1,2,1,2,1,2,1,2,1,2,1,2,1,2,1,2,1,2,1,2,1,6,12,30,31,32,31,32,31,32,31,32,48,49,48,49,48,49,48,49,48,49,48,49,48,49,48,49,48,49,52,53,54,55,56,2,1,2,1,2,1,2,1,2,1,2,1,2,1,2,1,2,1,2,1,27,56,2,1,2,1,2,1,2,1,2,1,2,1,2,1,2,1,2,1,2,1,2,1,2,1,2,1,2,1,2,1,27,28,29,109,110,48,49,48,49,48,49,48,49,48,49,48,49,48,49,48,49,31,32,31,32,31,32,31,32,31,32,48,49,48,49,48,49,48,49,48,49,48,49,52,53,54,55,44,45,42,43,68,69,56,2,1,2,1,2,1,2,1,2,1,2,1,2,1,2,1,2,1,2,1,2,1,2,1,2,1,2,1,6,7,2,1,2,125,2,125,2,1,2,1,2,1,2,1,27,42,43,44,45,28,29,109,110,50,51,52,53,12,13,46,47,48,49,66,67,12,13,14,2,125,2,125,2,125,2,1,2,125,2,1,2,125,2,1,2,1,6,21,2,1,2,1,2,1,6,12,13,12,13,12,13,12,13,12,13,12,13,12,13,12,13,12,13,12,13,12,13,12,13,12,13,46,47,129,130,48,49,48,49,48,49,48,49,48,49,48,49,48,49,129,130,66,67,12,13,21,2,1,2,1,2,1,6,12,13,113,114,113,114,113,114,111,117,14,2,1,2,1,2,1,2,1,2,1,2,1,2,1,11,12,103,113,114,113,114,113,114,113,114,113,114,113,114,111,121,12,13,12,13,46,47,66,67,12,13,12,13,12,13,12,13,12,13,12,13,12,13,12,13,12,13,12,13,12,13,12,13,12,13,12,13,12,13,21,2,1,2,1,2,1,2,1,2,1,2,1,2,1,2,1,2,1,2,1,2,1,2,1,2,1,2,1,11,46,47,48,49,48,49,48,49,33,13,122,114,111,114,111,121,12,30,48,49,48,49,33,13,14,2,1,2,1,2,1,2,1,2,1,2,1,2,1,2,1,2,1,2,1,2,1,2,1,2,1,2,1,2,1,2,1,2,
3,4,3,4,3,4,3,4,3,4,3,4,3,4,3,4,3,4,3,4,3,4,3,4,3,4,3,4,3,4,3,4,3,4,3,4,3,4,3,4,3,4,3,4,3,4,3,4,3,4,8,9,36,37,38,39,38,39,38,39,38,39,61,62,61,62,61,62,61,62,61,62,61,62,61,62,61,62,61,62,65,17,55,57,3,4,3,4,3,4,3,4,3,4,3,4,3,4,3,4,3,4,3,4,3,4,3,4,3,4,3,4,3,4,3,4,3,4,3,4,3,4,3,4,3,4,3,4,3,4,3,4,3,4,3,4,3,4,34,28,16,115,61,62,61,62,61,62,61,62,61,62,61,62,61,62,61,62,38,39,38,39,38,39,38,39,38,39,61,62,61,62,61,62,61,62,61,62,61,62,65,17,55,57,58,57,3,57,3,4,3,4,3,4,3,4,3,4,3,4,3,4,3,4,3,4,3,4,3,4,3,4,3,4,3,4,3,4,8,9,10,3,4,3,126,127,126,127,3,4,3,4,3,4,3,4,3,57,58,57,34,28,16,115,63,64,65,17,16,17,59,60,61,62,70,71,16,17,18,127,126,127,126,127,126,127,3,4,126,127,3,4,126,127,3,4,8,9,16,26,5,3,4,4,8,9,16,17,16,17,16,17,16,17,16,17,17,35,16,17,16,17,16,17,16,17,16,17,16,17,16,17,59,60,128,62,61,62,61,62,61,62,61,62,61,62,61,62,61,62,128,62,70,71,16,17,16,26,22,23,24,25,8,9,16,17,116,106,107,106,107,106,107,120,18,3,4,3,4,3,4,3,4,3,4,3,4,3,4,15,105,106,107,106,107,106,107,106,107,106,107,106,107,106,123,17,16,17,35,17,59,60,70,71,16,17,16,17,16,17,16,17,16,17,16,17,16,17,16,17,16,17,16,17,16,17,16,17,16,17,16,17,16,17,16,26,5,3,4,3,4,3,4,3,4,3,4,3,4,3,4,3,4,3,4,3,4,3,4,3,4,3,4,15,59,60,61,62,61,62,61,62,40,41,16,124,118,119,123,17,36,37,61,62,61,62,40,41,18,3,4,3,4,3,4,3,4,3,4,3,4,3,4,3,4,3,4,3,4,3,4,3,4,3,4,3,4,3,4,3,4,3,
1,2,1,2,1,2,1,2,1,2,1,2,1,2,1,2,1,2,1,2,1,2,1,2,1,2,1,2,1,2,1,2,1,2,1,2,1,2,1,2,1,2,1,2,1,2,1,2,1,27,28,29,109,110,50,51,50,51,50,51,48,49,48,49,48,49,48,49,48,49,48,49,48,49,48,49,48,49,66,67,54,55,56,2,1,2,1,2,1,2,1,2,1,2,1,2,1,2,1,2,1,2,1,2,1,2,1,2,1,2,1,2,1,2,1,2,1,2,1,2,1,2,1,2,1,2,1,2,1,2,1,2,1,2,1,2,1,2,1,27,28,29,46,47,48,49,48,49,48,49,48,49,48,49,48,49,48,49,48,49,48,49,48,49,48,49,48,49,48,49,48,49,48,49,48,49,48,49,66,67,54,55,56,2,1,2,1,2,1,2,1,2,1,2,1,2,1,2,1,2,1,2,1,2,1,2,1,2,1,2,1,2,1,2,1,2,1,19,12,13,14,2,1,2,1,2,1,2,1,2,1,2,1,2,1,2,1,2,1,2,1,19,12,13,12,13,12,13,12,13,109,110,50,51,52,53,12,13,14,2,125,2,125,2,125,2,1,2,125,2,125,2,125,2,125,11,12,13,12,13,21,2,1,6,12,13,12,13,12,13,12,13,12,13,12,13,54,55,44,45,28,29,54,55,44,45,68,69,28,29,12,13,109,110,129,130,50,51,50,51,50,51,50,51,50,51,50,51,50,51,129,130,52,53,12,13,12,13,12,13,12,13,12,13,12,13,122,114,111,114,113,114,111,117,7,2,1,2,1,2,1,2,1,2,1,2,1,2,1,19,113,114,113,114,113,114,113,114,113,114,113,114,111,121,12,13,54,55,28,29,46,47,48,49,33,13,12,13,12,13,12,13,12,13,12,13,12,13,12,13,12,13,12,30,33,13,12,13,12,13,12,13,12,13,12,13,7,2,1,2,1,2,1,2,1,2,1,2,1,2,1,2,1,2,1,2,1,2,1,2,1,2,1,11,109,110,50,51,48,49,48,49,48,49,31,32,33,13,12,13,46,47,48,49,48,49,66,67,7,2,1,2,1,2,1,2,1,2,1,2,1,2,1,2,1,2,1,2,1,2,1,2,1,2,1,2,1,2,1,2,1,2,
3,4,3,4,3,4,3,4,3,4,3,4,3,4,3,4,3,4,3,4,3,4,3,4,3,4,3,4,3,4,3,4,3,4,3,4,3,4,3,4,3,4,3,4,3,4,3,4,3,4,34,28,16,115,63,64,63,64,63,64,61,62,61,62,61,62,61,62,61,62,61,62,61,62,61,62,61,62,70,71,55,57,3,4,3,4,3,4,3,4,3,4,3,4,3,4,3,4,3,4,3,4,3,4,3,4,3,4,3,4,3,4,3,4,3,4,3,4,3,4,3,4,3,4,3,4,3,4,3,4,3,4,3,4,3,4,3,4,3,4,34,28,59,60,61,62,61,62,61,62,61,62,61,62,61,62,61,62,61,62,61,62,61,62,61,62,61,62,61,62,61,62,61,62,61,62,61,62,70,71,55,57,3,4,3,4,3,4,3,4,3,4,3,4,3,4,3,4,3,4,3,4,3,4,3,4,3,4,3,4,3,4,3,4,3,4,3,20,16,17,18,3,4,3,4,3,4,3,4,3,4,3,4,3,4,3,4,3,4,3,4,20,16,17,16,17,16,17,16,17,16,115,63,64,65,17,16,17,18,127,126,127,126,127,126,127,3,4,126,127,126,127,126,127,126,15,16,17,16,17,16,26,8,9,16,17,16,17,16,17,16,17,35,17,16,17,55,57,58,57,34,28,55,57,58,57,3,4,34,28,16,17,16,115,131,64,63,64,63,64,63,64,63,64,63,64,63,64,63,64,131,64,65,17,17,35,16,17,16,17,16,17,16,17,17,35,16,124,118,119,107,106,107,120,10,3,4,3,4,3,4,3,4,3,4,3,4,3,4,20,116,106,107,106,107,106,107,106,107,106,107,106,123,17,16,17,55,57,34,28,59,60,61,62,40,41,16,17,16,17,16,17,16,17,16,17,16,17,16,17,16,17,36,37,40,41,16,17,16,17,16,17,16,17,16,17,10,3,4,3,4,3,4,3,4,3,4,3,4,3,4,3,4,3,4,3,4,3,4,3,4,3,4,15,16,115,63,64,61,62,61,62,61,62,38,39,40,41,16,17,59,60,61,62,61,62,70,71,10,3,4,3,4,3,4,3,4,3,4,3,4,3,4,3,4,3,4,3,4,3,4,3,4,3,4,3,4,3,4,3,4,3,
1,2,1,2,1,2,1,2,1,2,1,2,1,2,1,2,1,2,1,2,1,2,1,2,1,2,1,2,1,2,1,2,1,2,1,2,1,2,1,2,1,2,1,2,1,2,1,2,1,2,1,27,42,43,44,45,68,69,28,29,109,110,50,51,50,51,50,51,50,51,50,51,50,51,50,51,48,49,66,67,21,2,1,2,1,2,1,2,1,2,1,2,1,2,1,2,1,2,1,2,1,2,1,2,1,2,1,2,1,2,1,2,1,2,1,2,1,2,1,2,1,2,1,2,1,2,1,2,1,2,1,2,1,2,1,2,1,2,1,2,1,11,109,110,48,49,48,49,48,49,48,49,48,49,48,49,48,49,48,49,48,49,48,49,48,49,48,49,48,49,48,49,48,49,48,49,48,49,52,53,14,2,1,2,1,2,1,2,1,2,1,2,1,2,1,2,1,2,1,2,1,2,1,2,1,2,1,2,1,2,1,2,1,2,1,2,1,11,12,13,7,2,1,2,1,2,1,2,1,2,1,2,1,2,1,2,1,2,1,2,1,11,12,13,12,132,133,134,133,134,133,134,133,134,135,13,12,13,21,2,1,2,125,2,1,2,1,2,1,2,1,2,1,2,1,6,12,13,12,13,12,13,12,13,12,13,12,13,12,13,54,55,28,29,12,13,21,2,1,2,1,27,56,2,1,2,1,2,1,6,12,13,12,13,12,13,54,55,44,45,68,69,42,43,44,45,68,69,28,29,12,13,12,13,54,55,44,45,28,29,12,13,12,13,54,55,44,45,28,29,122,114,111,121,14,2,1,2,1,2,1,2,1,2,1,2,1,2,1,11,113,114,113,114,113,114,113,114,111,114,111,121,12,13,12,13,14,2,1,11,46,47,48,49,48,49,31,32,33,13,12,13,12,13,12,13,12,13,12,13,12,30,48,49,48,49,31,32,33,13,12,13,12,13,12,13,14,2,1,2,1,2,1,2,1,2,1,2,1,2,1,2,1,2,1,2,1,2,1,2,1,2,1,27,28,29,12,13,109,110,48,49,48,49,48,49,66,67,12,13,46,47,48,49,48,49,66,67,14,2,1,2,1,2,1,2,1,2,1,2,1,2,1,2,1,2,1,2,1,2,1,2,1,2,1,2,1,2,1,2,1,2,
3,4,3,4,3,4,3,4,3,4,3,4,3,4,3,4,3,4,3,4,3,4,3,4,3,4,3,4,3,4,3,4,3,4,3,4,3,4,3,4,3,4,3,4,3,4,3,4,3,4,3,4,3,57,58,57,3,4,34,28,16,115,63,64,63,64,63,64,63,64,63,64,63,64,63,64,61,62,70,71,16,26,22,23,24,25,22,23,5,3,4,3,4,3,4,3,4,3,4,3,4,3,4,3,4,3,4,3,4,3,4,3,4,3,4,3,4,3,4,3,4,3,4,3,4,3,4,3,4,3,4,3,4,3,4,3,4,3,4,3,4,15,16,115,61,62,61,62,61,62,61,62,61,62,61,62,61,62,61,62,61,62,61,62,61,62,61,62,61,62,61,62,61,62,61,62,61,62,65,17,18,3,4,3,4,3,4,3,4,3,4,3,4,3,4,3,4,3,4,3,4,3,4,3,4,3,4,3,4,3,4,3,4,3,4,3,4,15,16,17,10,3,4,3,4,3,4,3,4,3,4,3,4,3,4,3,4,3,4,3,4,15,16,17,132,136,137,137,137,137,137,137,137,137,137,135,16,17,16,26,5,3,126,127,3,4,22,23,24,25,22,23,24,25,8,9,16,17,16,17,16,17,16,17,16,17,16,17,16,17,55,57,34,28,16,17,16,26,5,3,4,3,4,3,4,3,4,4,8,9,16,17,16,17,16,17,55,57,58,57,3,4,3,57,58,57,3,4,34,28,35,17,16,17,55,57,58,57,34,28,35,17,16,17,55,57,58,57,34,28,16,124,123,17,18,3,4,3,4,3,4,3,4,3,4,3,4,3,4,15,116,106,107,106,107,106,107,106,118,119,123,17,16,17,17,35,18,3,4,15,59,60,61,62,61,62,38,39,40,41,16,17,16,17,16,17,16,17,16,17,36,37,61,62,61,62,38,39,40,41,16,17,16,17,16,17,18,3,4,3,4,3,4,3,4,3,4,3,4,3,4,3,4,3,4,3,4,3,4,3,4,3,4,3,34,28,35,17,16,115,61,62,61,62,61,62,70,71,16,17,59,60,61,62,61,62,70,71,18,3,4,3,4,3,4,3,4,3,4,3,4,3,4,3,4,3,4,3,4,3,4,3,4,3,4,3,4,3,4,3,4,3,
1,2,1,2,1,2,1,2,1,2,1,2,1,2,1,2,1,2,1,2,1,2,1,2,1,2,1,2,1,2,1,2,1,2,1,2,1,2,1,2,1,2,1,2,1,2,1,2,1,2,1,2,1,2,1,2,1,2,1,27,42,43,44,45,28,29,12,13,54,55,44,45,42,43,28,29,109,110,52,53,12,30,31,32,31,32,33,13,21,2,1,2,1,2,1,2,1,2,1,2,1,2,1,2,1,2,1,2,1,2,1,2,1,2,1,2,1,2,1,2,1,2,1,2,1,2,1,2,1,2,1,2,1,2,1,2,1,2,1,2,1,27,28,29,109,110,48,49,48,49,48,49,48,49,48,49,48,49,48,49,48,49,48,49,48,49,48,49,48,49,48,49,48,49,48,49,66,67,54,55,1,2,1,2,1,2,1,2,1,2,1,2,1,2,1,2,1,2,1,2,1,2,1,2,1,2,1,2,1,2,1,2,1,2,1,2,1,6,12,13,21,2,1,2,1,2,1,2,1,2,1,2,1,2,1,2,1,2,1,2,1,19,12,13,138,137,137,137,137,137,137,137,137,137,137,137,133,134,135,13,7,2,1,2,1,27,28,29,12,13,12,13,12,13,12,13,12,13,12,13,12,13,12,13,12,13,12,13,54,55,56,2,1,27,28,29,12,13,21,2,1,2,1,2,1,2,1,6,12,13,54,55,44,45,68,69,56,2,1,2,1,2,1,2,1,2,1,2,1,27,42,43,44,45,56,2,1,2,1,27,28,29,12,13,7,2,1,2,1,19,12,13,12,13,7,2,1,2,1,2,1,2,1,2,1,2,1,2,1,19,122,114,111,114,111,114,111,121,12,13,12,13,12,13,54,55,56,2,1,19,46,47,48,49,48,49,48,49,66,67,12,13,12,13,12,13,12,13,12,13,46,47,48,49,48,49,48,49,48,49,33,13,12,13,12,13,7,2,1,2,1,2,1,2,1,2,1,2,1,2,1,2,1,2,1,2,1,2,1,2,1,2,1,2,1,27,42,43,28,29,109,110,48,49,48,49,66,67,12,13,109,110,48,49,48,49,66,67,21,2,1,2,1,2,1,2,1,2,1,2,1,2,1,2,1,2,1,2,1,2,1,2,1,2,1,2,1,2,1,2,1,2,
3,4,3,4,3,4,3,4,3,4,3,4,3,4,3,4,3,4,3,4,3,4,3,4,3,4,3,4,3,4,3,4,3,4,3,4,3,4,3,4,3,4,3,4,3,4,3,4,3,4,3,4,3,4,3,4,3,4,3,4,3,57,58,57,34,28,35,17,55,57,58,57,3,57,34,28,16,115,65,17,36,37,38,39,38,39,40,41,16,26,22,23,24,25,5,3,4,3,4,3,4,3,4,3,4,3,4,3,4,3,4,3,4,3,4,3,4,3,4,3,4,3,4,3,4,3,4,3,4,3,4,3,4,3,4,3,4,3,4,3,4,3,34,28,16,115,61,62,61,62,61,62,61,62,61,62,61,62,61,62,61,62,61,62,61,62,61,62,61,62,61,62,61,62,61,62,70,71,55,57,3,4,3,4,3,4,3,4,3,4,3,4,3,4,3,4,3,4,3,4,3,4,3,4,3,4,3,4,3,4,3,4,3,4,3,4,8,9,16,17,16,26,22,23,24,25,22,23,24,25,22,23,24,25,5,3,4,3,4,3,4,20,16,17,139,137,137,137,137,137,137,137,137,137,137,137,137,137,137,135,10,3,4,3,4,3,34,28,35,17,16,17,16,17,16,17,16,17,16,17,16,17,16,17,16,17,17,35,55,57,3,4,3,4,34,28,35,17,16,26,5,3,4,3,4,4,8,9,17,35,55,57,58,57,3,4,3,4,3,4,3,4,3,4,3,4,3,4,3,4,3,57,58,57,3,4,3,4,3,4,34,28,16,17,10,3,4,3,4,20,16,17,17,35,10,3,4,3,4,3,4,3,4,3,4,3,4,3,4,20,16,124,118,119,118,119,123,17,16,17,16,17,17,35,55,57,3,4,3,20,59,60,61,62,61,62,61,62,70,71,16,17,16,17,16,17,16,17,16,17,59,60,61,62,72,73,74,75,76,62,40,41,16,17,16,17,10,3,4,3,4,3,4,3,4,3,4,3,4,3,4,3,4,3,4,3,4,3,4,3,4,3,4,3,4,3,4,57,34,28,16,115,61,62,61,62,70,71,16,17,16,115,61,62,61,62,70,71,16,26,24,25,5,3,4,3,4,3,4,3,4,3,4,3,4,3,4,3,4,3,4,3,4,3,4,3,4,3,4,3,4,3,
1,2,1,2,1,2,1,2,1,2,1,2,1,2,1,2,1,2,1,2,1,2,1,2,1,2,1,2,1,2,1,2,1,2,1,2,1,2,1,2,1,2,1,2,1,2,1,2,1,2,1,2,1,2,1,2,1,2,1,2,1,2,1,2,1,27,42,43,56,2,1,2,1,2,1,27,68,69,28,29,109,110,50,51,48,49,48,49,33,13,12,103,104,13,21,2,1,2,1,2,1,2,1,2,1,2,1,2,1,2,1,2,1,2,1,2,1,2,1,2,1,2,1,2,1,2,1,2,1,2,1,2,1,2,1,2,1,2,1,2,1,2,1,27,28,29,46,47,48,49,48,49,48,49,48,49,48,49,48,49,48,49,48,49,48,49,48,49,48,49,48,49,48,49,48,49,52,53,14,2,1,2,1,2,1,2,1,2,1,2,1,2,1,2,1,2,1,2,1,2,1,2,1,2,1,2,1,2,1,2,1,2,1,2,1,6,12,13,12,132,133,134,133,134,133,134,133,134,135,13,12,13,12,13,21,2,1,2,1,2,1,6,12,13,138,137,137,137,137,137,137,137,137,137,137,137,137,137,137,140,21,2,1,2,125,2,1,27,28,29,12,13,12,13,12,13,12,13,12,13,12,13,12,13,12,13,54,55,56,2,125,2,125,2,1,27,42,43,68,69,56,2,1,2,1,6,54,55,44,45,56,2,1,2,1,2,1,2,1,2,1,2,1,2,1,2,1,2,1,2,1,2,1,2,1,2,1,2,1,2,1,19,54,55,56,2,1,2,1,6,12,13,54,55,1,2,1,2,1,2,1,2,1,2,1,2,1,2,1,6,12,13,12,13,12,13,12,13,54,55,44,45,68,69,56,2,1,2,1,11,46,47,48,49,48,49,48,49,48,49,31,32,33,13,12,13,12,13,12,13,46,47,77,78,79,80,81,82,83,49,66,67,12,13,12,13,14,2,1,2,1,2,1,2,1,2,1,2,1,2,1,2,1,2,1,2,1,2,1,2,1,2,1,2,1,2,1,2,1,27,28,29,46,47,48,49,66,67,12,13,12,13,46,47,48,49,48,49,33,13,12,13,21,2,1,2,1,2,1,2,1,2,1,2,1,2,1,2,1,2,1,2,1,2,1,2,1,2,1,2,1,2,
3,4,3,4,3,4,3,4,3,4,3,4,3,4,3,4,3,4,3,4,3,4,3,4,3,4,3,4,3,4,3,4,3,4,3,4,3,4,3,4,3,4,3,4,3,4,3,4,3,4,3,4,3,4,3,4,3,4,3,4,3,4,3,4,3,4,3,57,3,4,3,4,3,4,3,4,3,4,34,28,16,115,63,64,61,62,61,62,40,41,105,106,107,108,16,26,5,3,4,3,4,3,4,3,4,3,4,3,4,3,4,3,4,3,4,3,4,3,4,3,4,3,4,3,4,3,4,3,4,3,4,3,4,3,4,3,4,3,4,3,4,3,4,3,34,28,59,60,61,62,61,62,61,62,61,62,61,62,61,62,61,62,61,62,61,62,61,62,61,62,61,62,61,62,61,62,65,17,18,3,4,3,4,3,4,3,4,3,4,3,4,3,4,3,4,3,4,3,4,3,4,3,4,3,4,3,4,3,4,3,4,3,4,4,8,9,16,17,132,136,137,137,137,137,137,137,137,137,137,135,16,17,16,17,16,26,22,23,24,25,8,9,16,17,139,137,137,137,137,137,137,137,137,137,137,137,137,137,137,141,16,26,5,3,126,127,3,4,34,28,35,17,16,17,16,17,16,17,16,17,16,17,16,17,16,17,55,57,3,4,126,127,126,127,3,4,3,57,3,4,3,4,3,4,8,9,55,57,58,57,3,4,3,4,3,4,3,4,3,4,3,4,3,4,3,4,3,4,3,4,3,4,3,4,3,4,3,4,3,4,3,20,55,57,3,4,3,4,8,9,16,17,55,57,3,4,3,4,3,4,3,4,3,4,3,4,3,4,8,9,16,17,16,17,16,17,16,17,55,57,58,57,3,4,3,4,3,4,3,15,59,60,61,62,61,62,61,62,61,62,38,39,40,41,16,17,16,17,16,17,59,60,84,85,86,87,88,89,90,62,70,71,16,17,16,17,18,3,4,3,4,3,4,3,4,3,4,3,4,3,4,3,4,3,4,3,4,3,4,3,4,3,4,3,4,3,4,3,4,3,34,28,59,60,61,62,70,71,16,17,16,17,59,60,61,62,61,62,40,41,16,17,16,26,5,3,4,3,4,3,4,3,4,3,4,3,4,3,4,3,4,3,4,3,4,3,4,3,4,3,4,3,
1,2,1,2,1,2,1,2,1,2,1,2,1,2,1,2,1,2,1,2,1,2,1,2,1,2,1,2,1,2,1,2,1,2,1,2,1,2,1,2,1,2,1,2,1,2,1,2,1,2,1,2,1,2,1,2,1,2,1,2,1,2,1,2,1,2,1,2,1,2,1,2,1,2,1,2,1,2,1,27,42,43,28,29,46,47,48,49,66,67,113,114,113,114,104,13,7,2,1,2,1,2,1,2,1,2,1,2,1,2,1,2,1,2,1,2,1,2,1,2,1,2,1,2,1,2,1,2,1,2,1,2,1,2,1,2,1,2,1,2,1,2,1,2,1,6,46,47,48,49,48,49,48,49,48,49,50,51,142,143,48,49,48,49,48,49,48,49,48,49,48,49,48,49,66,67,54,55,1,2,1,2,1,2,1,2,1,2,1,2,1,2,1,2,1,2,1,2,1,2,1,2,1,2,1,2,1,2,1,2,1,2,1,6,12,13,12,13,138,137,137,137,137,137,137,137,137,137,137,137,133,134,135,13,12,13,12,13,12,13,12,132,133,134,136,137,137,137,137,137,137,137,137,137,137,137,137,137,137,137,135,13,14,2,1,2,1,2,1,27,28,29,12,13,12,13,12,13,12,13,12,30,31,32,33,13,21,2,1,2,1,2,1,2,125,2,1,2,1,2,1,2,125,11,12,13,7,2,1,2,1,2,1,2,1,2,1,2,1,2,1,2,1,2,1,2,1,2,1,2,1,2,1,2,1,2,1,2,1,2,1,27,56,2,1,2,1,6,12,13,12,13,7,2,1,2,1,2,1,2,1,2,1,2,1,2,1,6,12,13,12,13,12,13,54,55,44,45,56,2,1,2,1,2,1,2,1,2,1,19,109,110,48,49,48,49,48,49,48,49,48,49,66,67,12,13,12,13,12,13,46,47,91,92,93,94,95,96,48,49,66,67,12,13,12,13,7,2,1,2,1,2,1,2,1,2,1,2,1,2,1,2,1,2,1,2,1,2,1,2,1,2,1,2,1,2,1,2,1,2,1,6,46,47,48,49,66,67,12,13,12,13,109,110,48,49,48,49,48,49,33,13,12,13,21,2,1,2,1,2,1,2,1,2,1,2,1,2,1,2,1,2,1,2,1,2,1,2,1,2,1,2,
3,4,3,4,3,4,3,4,3,4,3,4,3,4,3,4,3,4,3,4,3,4,3,4,3,4,3,4,3,4,3,4,3,4,3,4,3,4,3,4,3,4,3,4,3,4,3,4,3,4,3,4,3,4,3,4,3,4,3,4,3,4,3,4,3,4,3,4,3,4,3,4,3,4,3,4,3,4,3,4,3,57,34,28,59,60,61,62,70,71,116,106,107,106,107,108,10,3,4,3,4,3,4,3,4,3,4,3,4,3,4,3,4,3,4,3,4,3,4,3,4,3,4,3,4,3,4,3,4,3,4,3,4,3,4,3,4,3,4,3,4,4,22,23,8,9,59,60,61,62,61,62,61,62,61,62,63,64,144,145,61,62,61,62,61,62,61,62,61,62,61,62,61,62,70,71,55,57,3,4,3,4,3,4,3,4,3,4,3,4,3,4,3,4,3,4,3,4,3,4,3,4,3,4,3,4,3,4,3,4,3,4,8,9,16,17,16,17,139,137,137,137,137,137,137,137,137,137,137,137,137,137,137,135,16,17,16,17,16,17,132,136,137,137,137,137,137,137,137,137,137,137,137,137,137,137,137,137,137,137,137,135,18,3,4,3,4,3,4,3,34,28,16,17,16,17,16,17,16,17,36,37,38,39,40,41,16,26,22,23,5,3,4,3,126,127,3,4,3,4,3,4,126,15,17,35,10,3,4,3,4,3,4,3,4,3,4,3,4,3,4,3,4,3,4,3,4,3,4,3,4,3,4,3,4,3,4,3,4,3,4,3,4,3,4,4,8,9,16,17,17,35,10,3,4,3,4,3,4,3,4,3,4,3,4,4,8,9,16,17,16,17,17,35,55,57,58,57,3,4,3,4,3,4,3,4,3,4,3,20,16,115,61,62,61,62,61,62,61,62,61,62,70,71,16,17,16,17,16,17,59,60,61,62,97,98,99,100,61,62,70,71,16,17,16,17,10,3,4,3,4,3,4,3,4,3,4,3,4,3,4,3,4,3,4,3,4,3,4,3,4,3,4,3,4,3,4,3,4,4,8,9,59,60,61,62,70,71,16,17,16,17,16,115,61,62,61,62,61,62,40,41,16,17,16,26,5,3,4,3,4,3,4,3,4,3,4,3,4,3,4,3,4,3,4,3,4,3,4,3,4,3,
1,2,1,2,1,2,1,2,1,2,1,2,1,2,1,2,1,2,1,2,1,2,1,2,1,2,1,2,1,2,1,2,1,2,1,2,1,2,1,2,1,2,1,2,1,2,1,2,1,2,1,2,1,2,1,2,1,2,1,2,1,2,1,2,1,2,1,2,1,2,1,2,1,2,1,2,1,2,1,2,1,2,1,11,46,47,48,49,66,67,122,114,111,114,111,121,21,2,1,2,1,2,1,2,1,2,1,2,1,2,1,2,1,2,1,2,1,2,1,2,1,2,1,2,1,2,1,2,1,2,1,2,1,2,1,2,1,2,1,2,1,6,12,30,31,32,48,49,48,49,48,49,48,49,52,53,12,103,104,13,109,110,50,51,48,49,48,49,48,49,48,49,48,49,52,53,7,2,1,2,1,2,1,2,1,2,1,2,1,2,1,2,1,2,1,2,1,2,1,2,1,2,1,2,1,2,1,2,1,2,1,6,12,13,12,13,12,13,146,147,137,137,137,137,137,137,137,137,137,137,137,137,137,137,133,134,133,134,133,134,136,137,137,137,137,137,137,137,137,137,137,137,137,137,137,137,137,137,137,137,137,140,21,2,1,2,1,2,1,2,1,19,12,13,12,13,12,13,12,13,46,47,48,49,48,49,31,32,33,13,21,2,1,2,125,2,125,2,1,2,125,2,125,11,54,55,56,2,1,2,1,2,1,2,1,2,1,2,1,2,1,2,1,2,1,2,1,2,1,2,1,2,1,2,1,2,1,2,1,2,1,2,1,2,1,6,12,13,12,13,54,55,56,2,1,2,1,2,1,2,1,2,1,2,1,27,42,43,44,45,28,29,54,55,56,2,1,2,1,2,1,2,1,2,1,2,1,2,1,27,28,29,109,110,48,49,48,49,48,49,48,49,48,49,33,13,12,13,12,13,46,47,48,49,91,92,101,102,48,49,66,67,12,13,12,13,14,2,1,2,1,2,1,2,1,2,1,2,1,2,1,2,1,2,1,2,1,2,1,2,1,2,1,2,1,2,1,2,1,19,12,30,48,49,48,49,52,53,12,13,12,13,12,13,109,110,50,51,50,51,52,53,12,13,12,13,14,2,1,2,1,2,1,2,1,2,1,2,1,2,1,2,1,2,1,2,1,2,1,2,1,2,
3,4,3,4,3,4,3,4,3,4,3,4,3,4,3,4,3,4,3,4,3,4,3,4,3,4,3,4,3,4,3,4,3,4,3,4,3,4,3,4,3,4,3,4,3,4,3,4,3,4,3,4,3,4,3,4,3,4,3,4,3,4,3,4,3,4,3,4,3,4,3,4,3,4,3,4,3,4,3,4,3,4,3,15,59,60,61,62,70,71,16,124,118,119,123,17,16,26,5,3,4,3,4,3,4,3,4,3,4,3,4,3,4,3,4,3,4,3,4,3,4,3,4,3,4,3,4,3,4,3,4,3,4,3,4,3,4,3,4,4,8,9,36,37,38,39,61,62,61,62,61,62,61,62,65,17,105,106,107,108,16,115,63,64,61,62,61,62,61,62,61,62,61,62,65,17,10,3,4,3,4,3,4,3,4,3,4,3,4,3,4,3,4,3,4,3,4,3,4,3,4,3,4,3,4,3,4,3,4,4,8,9,35,17,16,17,35,17,16,146,147,137,137,137,137,137,137,137,137,137,137,137,137,137,137,137,137,137,137,137,137,137,137,137,137,137,137,137,137,137,137,137,137,137,137,137,137,137,137,137,137,141,16,26,22,23,5,3,4,3,4,20,16,17,16,17,16,17,16,17,59,60,61,62,61,62,38,39,40,41,16,26,5,3,126,127,126,127,3,4,126,127,126,15,55,57,3,4,3,4,3,4,3,4,3,4,3,4,3,4,3,4,3,4,3,4,3,4,3,4,3,4,3,4,3,4,3,4,3,4,3,4,3,4,8,9,16,17,16,17,55,57,3,4,3,4,3,4,3,4,3,4,3,4,3,4,3,57,58,57,34,28,55,57,3,4,3,4,3,4,3,4,3,4,3,4,3,4,3,4,34,28,16,115,61,62,61,62,61,62,61,62,61,62,40,41,16,17,16,17,59,60,61,62,61,62,61,62,61,62,70,71,16,17,16,17,18,3,4,3,4,4,22,23,24,25,22,23,24,25,22,23,24,25,22,23,24,25,24,25,5,3,4,3,4,3,4,3,4,20,36,37,61,62,61,62,65,17,16,17,16,17,16,17,16,115,63,64,63,64,65,17,16,17,16,17,18,3,4,3,4,3,4,3,4,3,4,3,4,3,4,3,4,3,4,3,4,3,4,3,4,3,
1,2,1,2,1,2,1,2,1,2,1,2,1,2,1,2,1,2,1,2,1,2,1,2,1,2,1,2,1,2,1,2,1,2,1,2,1,2,1,2,1,2,1,2,1,2,1,2,1,2,1,2,1,2,1,2,1,2,1,2,1,2,1,2,1,2,1,2,1,2,1,2,1,2,1,2,1,2,1,2,1,2,1,19,46,47,48,49,66,67,12,103,111,112,111,112,104,13,21,2,1,2,1,2,1,2,1,2,1,2,1,2,1,2,1,2,1,2,1,2,1,2,1,2,1,2,1,2,1,2,1,2,1,2,1,2,1,2,1,6,12,30,48,49,48,49,50,51,50,51,50,51,52,53,12,103,113,114,113,114,111,112,104,13,109,110,48,49,48,49,48,49,66,67,54,55,1,2,1,2,1,2,1,2,1,2,1,2,1,2,1,2,1,2,1,2,1,2,1,2,1,2,1,2,1,2,1,2,1,27,42,43,44,45,68,69,42,43,28,29,146,147,137,137,137,137,137,137,137,137,137,137,137,137,137,137,137,137,137,137,137,137,137,137,137,137,137,137,137,137,137,137,137,137,137,137,137,137,137,137,137,140,12,13,12,13,21,2,1,2,1,11,12,13,12,13,12,13,12,30,48,49,48,49,48,49,48,49,48,49,33,13,14,2,125,2,125,2,125,2,125,2,1,27,56,2,1,2,1,2,1,2,1,2,1,2,1,2,1,2,1,2,1,2,1,2,1,2,1,2,1,2,1,2,1,2,1,2,1,2,1,2,1,27,42,43,28,29,54,55,56,2,1,2,1,2,1,2,1,2,1,2,1,2,1,2,1,2,1,2,1,27,56,2,1,2,1,2,1,2,1,2,1,2,1,2,1,2,1,2,1,27,28,29,109,110,50,51,50,51,48,49,48,49,66,67,12,13,12,13,109,110,48,49,48,49,48,49,48,49,66,67,12,13,12,13,14,2,1,2,1,6,12,13,12,13,12,13,12,13,12,13,12,13,12,13,12,13,12,13,21,2,1,2,1,2,1,2,1,11,46,47,48,49,52,53,12,13,12,13,12,13,12,13,12,13,54,55,28,29,12,13,12,13,12,13,21,2,1,2,1,2,1,2,1,2,1,2,1,2,1,2,1,2,1,2,1,2,1,2,1,2,
3,4,3,4,3,4,3,4,3,4,3,4,3,4,3,4,3,4,3,4,3,4,3,4,3,4,3,4,3,4,3,4,3,4,3,4,3,4,3,4,3,4,3,4,3,4,3,4,3,4,3,4,3,4,3,4,3,4,3,4,3,4,3,4,3,4,3,4,3,4,3,4,3,4,3,4,3,4,3,4,3,4,3,20,59,60,61,62,70,71,105,106,107,106,107,106,107,108,16,26,5,3,4,3,4,4,24,25,24,25,22,23,5,3,4,3,4,3,4,3,4,3,4,3,4,3,4,3,4,3,4,3,4,4,22,23,24,25,8,9,36,37,61,62,61,62,63,64,63,64,63,64,65,17,105,106,107,106,107,106,107,106,107,108,16,115,61,62,61,62,61,62,70,71,55,57,3,4,3,4,3,4,3,4,3,4,3,4,3,4,3,4,3,4,3,4,3,4,3,4,3,4,3,4,3,4,3,4,3,4,3,57,58,57,3,4,3,57,34,28,16,146,148,149,148,149,148,149,147,137,137,137,137,137,137,137,137,137,137,137,137,137,137,137,137,137,137,137,137,137,137,137,137,137,137,137,137,137,137,137,137,141,16,17,16,17,16,26,5,3,4,15,35,17,16,17,16,17,36,37,61,62,61,62,61,62,61,62,61,62,40,41,18,127,126,127,126,127,126,127,126,127,3,4,3,4,3,4,3,4,3,4,3,4,3,4,3,4,3,4,3,4,3,4,3,4,3,4,3,4,3,4,3,4,3,4,3,4,3,4,3,4,3,4,3,57,34,28,55,57,3,4,3,4,3,4,3,4,3,4,3,4,3,4,3,4,3,4,3,4,3,4,3,4,3,4,22,23,24,25,22,23,24,25,22,23,24,25,5,3,4,3,34,28,16,115,63,64,63,64,61,62,61,62,70,71,16,17,16,17,16,115,61,62,61,62,61,62,61,62,70,71,16,17,16,17,18,3,4,4,8,9,16,17,16,17,16,17,16,17,16,17,16,17,16,17,16,17,16,17,16,26,5,3,4,3,4,3,4,15,59,60,61,62,65,17,16,17,16,17,16,17,17,35,16,17,55,57,34,28,35,17,16,17,16,17,16,26,5,3,4,3,4,3,4,3,4,3,4,3,4,3,4,3,4,3,4,3,4,3,4,3,
1,2,1,2,1,2,1,2,1,2,1,2,1,2,1,2,1,2,1,2,1,2,1,2,1,2,1,2,1,2,1,2,1,2,1,2,1,2,1,2,1,2,1,2,1,2,1,2,1,2,1,2,1,2,1,2,1,2,1,2,1,2,1,2,1,2,1,2,1,2,1,2,1,2,1,2,1,2,1,2,1,2,1,11,109,110,48,49,66,67,113,114,113,114,113,114,113,114,104,13,14,2,1,2,1,19,12,103,111,112,104,13,7,2,1,2,1,2,1,2,1,2,1,2,1,2,1,2,1,2,1,2,1,6,12,30,31,32,31,32,48,49,48,49,52,53,12,103,111,112,111,112,111,112,113,114,113,114,113,114,113,114,111,121,12,30,48,49,48,49,48,49,52,53,7,2,1,2,1,2,1,2,1,2,1,2,1,2,1,2,1,2,1,2,1,2,1,2,1,2,1,2,1,2,1,2,1,2,1,2,1,2,1,2,125,2,1,2,1,27,42,43,44,45,68,69,28,29,146,147,137,137,137,137,137,137,137,137,137,137,137,137,137,137,137,137,137,137,137,137,137,137,137,137,137,137,137,137,137,137,137,137,133,134,133,134,135,13,7,2,1,27,28,29,12,13,12,13,109,110,50,51,142,143,50,51,50,51,48,49,66,67,14,2,125,2,1,2,1,2,1,2,1,2,1,2,1,2,1,2,1,2,1,2,1,2,1,2,1,2,1,2,1,2,1,2,1,2,1,2,1,2,1,2,1,2,1,2,1,2,1,2,1,2,1,2,1,27,56,2,1,2,1,2,1,2,1,2,1,2,1,2,1,2,1,2,1,2,1,2,1,2,1,2,1,27,28,29,12,13,12,13,12,13,12,13,12,13,21,2,1,2,1,27,42,43,44,45,28,29,109,110,48,49,48,49,33,13,12,13,12,13,109,110,50,51,48,49,48,49,52,53,12,13,12,13,21,2,1,6,12,132,135,13,55,150,151,150,151,150,151,150,151,150,151,28,12,132,135,13,12,13,152,153,1,2,1,2,1,6,46,47,66,67,12,13,12,13,12,13,12,13,54,55,44,45,56,2,1,27,42,43,28,29,12,13,12,13,7,2,1,2,1,2,1,2,1,2,1,2,1,2,1,2,1,2,1,2,1,2,1,2,
3,4,3,4,3,4,3,4,3,4,3,4,3,4,3,4,3,4,3,4,3,4,3,4,3,4,3,4,3,4,3,4,3,4,3,4,3,4,3,4,3,4,3,4,3,4,3,4,3,4,3,4,3,4,3,4,3,4,3,4,3,4,3,4,3,4,3,4,3,4,3,4,3,4,3,4,3,4,3,4,3,4,3,15,16,115,61,62,70,71,116,106,107,106,107,106,107,106,107,108,18,3,4,3,4,20,105,106,107,106,107,108,10,3,4,3,4,3,4,3,4,3,4,3,4,4,24,25,22,23,24,25,8,9,36,37,38,39,38,39,61,62,61,62,65,17,105,106,107,106,107,106,107,106,107,106,107,106,107,106,107,106,123,17,36,37,61,62,61,62,61,62,65,17,10,3,4,3,4,3,4,3,4,3,4,3,4,3,4,3,4,3,4,3,4,3,4,3,4,3,4,3,4,3,4,3,4,3,4,3,4,3,4,3,126,127,3,4,3,4,3,57,58,57,3,4,34,28,16,146,147,137,137,137,137,137,137,137,137,137,137,137,137,137,137,154,148,149,148,149,147,137,137,137,137,137,137,137,137,137,137,137,137,137,137,137,137,135,10,3,4,3,34,28,16,17,16,17,16,115,63,64,144,145,63,64,63,64,61,62,70,71,18,3,126,127,3,4,3,4,3,4,3,4,3,4,3,4,3,4,3,4,3,4,3,4,3,4,3,4,3,4,3,4,3,4,3,4,3,4,3,4,3,4,3,4,3,4,3,4,3,4,3,4,3,4,3,4,3,4,3,4,3,4,3,4,3,4,3,4,3,4,3,4,3,4,3,4,3,4,3,4,3,4,3,4,34,28,35,17,16,17,16,17,16,17,16,17,16,26,5,3,4,3,4,57,58,57,34,28,16,115,61,62,61,62,40,41,16,17,16,17,16,115,63,64,61,62,61,62,65,17,16,17,16,17,16,26,8,9,132,136,137,135,155,156,157,158,157,158,157,158,157,158,159,160,132,136,137,135,16,17,161,162,3,4,3,4,8,9,59,60,70,71,16,17,16,17,16,17,16,17,55,57,58,57,3,4,3,4,3,57,34,28,16,17,16,17,10,3,4,3,4,3,4,3,4,3,4,3,4,3,4,3,4,3,4,3,4,3,4,3,
1,2,1,2,1,2,1,2,1,2,1,2,1,2,1,2,1,2,1,2,1,2,1,2,1,2,1,2,1,2,1,2,1,2,1,2,1,2,1,2,1,2,1,2,1,2,1,2,1,2,1,2,1,2,1,2,1,2,1,2,1,2,1,2,1,2,1,2,1,2,1,2,1,2,1,2,1,2,1,2,1,2,1,27,28,29,109,110,52,53,122,114,113,114,113,114,113,114,111,117,21,2,1,2,1,6,113,114,113,114,111,121,14,2,1,2,1,2,1,2,1,2,1,2,1,6,12,30,31,32,31,32,31,32,48,49,48,49,48,49,48,49,52,53,12,103,113,114,113,114,113,114,113,114,113,114,113,114,113,114,111,117,12,30,48,49,48,49,48,49,66,67,54,55,56,2,1,2,1,2,1,2,1,2,1,2,1,2,1,2,1,2,1,2,1,2,1,2,1,2,1,2,1,2,1,2,1,2,1,2,1,2,125,2,1,2,1,2,1,2,1,2,1,2,1,2,1,27,28,29,138,137,137,137,137,137,137,137,137,137,137,137,137,137,137,140,163,164,165,166,138,137,137,137,137,137,137,137,137,137,137,137,137,137,137,137,137,140,14,2,1,2,1,27,28,29,12,132,133,134,133,134,133,134,133,134,135,13,46,47,66,67,21,2,1,2,1,2,1,2,1,2,1,2,1,2,1,2,1,2,1,2,1,2,1,2,1,2,1,2,1,2,1,2,1,2,1,2,1,2,1,2,1,2,1,2,1,2,1,2,1,2,1,2,1,2,1,2,1,2,1,2,1,2,1,2,1,2,1,2,1,2,1,2,1,2,1,2,1,2,1,2,1,2,1,2,1,27,42,43,44,45,28,29,12,13,12,13,12,13,14,2,1,2,1,2,1,2,1,6,12,30,48,49,48,49,48,49,33,13,12,13,12,13,12,13,109,110,52,53,12,13,12,103,111,112,104,13,12,13,138,137,137,140,167,168,12,13,163,164,165,166,12,13,167,168,138,137,137,140,12,13,14,2,1,2,1,11,12,30,48,49,48,49,33,13,12,13,12,13,12,13,14,2,1,2,1,2,1,2,1,2,1,19,12,13,12,13,14,2,1,2,1,2,1,2,1,2,1,2,1,2,1,2,1,2,1,2,1,2,1,2,
3,4,3,4,3,4,3,4,3,4,3,4,3,4,3,4,3,4,3,4,3,4,3,4,3,4,3,4,3,4,3,4,3,4,3,4,3,4,3,4,3,4,3,4,3,4,3,4,3,4,3,4,3,4,3,4,3,4,3,4,3,4,3,4,3,4,3,4,3,4,3,4,3,4,3,4,3,4,3,4,3,4,3,4,34,28,16,115,65,17,16,124,107,106,107,106,107,106,107,120,16,26,24,25,8,9,116,106,107,106,123,17,18,3,4,3,4,3,4,3,4,3,4,4,8,9,36,37,38,39,38,39,38,39,61,62,61,62,61,62,61,62,65,17,105,106,107,106,107,106,107,106,107,106,107,106,107,106,107,106,107,120,36,37,61,62,61,62,61,62,70,71,55,57,3,4,3,4,3,4,3,4,3,4,3,4,3,4,3,4,3,4,3,4,3,4,3,4,3,4,3,4,3,4,3,4,3,4,3,4,3,4,126,127,3,4,3,4,3,4,3,4,3,4,3,4,3,4,34,28,139,137,137,137,137,137,137,137,137,137,137,137,137,137,137,141,169,170,171,172,139,137,137,137,137,137,137,137,137,137,137,137,137,137,137,137,137,141,18,3,4,3,4,3,34,28,132,136,137,137,137,137,137,137,137,137,137,135,59,60,70,71,16,26,5,3,4,3,4,3,4,3,4,3,4,3,4,3,4,3,4,3,4,3,4,3,4,3,4,3,4,3,4,3,4,3,4,3,4,3,4,3,4,3,4,3,4,3,4,3,4,3,4,3,4,3,4,3,4,3,4,3,4,3,4,3,4,3,4,3,4,3,4,3,4,3,4,3,4,3,4,3,4,3,4,3,4,3,4,57,58,57,34,28,35,17,16,17,16,17,18,3,4,3,4,3,4,4,8,9,36,37,61,62,61,62,61,62,40,41,16,17,16,17,16,17,16,115,65,17,16,17,105,106,107,106,107,108,16,17,139,137,137,141,155,160,16,17,169,170,171,172,16,17,155,160,139,137,137,141,16,17,18,3,4,3,4,15,36,37,61,62,61,62,40,41,16,17,16,17,16,17,18,3,4,3,4,3,4,3,4,3,4,20,16,17,17,35,18,3,4,3,4,3,4,3,4,3,4,3,4,3,4,3,4,3,4,3,4,3,4,3,
1,2,1,2,1,2,1,2,1,2,1,2,1,2,1,2,1,2,1,2,1,2,1,2,1,2,1,2,1,2,1,2,1,2,1,2,1,2,1,2,1,2,1,2,1,2,1,2,1,2,1,2,1,2,1,2,1,2,1,2,1,2,1,2,1,2,1,2,1,2,1,2,1,2,1,2,1,2,1,2,1,2,1,2,1,27,42,43,44,45,28,29,113,114,113,114,113,114,113,114,111,112,111,112,111,112,113,114,111,121,54,55,56,2,1,2,1,2,1,2,1,2,1,11,12,30,48,49,48,49,48,49,50,51,50,51,50,51,50,51,52,53,12,103,113,114,113,114,113,114,113,114,113,114,113,114,113,114,113,114,111,121,46,47,48,49,48,49,48,49,52,53,7,2,1,2,1,2,1,2,1,2,1,2,1,2,1,2,1,2,1,2,1,2,1,2,1,2,1,2,1,2,1,2,1,2,1,2,1,2,1,2,1,2,125,2,1,2,1,2,1,2,1,2,1,2,125,2,1,11,146,147,137,137,137,137,137,137,137,137,137,137,137,137,137,140,173,174,175,176,138,137,137,137,137,137,137,137,137,137,137,137,137,137,137,137,137,140,7,2,1,2,1,2,1,19,146,147,137,137,137,137,137,137,137,137,137,140,109,110,48,49,33,13,21,2,1,2,1,2,1,2,1,2,1,2,1,2,1,2,1,2,1,2,1,2,1,2,1,2,1,2,1,2,1,2,1,2,1,2,1,2,1,2,1,2,1,2,1,2,1,2,1,2,1,2,1,2,1,2,1,2,1,2,1,2,1,2,1,2,1,2,1,2,1,2,1,2,1,2,1,2,1,2,1,2,1,2,1,2,1,2,1,27,28,29,12,13,12,13,21,2,1,2,1,2,1,6,12,30,48,49,48,49,48,49,48,49,48,49,31,32,33,13,12,13,12,13,12,13,12,103,113,114,113,114,113,114,104,13,138,137,137,140,152,153,12,13,173,174,175,176,12,13,152,153,138,137,137,140,12,13,21,2,1,2,1,6,109,110,48,49,48,49,48,49,33,13,12,13,12,13,21,2,1,2,1,2,1,2,1,2,1,6,12,13,54,55,56,2,1,2,1,2,1,2,1,2,1,2,1,2,1,2,1,2,1,2,1,2,1,2,
3,4,3,4,3,4,3,4,3,4,3,4,3,4,3,4,3,4,3,4,3,4,3,4,3,4,3,4,3,4,3,4,3,4,3,4,3,4,3,4,3,4,3,4,3,4,3,4,3,4,3,4,3,4,3,4,3,4,3,4,3,4,3,4,3,4,3,4,3,4,3,4,3,4,3,4,3,4,3,4,3,4,3,4,3,4,3,57,58,57,34,28,116,106,107,106,107,106,107,106,107,106,107,106,107,106,107,106,123,17,55,57,3,4,3,4,3,4,3,4,3,4,3,15,36,37,61,62,61,62,61,62,63,64,63,64,63,64,63,64,65,17,105,106,107,106,107,106,107,106,107,106,107,106,107,106,107,106,107,106,123,17,59,60,61,62,61,62,61,62,65,17,10,3,4,3,4,3,4,3,4,3,4,3,4,3,4,3,4,3,4,3,4,3,4,3,4,3,4,3,4,3,4,3,4,3,4,3,4,3,4,3,4,3,126,127,3,4,3,4,3,4,3,4,3,4,126,127,3,15,16,146,147,137,137,137,137,137,137,137,137,137,137,137,137,141,177,178,179,180,139,137,137,137,137,137,137,137,137,137,137,137,137,137,137,137,137,141,10,3,4,3,4,3,4,20,16,146,147,137,137,137,137,137,137,137,137,141,16,115,61,62,40,41,16,26,5,3,4,3,4,3,4,3,4,3,4,3,4,3,4,3,4,3,4,3,4,3,4,3,4,3,4,3,4,3,4,3,4,3,4,3,4,3,4,3,4,3,4,3,4,3,4,3,4,3,4,3,4,3,4,3,4,3,4,3,4,3,4,3,4,3,4,3,4,3,4,3,4,3,4,3,4,3,4,3,4,3,4,3,4,3,4,3,34,28,16,17,16,17,16,26,5,3,4,4,8,9,36,37,61,62,61,62,61,62,61,62,61,62,38,39,40,41,16,17,16,17,16,17,105,106,107,106,107,106,107,106,107,108,139,137,137,141,161,162,16,17,177,178,179,180,16,17,161,162,139,137,137,141,16,17,16,26,24,25,8,9,16,115,61,62,61,62,61,62,40,41,16,17,16,17,16,26,5,3,4,3,4,3,4,4,8,9,16,17,55,57,3,4,3,4,3,4,3,4,3,4,3,4,3,4,3,4,3,4,3,4,3,4,3,4,
1,2,1,2,1,2,1,2,1,2,1,2,1,2,1,2,1,2,1,2,1,2,1,2,1,2,1,2,1,2,1,2,1,2,1,2,1,2,1,2,1,2,1,2,1,2,1,2,1,2,1,2,1,2,1,2,1,2,1,2,1,2,1,2,1,2,1,2,1,2,1,2,1,2,1,2,1,2,1,2,1,2,1,2,1,2,1,2,1,2,1,6,113,114,113,114,113,114,113,114,113,114,113,114,111,114,111,121,54,55,56,2,1,2,1,2,1,2,1,2,1,2,1,19,46,47,48,49,48,49,52,53,12,103,111,112,111,112,111,112,111,112,113,114,113,114,113,114,113,114,111,114,111,114,111,114,111,114,111,121,12,30,48,49,48,49,48,49,52,53,54,55,56,2,1,2,1,2,1,2,1,2,1,2,1,2,1,2,1,2,1,2,1,2,1,2,1,2,1,2,1,2,1,2,1,2,1,2,1,2,1,2,1,2,1,2,1,2,1,2,1,2,1,2,125,2,125,2,125,11,12,13,138,137,137,137,137,137,137,137,137,137,137,137,137,137,133,134,133,134,136,137,137,137,137,137,137,137,137,137,137,137,137,137,137,137,137,140,14,2,125,2,125,2,1,27,28,29,146,147,137,137,137,137,137,137,137,137,135,13,46,47,48,49,33,13,21,2,1,2,1,2,1,2,1,2,1,2,1,2,1,2,1,2,1,2,1,2,1,2,1,2,1,2,1,2,1,2,1,2,1,2,1,2,1,2,1,2,1,2,1,2,1,2,1,2,1,2,1,2,1,2,1,2,1,2,1,2,1,2,1,2,1,2,1,2,1,2,1,2,1,2,1,2,1,2,1,2,1,2,1,2,1,2,1,6,12,13,12,13,12,13,7,2,1,11,12,13,46,47,48,49,48,49,48,49,48,49,48,49,48,49,48,49,33,13,12,13,12,103,113,114,113,114,113,114,113,114,111,117,138,137,137,140,167,168,12,13,12,13,12,13,12,13,167,168,138,137,137,140,12,13,12,13,12,13,12,13,12,13,109,110,50,51,50,51,52,53,12,13,12,13,12,13,21,2,1,2,1,2,1,6,12,13,54,55,56,2,1,2,1,2,1,2,1,2,1,2,1,2,1,2,1,2,1,2,1,2,1,2,1,2,
3,4,3,4,3,4,3,4,3,4,3,4,3,4,3,4,3,4,3,4,3,4,3,4,3,4,3,4,3,4,3,4,3,4,3,4,3,4,3,4,3,4,3,4,3,4,3,4,3,4,3,4,3,4,3,4,3,4,3,4,3,4,3,4,3,4,3,4,3,4,3,4,3,4,3,4,3,4,3,4,3,4,3,4,3,4,3,4,3,4,8,9,116,106,107,106,107,106,107,106,107,106,107,106,118,119,123,17,55,57,3,4,3,4,3,4,5,3,4,3,4,3,4,20,59,60,61,62,61,62,65,17,105,106,107,106,107,106,107,106,107,106,107,106,107,106,107,106,107,106,118,119,118,119,118,119,118,119,123,17,36,37,61,62,61,62,61,62,65,17,55,57,3,4,3,4,3,4,3,4,3,4,3,4,3,4,3,4,3,4,3,4,3,4,3,4,3,4,3,4,3,4,3,4,3,4,3,4,3,4,22,23,24,25,22,23,24,25,5,3,4,3,4,3,126,127,126,127,126,15,35,17,139,137,137,137,137,137,137,137,137,137,137,137,137,137,137,137,137,137,137,137,137,137,137,137,137,137,137,137,137,137,137,137,137,137,137,141,18,3,126,127,126,127,3,4,34,28,16,146,148,149,147,137,137,137,137,137,137,135,59,60,61,62,40,41,16,26,5,3,4,3,4,3,4,3,4,3,4,3,4,3,4,3,4,3,4,3,4,3,4,3,4,3,4,3,4,3,4,3,4,3,4,3,4,3,4,3,4,3,4,3,4,3,4,3,4,3,4,3,4,3,4,3,4,3,4,3,4,3,4,3,4,3,4,3,4,3,4,3,4,3,4,3,4,3,4,3,4,3,4,3,4,4,8,9,16,17,16,17,16,17,10,3,4,15,16,17,59,60,61,62,61,62,61,62,61,62,61,62,61,62,61,62,40,41,16,17,105,106,107,106,107,106,107,106,107,106,107,120,139,137,137,141,155,160,16,17,16,17,16,17,16,17,155,160,139,137,137,141,16,17,16,17,16,17,16,17,16,17,16,115,63,64,63,64,65,17,16,17,16,17,16,17,16,26,5,3,4,4,8,9,17,35,55,57,3,4,3,4,3,4,3,4,3,4,3,4,3,4,3,4,3,4,3,4,3,4,3,4,3,4,
1,2,1,2,1,2,1,2,1,2,1,2,1,2,1,2,1,2,1,2,1,2,1,2,1,2,1,2,1,2,1,2,1,2,1,2,1,2,1,2,1,2,1,2,1,2,1,2,1,2,1,2,1,2,1,2,1,2,1,2,1,2,1,2,1,2,1,2,1,2,1,2,1,2,1,2,1,2,1,2,1,2,1,2,1,2,1,2,1,19,12,103,113,114,113,114,113,114,113,114,113,114,111,117,54,55,44,45,56,2,1,2,1,2,1,6,21,2,1,2,1,2,1,11,109,110,50,51,52,53,12,103,113,114,113,114,113,114,113,114,113,114,113,114,113,114,113,114,111,121,12,30,31,32,31,32,31,32,33,13,46,47,48,49,48,49,66,67,54,55,56,2,1,2,1,2,1,2,1,2,1,2,1,2,1,2,1,2,1,2,1,2,1,2,1,2,1,2,1,2,1,2,1,2,1,2,1,2,1,27,28,29,12,13,12,13,12,13,21,2,1,2,1,2,1,2,1,2,1,27,28,29,138,137,137,137,137,137,137,137,137,137,137,137,137,137,137,137,137,137,137,137,137,137,137,137,137,137,137,137,137,137,137,137,137,137,137,140,14,2,1,2,1,2,1,2,1,27,42,43,28,29,138,137,137,137,137,137,137,140,109,110,48,49,48,49,33,13,21,2,1,2,1,2,1,2,1,2,1,2,1,2,1,2,1,2,1,2,1,2,1,2,1,2,1,2,1,2,1,2,1,2,1,2,1,2,1,2,1,2,1,2,1,2,1,2,1,2,1,2,1,2,1,2,1,2,1,2,1,2,1,2,1,2,1,2,1,2,1,2,1,2,1,2,1,2,1,2,1,2,1,2,1,6,12,13,12,13,12,13,12,13,14,2,1,19,12,13,46,47,48,49,48,49,48,49,48,49,48,49,48,49,48,49,66,67,12,13,122,114,113,114,113,114,113,114,113,114,111,117,138,137,137,140,167,159,151,28,12,13,12,13,55,150,181,168,138,137,137,140,12,13,12,13,12,13,12,13,12,103,104,13,12,13,12,13,12,13,12,13,12,13,12,13,54,55,56,2,1,27,42,43,68,69,56,2,1,2,1,2,1,2,1,2,1,2,1,2,1,2,1,2,1,2,1,2,1,2,1,2,1,2,
3,4,3,4,3,4,3,4,3,4,3,4,3,4,3,4,3,4,3,4,3,4,3,4,3,4,3,4,3,4,3,4,3,4,3,4,3,4,3,4,3,4,3,4,3,4,3,4,3,4,3,4,3,4,3,4,3,4,3,4,3,4,3,4,3,4,3,4,3,4,3,4,3,4,3,4,3,4,3,4,3,4,3,4,3,4,3,4,3,20,105,106,107,106,107,106,107,106,107,106,107,106,107,120,55,57,58,57,3,4,3,4,3,4,8,9,16,26,5,3,4,3,4,15,16,115,63,64,65,17,105,106,107,106,107,106,107,106,107,106,107,106,107,106,107,106,107,106,123,17,36,37,38,39,38,39,38,39,40,41,59,60,61,62,61,62,70,71,55,57,3,4,3,4,3,4,3,4,3,4,3,4,3,4,3,4,3,4,3,4,3,4,3,4,3,4,3,4,3,4,3,4,3,4,3,4,3,4,3,4,34,28,35,17,16,17,16,17,16,26,22,23,24,25,5,3,4,3,4,3,34,28,139,137,137,137,137,137,137,137,137,137,137,137,137,137,137,137,137,137,137,137,137,137,137,137,137,137,137,137,137,137,137,137,137,137,137,141,18,3,4,3,4,3,4,3,4,3,4,57,34,28,139,137,137,137,137,137,137,141,16,115,61,62,61,62,40,41,16,26,5,3,4,3,4,3,4,3,4,3,4,3,4,3,4,3,4,3,4,3,4,3,4,3,4,3,4,3,4,3,4,3,4,3,4,3,4,3,4,3,4,3,4,3,4,3,4,3,4,3,4,3,4,3,4,3,4,3,4,3,4,3,4,3,4,3,4,3,4,3,4,3,4,3,4,3,4,3,4,4,24,25,8,9,16,17,16,17,16,17,16,17,18,3,4,20,16,17,59,60,61,62,61,62,61,62,61,62,61,62,61,62,61,62,70,71,16,17,16,124,107,106,107,106,107,106,107,106,107,120,139,137,137,141,21,158,157,6,16,17,16,17,21,158,157,6,139,137,137,141,16,17,16,17,16,17,16,17,105,106,107,108,16,17,16,17,16,17,16,17,16,17,17,35,55,57,3,4,3,4,3,57,3,4,3,4,3,4,3,4,3,4,3,4,3,4,3,4,3,4,3,4,3,4,3,4,3,4,3,4,3,4,
1,2,1,2,1,2,1,2,1,2,1,2,1,2,1,2,1,2,1,2,1,2,1,2,1,2,1,2,1,2,1,2,1,2,1,2,1,2,1,2,1,2,1,2,1,2,1,2,1,2,1,2,1,2,1,2,1,2,1,2,1,2,1,2,1,2,1,2,1,2,1,2,1,2,1,2,1,2,1,2,1,2,1,2,1,2,1,2,1,11,122,114,111,114,113,114,113,114,111,114,111,114,111,121,7,2,1,2,1,2,1,2,1,6,12,103,104,13,21,2,1,2,1,27,42,43,68,69,28,29,113,114,113,114,113,114,113,114,113,114,113,114,111,114,111,114,111,121,12,30,48,49,48,49,48,49,48,49,52,53,109,110,48,49,48,49,66,67,14,2,1,2,1,2,1,2,1,2,1,2,1,2,1,2,1,2,1,2,1,2,1,2,1,2,1,2,1,2,1,2,1,2,1,2,1,2,1,2,1,2,1,27,42,43,68,69,28,29,12,13,12,13,12,13,21,2,1,2,125,2,1,11,138,137,137,137,137,137,137,137,137,137,137,137,137,137,137,137,137,137,137,137,137,137,137,137,137,137,137,137,137,137,137,137,137,137,154,182,21,2,1,2,1,2,125,2,1,2,1,2,1,11,138,137,137,137,137,137,137,137,135,13,46,47,48,49,48,49,33,13,21,2,1,2,1,2,1,2,1,2,1,2,1,2,1,2,1,2,1,2,1,2,1,2,1,2,1,2,1,2,1,2,1,2,1,2,1,2,1,2,1,2,1,2,1,2,1,2,1,2,1,2,1,2,1,2,1,2,1,2,1,2,1,2,1,2,1,2,1,2,1,2,1,2,1,2,1,2,1,6,12,13,12,13,12,13,12,13,12,13,12,13,7,2,1,11,12,13,46,47,48,49,48,49,48,49,48,49,48,49,48,49,48,49,48,49,33,13,12,13,122,114,113,114,113,114,111,114,111,121,138,137,137,137,133,134,133,134,133,134,133,134,133,134,133,134,136,137,137,140,12,13,12,13,12,13,12,13,113,114,113,114,104,13,12,13,12,13,54,55,44,45,68,69,56,2,1,2,1,2,1,2,1,2,1,2,1,2,1,2,1,2,1,2,1,2,1,2,1,2,1,2,1,2,1,2,1,2,1,2,1,2,
3,4,3,4,3,4,3,4,3,4,3,4,3,4,3,4,3,4,3,4,3,4,3,4,3,4,3,4,3,4,3,4,3,4,3,4,3,4,3,4,3,4,3,4,3,4,3,4,3,4,3,4,3,4,3,4,3,4,3,4,3,4,3,4,3,4,3,4,3,4,3,4,3,4,3,4,3,4,3,4,3,4,3,4,3,4,3,4,3,15,16,124,118,119,107,106,107,106,118,119,118,119,123,17,10,3,4,3,4,4,22,23,8,9,105,106,107,108,16,26,5,3,4,3,4,57,3,4,34,28,116,106,107,106,107,106,107,106,107,106,107,106,118,119,118,119,123,17,36,37,61,62,61,62,61,62,61,62,65,17,16,115,61,62,61,62,70,71,18,3,4,3,4,3,4,3,4,3,4,3,4,3,4,3,4,3,4,3,4,3,4,3,4,3,4,3,4,3,4,3,4,3,4,3,4,3,4,3,4,3,4,3,4,57,3,4,34,28,16,17,16,17,16,17,16,26,5,3,126,127,3,15,139,137,137,137,137,137,137,137,137,137,137,154,148,149,148,149,148,149,147,137,137,137,137,137,137,137,137,137,137,137,137,137,137,137,182,17,16,26,5,3,4,3,126,127,3,4,3,4,3,15,139,137,137,137,137,137,137,137,137,135,59,60,61,62,61,62,40,41,16,26,22,23,24,25,5,3,4,3,4,3,4,3,4,3,4,3,4,3,4,3,4,3,4,3,4,3,4,3,4,3,4,3,4,3,4,3,4,3,4,3,4,3,4,3,4,3,4,3,4,3,4,3,4,3,4,3,4,3,4,3,4,3,4,3,4,3,4,3,4,3,4,3,4,3,4,4,8,9,16,17,35,17,16,17,16,17,16,17,16,17,10,3,4,15,16,17,59,60,61,62,61,62,61,62,61,62,61,62,61,62,61,62,61,62,40,41,16,17,16,124,107,106,107,106,118,119,123,17,139,137,137,137,137,137,137,137,137,137,137,137,137,137,137,137,137,137,137,141,16,17,16,17,16,17,16,17,116,106,107,106,107,108,16,17,16,17,55,57,58,57,3,4,3,4,3,4,3,4,3,4,3,4,3,4,3,4,3,4,3,4,3,4,3,4,3,4,3,4,3,4,3,4,3,4,3,4,3,4,3,4,
1,2,1,2,1,2,1,2,1,2,1,2,1,2,1,2,1,2,1,2,1,2,1,2,1,2,1,2,1,2,1,2,1,2,1,2,1,2,1,2,1,2,1,2,1,2,1,2,1,2,1,2,1,2,1,2,1,2,1,2,1,2,1,2,1,2,1,2,1,2,1,2,1,2,1,2,1,2,1,2,1,2,1,2,1,2,1,2,1,6,12,30,33,13,122,114,111,121,12,103,104,13,54,55,56,2,1,2,1,6,12,103,111,112,113,114,113,114,104,13,21,2,1,2,1,2,1,2,1,19,122,114,111,114,111,114,111,114,111,114,111,121,12,30,31,32,31,32,48,49,50,51,50,51,50,51,52,53,54,55,28,29,109,110,50,51,52,53,7,2,1,2,1,2,1,2,1,2,1,2,1,2,1,2,1,2,1,2,1,2,1,2,1,2,1,2,1,2,1,2,1,2,1,2,1,2,1,2,1,2,1,2,1,2,1,2,1,6,12,13,12,13,12,13,12,13,21,2,1,2,1,19,138,137,137,137,137,137,137,137,137,137,154,182,12,13,12,13,12,13,146,147,137,137,137,137,137,137,137,137,137,137,137,137,154,182,12,30,33,13,21,2,1,2,1,2,1,2,1,2,1,19,146,147,137,137,137,137,137,137,154,182,46,47,48,49,48,49,48,49,31,32,31,32,33,13,21,2,1,2,1,2,1,2,1,2,1,2,1,2,1,2,1,2,1,2,1,2,1,2,1,2,1,2,1,2,1,2,1,2,1,2,1,2,1,2,1,2,1,2,1,2,1,2,1,2,1,2,1,2,1,2,1,2,1,2,1,2,1,2,1,2,1,2,1,2,1,11,12,13,54,55,28,29,12,13,12,13,12,13,12,13,21,2,1,6,12,30,48,49,48,49,48,49,48,49,48,49,48,49,48,49,48,49,48,49,66,67,12,13,12,13,122,114,111,121,12,13,12,132,136,137,137,137,137,137,137,137,137,137,137,137,137,137,137,137,137,137,137,137,135,13,12,13,12,13,12,13,113,114,113,114,113,114,104,13,12,13,14,2,1,2,1,2,1,2,1,2,1,2,1,2,1,2,1,2,1,2,1,2,1,2,1,2,1,2,1,2,1,2,1,2,1,2,1,2,1,2,1,2,1,2,
3,4,3,4,3,4,3,4,3,4,3,4,3,4,3,4,3,4,3,4,3,4,3,4,3,4,3,4,3,4,3,4,3,4,3,4,3,4,3,4,3,4,3,4,3,4,3,4,3,4,3,4,3,4,3,4,3,4,3,4,3,4,3,4,3,4,3,4,3,4,3,4,3,4,3,4,3,4,3,4,3,4,3,4,3,4,24,25,8,9,36,37,40,41,16,124,123,17,105,106,107,108,55,57,3,4,3,4,8,9,105,106,107,106,107,106,107,106,107,108,16,26,22,23,5,3,4,3,4,20,16,124,118,119,118,119,118,119,118,119,123,17,36,37,38,39,38,39,61,62,63,64,63,64,63,64,65,17,55,57,34,28,16,115,63,64,65,17,10,3,4,3,4,3,4,3,4,3,4,3,4,3,4,3,4,3,4,3,4,3,4,3,4,3,4,3,4,3,4,3,4,3,4,3,4,3,4,3,4,3,4,3,4,3,4,4,8,9,16,17,16,17,16,17,16,17,16,26,5,3,4,20,139,137,137,137,137,137,137,137,137,154,182,17,16,17,16,17,16,17,16,146,148,149,148,149,148,149,148,149,148,149,148,149,182,17,36,37,40,41,16,26,22,23,5,3,4,3,4,3,4,20,16,146,147,137,137,137,137,154,182,17,59,60,61,62,61,62,61,62,38,39,38,39,40,41,16,26,5,3,4,3,4,3,4,3,4,3,4,3,4,3,4,3,4,3,4,3,4,3,4,3,4,3,4,3,4,3,4,3,4,3,4,3,4,3,4,3,4,3,4,3,4,3,4,3,4,3,4,3,4,3,4,3,4,3,4,3,4,3,4,3,4,3,4,3,4,15,16,17,55,57,34,28,16,17,16,17,16,17,16,17,16,26,8,9,36,37,61,62,61,62,61,62,61,62,61,62,61,62,61,62,61,62,61,62,70,71,16,17,16,17,16,124,123,17,16,17,132,136,137,137,137,137,137,137,137,137,137,137,137,137,137,137,137,137,137,137,137,137,137,135,16,17,16,17,16,17,116,106,107,106,107,106,107,108,16,17,18,3,4,3,4,3,4,3,4,3,4,3,4,3,4,3,4,3,4,3,4,3,4,3,4,3,4,3,4,3,4,3,4,3,4,3,4,3,4,3,4,3,4,3,
1,2,1,2,1,2,1,2,1,2,1,2,1,2,1,2,1,2,1,2,1,2,1,2,1,2,1,2,1,2,1,2,1,2,1,2,1,2,1,2,1,2,1,2,1,2,1,2,1,2,1,2,1,2,1,2,1,2,1,2,1,2,1,2,1,2,1,2,1,2,1,2,1,2,1,2,1,2,1,2,1,2,1,2,1,19,12,13,12,30,48,49,48,49,33,13,12,103,113,114,111,117,21,2,1,2,1,6,12,103,113,114,113,114,113,114,113,114,113,114,111,112,104,13,21,2,1,2,1,27,42,43,44,45,68,69,42,43,68,69,28,29,109,110,50,51,50,51,52,53,54,55,42,43,44,45,68,69,56,2,1,27,42,43,44,45,28,29,14,2,1,2,1,2,1,2,1,2,1,2,1,2,1,2,1,2,1,2,1,2,1,2,1,2,1,2,1,2,1,2,1,2,1,2,1,2,1,2,1,2,1,2,1,2,1,19,12,13,12,13,12,13,12,13,12,13,12,13,21,2,1,6,138,137,137,137,137,137,137,137,137,140,12,30,31,32,33,13,12,13,12,30,31,32,31,32,31,32,31,32,31,32,31,32,31,32,48,49,48,49,31,32,33,13,21,2,1,2,1,2,1,27,28,29,146,147,137,137,154,182,12,30,48,49,48,49,48,49,48,49,48,49,48,49,48,49,33,13,7,2,1,2,1,2,1,2,1,2,1,2,1,2,1,2,1,2,1,2,1,2,1,2,1,2,1,2,1,2,1,2,1,2,1,2,1,2,1,2,1,2,1,2,1,2,1,2,1,2,1,2,1,2,1,2,1,2,1,2,1,2,1,2,1,2,1,2,1,19,12,13,7,2,1,11,12,13,12,13,12,13,12,13,12,13,12,13,46,47,48,49,48,49,48,49,48,49,48,49,48,49,48,49,48,49,48,49,66,67,12,13,12,13,12,13,12,132,133,134,136,137,137,137,137,137,137,137,137,137,137,137,137,137,137,137,137,137,137,137,137,137,137,137,135,13,12,13,12,13,113,114,113,114,113,114,111,117,12,13,7,2,1,2,1,2,1,2,1,2,1,2,1,2,1,2,1,2,1,2,1,2,1,2,1,2,1,2,1,2,1,2,1,2,1,2,1,2,1,2,1,2,1,2,
3,4,3,4,3,4,3,4,3,4,3,4,3,4,3,4,3,4,3,4,3,4,3,4,3,4,3,4,3,4,3,4,3,4,3,4,3,4,3,4,3,4,3,4,3,4,3,4,3,4,3,4,3,4,3,4,3,4,3,4,3,4,3,4,3,4,3,4,3,4,3,4,3,4,3,4,3,4,3,4,3,4,3,4,3,20,16,17,36,37,61,62,61,62,40,41,105,106,107,106,107,120,16,26,24,25,8,9,105,106,107,106,107,106,107,106,107,106,107,106,107,106,107,108,16,26,5,3,4,3,4,57,58,57,3,4,3,57,3,4,34,28,16,115,63,64,63,64,65,17,55,57,3,57,58,57,3,4,3,4,3,4,3,57,58,57,34,28,18,3,4,3,4,3,4,3,4,3,4,3,4,3,4,3,4,3,4,3,4,3,4,3,4,3,4,3,4,3,4,3,4,3,4,3,4,3,4,3,4,3,4,3,4,3,4,20,16,17,16,17,16,17,16,17,16,17,16,17,16,26,8,9,139,137,137,137,137,137,137,137,137,141,36,37,38,39,40,41,16,17,36,37,38,39,38,39,38,39,38,39,38,39,38,39,38,39,61,62,61,62,38,39,40,41,16,26,5,3,4,3,4,3,34,28,16,146,148,149,182,17,36,37,61,62,61,62,61,62,61,62,61,62,61,62,61,62,40,41,10,3,4,3,4,3,4,3,4,3,4,3,4,3,4,3,4,3,4,3,4,3,4,3,4,3,4,3,4,3,4,3,4,3,4,3,4,3,4,3,4,3,4,3,4,3,4,3,4,3,4,3,4,3,4,3,4,3,4,3,4,3,4,3,4,3,4,3,4,20,17,35,10,3,4,15,35,17,16,17,16,17,16,17,16,17,16,17,59,60,61,62,61,62,61,62,61,62,61,62,61,62,61,62,61,62,61,62,70,71,16,17,16,17,16,17,132,136,137,137,137,137,137,137,137,137,137,137,137,137,137,137,137,137,137,137,137,137,137,137,137,137,137,137,137,135,16,17,16,17,116,106,107,106,107,106,107,120,16,17,10,3,4,3,4,3,4,3,4,3,4,3,4,3,4,3,4,3,4,3,4,3,4,3,4,3,4,3,4,3,4,3,4,3,4,3,4,3,4,3,4,3,4,3,
1,2,1,2,1,2,1,2,1,2,1,2,1,2,1,2,1,2,1,2,1,2,1,2,1,2,1,2,1,2,1,2,1,2,1,2,1,2,1,2,1,2,1,2,1,2,1,2,1,2,1,2,1,2,1,2,1,2,1,2,1,2,1,2,1,2,1,2,1,2,1,2,1,2,1,2,1,2,1,2,1,2,1,2,1,27,28,29,46,47,48,49,48,49,66,67,113,114,113,114,113,114,111,112,111,112,111,112,113,114,113,114,113,114,113,114,113,114,113,114,113,114,113,114,104,13,21,2,1,2,1,2,1,2,1,2,1,2,1,2,1,27,42,43,44,45,68,69,42,43,56,2,1,2,1,2,1,2,1,2,1,2,1,2,1,2,1,27,56,2,1,2,1,2,1,2,1,2,1,2,1,2,1,2,1,2,1,2,1,2,1,2,1,2,1,2,1,2,1,2,1,2,1,2,1,2,1,2,1,2,125,2,125,2,125,11,12,13,12,13,12,13,12,13,12,13,12,13,12,13,12,132,136,137,137,137,137,137,137,137,137,140,46,47,48,49,66,67,12,13,109,110,48,49,48,49,48,49,48,49,48,49,48,49,48,49,48,49,48,49,48,49,48,49,33,13,21,2,1,2,1,2,1,6,12,30,31,32,31,32,48,49,48,49,48,49,48,49,48,49,48,49,48,49,48,49,66,67,14,2,1,2,1,2,1,2,1,2,1,2,1,2,1,2,1,2,1,2,1,2,1,2,1,2,1,2,1,2,1,2,1,2,1,2,1,2,1,2,1,2,1,2,1,2,1,2,1,2,1,2,1,2,1,2,1,2,1,2,1,2,1,2,1,2,1,2,1,11,54,55,56,2,1,27,28,29,12,13,12,13,12,13,12,13,12,30,48,49,48,49,48,49,48,49,48,49,48,49,48,49,48,49,48,49,48,49,52,53,12,13,12,13,12,13,146,147,137,137,137,137,137,137,137,137,137,137,137,137,137,137,137,137,137,137,137,137,137,137,137,137,137,137,137,140,12,13,12,13,113,114,113,114,113,114,113,114,104,13,21,2,1,2,1,2,1,2,1,2,1,2,1,2,1,2,1,2,1,2,1,2,1,2,1,2,1,2,1,2,1,2,1,2,1,2,1,2,1,2,1,2,1,2,
3,4,3,4,3,4,3,4,3,4,3,4,3,4,3,4,3,4,3,4,3,4,3,4,3,4,3,4,3,4,3,4,3,4,3,4,3,4,3,4,3,4,3,4,3,4,3,4,3,4,3,4,3,4,3,4,3,4,3,4,3,4,3,4,3,4,3,4,3,4,3,4,3,4,3,4,3,4,3,4,3,4,3,4,3,4,34,28,59,60,61,62,61,62,70,71,116,106,107,106,107,106,107,106,107,106,107,106,107,106,107,106,107,106,107,106,107,106,107,106,107,106,107,106,107,108,16,26,22,23,24,25,22,23,24,25,24,25,5,3,4,3,4,57,58,57,3,4,3,57,3,4,3,4,3,4,3,4,3,4,3,4,3,4,3,4,3,4,3,4,3,4,3,4,3,4,3,4,3,4,3,4,3,4,3,4,3,4,3,4,3,4,3,4,3,4,3,4,3,4,3,4,3,4,3,4,3,4,3,4,126,127,126,127,126,15,16,17,16,17,16,17,16,17,16,17,16,17,16,17,132,136,137,137,137,137,137,137,137,137,137,141,59,60,61,62,70,71,16,17,16,115,61,62,61,62,61,62,61,62,61,62,61,62,61,62,61,62,61,62,61,62,61,62,40,41,16,26,22,23,24,25,8,9,36,37,38,39,38,39,61,62,61,62,61,62,61,62,61,62,61,62,61,62,61,62,70,71,18,3,4,3,4,3,4,3,4,3,4,3,4,3,4,3,4,3,4,3,4,3,4,3,4,3,4,3,4,3,4,3,4,3,4,3,4,3,4,3,4,3,4,3,4,3,4,3,4,3,4,3,4,3,4,3,4,3,4,3,4,3,4,3,4,3,4,3,4,15,55,57,3,4,3,4,34,28,16,17,16,17,16,17,16,17,36,37,61,62,61,62,61,62,61,62,61,62,61,62,61,62,61,62,61,62,61,62,65,17,16,17,16,17,16,17,16,146,147,137,137,137,137,137,137,137,137,137,137,137,137,137,137,137,137,137,137,137,137,137,137,137,137,137,137,141,16,17,16,17,116,106,107,106,107,106,107,106,107,108,16,26,5,3,4,3,4,3,4,3,4,3,4,3,4,3,4,3,4,3,4,3,4,3,4,3,4,3,4,3,4,3,4,3,4,3,4,3,4,3,4,3,4,3,
1,2,1,2,1,2,1,2,1,2,1,2,1,2,1,2,1,2,1,2,1,2,1,2,1,2,1,2,1,2,1,2,1,2,1,2,1,2,1,2,1,2,1,2,1,2,1,2,1,2,1,2,1,2,1,2,1,2,1,2,1,2,1,2,1,2,1,2,1,2,1,2,1,2,1,2,1,2,1,2,1,2,1,2,1,2,1,6,46,47,48,49,48,49,66,67,113,114,113,114,113,114,113,114,113,114,113,114,113,114,113,114,113,114,113,114,113,114,113,114,113,114,113,114,113,114,111,112,111,112,111,112,111,112,111,112,104,13,21,2,1,2,1,2,1,2,1,2,1,2,1,2,1,2,1,2,1,2,1,2,1,2,1,2,1,2,1,2,1,2,1,2,1,2,1,2,1,2,1,2,1,2,1,2,1,2,1,2,1,2,1,2,1,2,1,2,1,2,1,2,1,2,1,2,1,2,125,2,125,2,125,2,1,2,1,19,12,13,12,13,12,13,12,13,12,13,12,132,133,134,136,137,137,137,137,137,137,137,137,137,137,140,46,47,48,49,52,53,12,13,12,13,46,47,48,49,48,49,48,49,48,49,48,49,48,49,48,49,48,49,48,49,48,49,48,49,31,32,31,32,31,32,31,32,48,49,48,49,48,49,48,49,48,49,48,49,48,49,48,49,48,49,48,49,48,49,66,67,21,2,1,2,1,2,1,2,1,2,1,2,1,2,1,2,1,2,1,2,1,2,1,2,1,2,1,2,1,2,1,2,1,2,1,2,1,2,1,2,1,2,1,2,1,2,1,2,1,2,1,2,1,2,1,2,1,2,1,2,1,2,1,2,1,2,1,2,1,27,56,2,1,2,1,2,1,27,28,29,12,13,12,13,12,30,48,49,48,49,48,49,48,49,48,49,48,49,48,49,48,49,48,49,48,49,52,53,12,13,12,103,111,112,104,13,12,13,146,147,137,137,137,137,137,137,137,137,137,137,137,137,137,137,137,137,137,137,137,137,137,137,137,137,154,182,12,13,12,103,113,114,113,114,113,114,113,114,111,117,54,55,56,2,1,2,1,2,1,2,1,2,1,2,1,2,1,2,1,2,1,2,1,2,1,2,1,2,1,2,1,2,1,2,1,2,1,2,1,2,1,2,1,2,
3,4,3,4,3,4,3,4,3,4,3,4,3,4,3,4,3,4,3,4,3,4,3,4,3,4,3,4,3,4,3,4,3,4,3,4,3,4,3,4,3,4,3,4,3,4,3,4,5,3,4,3,4,3,4,3,4,3,4,3,4,3,4,3,4,3,4,3,4,3,4,3,4,3,4,4,22,23,24,25,24,25,22,23,24,25,8,9,59,60,61,62,61,62,70,71,116,106,107,106,107,106,107,106,107,106,107,106,107,106,107,106,107,106,107,106,107,106,107,106,107,106,107,106,107,106,107,106,107,106,107,106,107,106,107,106,107,108,16,26,5,3,4,3,4,3,4,3,4,3,4,3,4,3,4,3,4,3,4,3,4,3,4,3,4,3,4,3,4,3,4,3,4,3,4,3,4,3,4,3,4,3,4,3,4,3,4,3,4,3,4,3,4,3,4,3,4,3,4,3,4,3,4,3,4,3,126,127,126,127,126,127,3,4,3,20,16,17,16,17,16,17,16,17,16,17,132,136,137,137,137,137,137,137,137,137,137,137,137,137,137,141,59,60,61,62,65,17,16,17,16,17,59,60,61,62,61,62,61,62,61,62,61,62,61,62,61,62,61,62,61,62,61,62,61,62,38,39,38,39,38,39,38,39,61,62,61,62,61,62,61,62,61,62,61,62,61,62,61,62,61,62,61,62,61,62,70,71,16,26,5,3,4,3,4,3,4,3,4,3,4,3,4,3,4,3,4,3,4,3,4,3,4,3,4,3,4,3,4,3,4,3,4,3,4,3,4,3,4,3,4,3,4,3,4,3,4,3,4,3,4,3,4,3,4,3,4,3,4,3,4,3,4,3,4,3,4,3,4,3,4,3,4,3,4,3,34,28,35,17,16,17,36,37,61,62,61,62,61,62,61,62,61,62,61,62,61,62,61,62,61,62,61,62,65,17,16,17,105,106,107,106,107,108,16,17,16,146,147,137,137,137,137,137,137,137,137,137,137,137,137,137,137,137,137,137,137,137,137,137,137,154,182,17,16,17,105,106,107,106,107,106,107,106,107,106,107,120,55,57,3,4,3,4,3,4,3,4,3,4,3,4,3,4,3,4,3,4,3,4,3,4,3,4,3,4,3,4,3,4,3,4,3,4,3,4,3,4,3,4,3,4,
1,2,1,2,1,2,1,2,1,2,1,2,1,2,1,2,1,2,1,2,1,2,1,2,1,2,1,2,1,2,1,2,1,2,1,2,1,2,1,2,1,2,1,2,1,2,1,11,21,2,1,2,1,2,1,2,1,2,1,2,1,2,1,2,1,2,1,2,1,2,1,2,1,2,1,6,12,30,31,32,31,32,31,32,31,32,31,32,48,49,48,49,48,49,52,53,113,114,113,114,113,114,113,114,113,114,113,114,113,114,113,114,113,114,113,114,113,114,113,114,113,114,113,114,113,114,113,114,113,114,113,114,113,114,113,114,113,114,104,13,21,2,1,2,1,2,1,2,1,2,1,2,1,2,1,2,1,2,1,2,1,2,1,2,1,2,1,2,1,2,1,2,1,2,1,2,1,2,1,2,1,2,1,2,1,2,1,2,1,2,1,2,1,2,1,2,1,2,1,2,1,2,1,2,1,2,125,2,1,2,125,2,1,2,1,19,12,13,12,132,133,134,133,134,133,134,136,137,137,137,137,137,137,137,137,137,137,137,137,137,137,140,46,47,66,67,12,13,12,13,12,13,46,47,48,49,48,49,50,51,142,143,50,51,48,49,48,49,48,49,48,49,48,49,48,49,48,49,48,49,48,49,48,49,48,49,48,49,48,49,48,49,48,49,48,49,48,49,48,49,48,49,48,49,48,49,48,49,33,13,21,2,1,2,1,2,1,2,1,2,1,2,1,2,1,2,1,2,1,2,1,2,1,2,1,2,1,2,1,2,1,2,1,2,1,2,1,2,1,2,1,2,1,2,1,2,1,2,1,2,1,2,1,2,1,2,1,2,1,2,1,2,1,2,1,2,1,2,1,2,1,2,1,2,1,2,1,27,42,43,28,29,109,110,50,51,48,49,48,49,48,49,48,49,48,49,48,49,48,49,48,49,66,67,12,13,12,103,113,114,113,114,113,114,111,112,104,13,138,137,137,137,137,137,137,137,137,137,137,137,137,137,137,137,137,137,137,137,137,137,137,140,12,13,12,103,113,114,113,114,113,114,113,114,113,114,111,117,14,2,1,2,1,2,1,2,1,2,1,2,1,2,1,2,1,2,1,2,1,2,1,2,1,2,1,2,1,2,1,2,1,2,1,2,1,2,1,2,1,2,1,2,
3,4,3,4,3,4,3,4,3,4,3,4,3,4,3,4,3,4,3,4,3,4,3,4,3,4,3,4,3,4,3,4,3,4,3,4,3,4,3,4,3,4,3,4,3,4,3,15,16,26,5,3,4,3,4,3,4,3,4,3,4,3,4,3,4,3,4,3,4,3,4,3,4,4,8,9,36,37,38,39,38,39,38,39,38,39,38,39,61,62,61,62,61,62,65,17,116,106,107,106,107,106,107,106,107,106,107,106,107,106,107,106,107,106,107,106,107,106,107,106,107,106,107,106,107,106,107,106,107,106,107,106,107,106,107,106,107,106,107,108,16,26,5,3,4,3,4,3,4,3,4,3,4,3,4,3,4,3,4,3,4,3,4,3,4,3,4,3,4,3,4,3,4,3,4,3,4,3,4,3,4,3,4,3,4,3,4,3,4,3,4,3,4,3,4,3,4,3,4,3,4,3,4,3,4,3,126,127,3,4,126,127,3,4,3,20,16,17,132,136,137,137,137,137,137,137,137,137,137,137,137,137,137,137,137,137,137,137,137,137,137,141,59,60,70,71,16,17,16,17,16,17,59,60,61,62,61,62,63,64,144,145,63,64,61,62,61,62,61,62,61,62,61,62,61,62,61,62,61,62,61,62,61,62,61,62,61,62,61,62,61,62,61,62,61,62,61,62,61,62,61,62,61,62,61,62,61,62,40,41,16,26,22,23,24,25,5,3,4,3,4,3,4,3,4,3,4,3,4,3,4,3,4,3,4,3,4,3,4,3,4,3,4,3,4,3,4,3,4,3,4,3,4,3,4,3,4,3,4,3,4,3,4,3,4,3,4,3,4,3,4,3,4,3,4,3,4,3,4,3,4,3,4,3,4,3,4,3,4,57,34,28,16,115,63,64,61,62,61,62,61,62,61,62,61,62,61,62,61,62,61,62,70,71,16,17,105,106,107,106,107,106,107,106,107,106,107,108,139,137,137,137,137,137,137,137,137,137,137,137,137,137,137,137,137,137,137,137,137,137,137,141,16,17,105,106,107,106,107,106,107,106,107,106,107,106,107,120,18,3,4,3,4,3,4,3,4,3,4,3,4,3,4,3,4,3,4,3,4,3,4,3,4,3,4,3,4,3,4,3,4,3,4,3,4,3,4,3,4,3,4,3,
1,2,1,2,1,2,1,2,1,2,1,2,1,2,1,2,1,2,1,2,1,2,1,2,1,2,1,2,1,2,1,2,1,2,1,2,1,2,1,2,1,2,1,2,1,2,1,19,12,13,21,2,1,2,1,2,1,2,1,2,1,2,1,2,1,2,1,2,1,2,1,2,1,11,12,30,48,49,48,49,48,49,48,49,48,49,48,49,48,49,48,49,52,53,12,103,113,114,113,114,113,114,113,114,113,114,113,114,113,114,113,114,113,114,113,114,113,114,113,114,113,114,113,114,113,114,113,114,113,114,113,114,113,114,113,114,113,114,113,114,104,13,7,2,1,2,1,2,1,2,1,2,1,2,1,2,1,2,1,2,1,2,1,2,1,2,1,2,1,2,1,2,1,2,1,2,1,2,1,2,1,2,1,2,1,2,1,2,1,2,1,2,1,2,1,2,1,2,1,2,1,2,1,2,125,2,125,2,1,2,125,2,125,2,125,11,12,13,138,137,137,137,137,137,137,137,137,137,137,137,137,137,137,137,137,137,137,137,137,137,154,182,46,47,48,49,33,13,12,13,12,13,109,110,50,51,52,53,12,132,133,134,135,13,109,110,48,49,48,49,48,49,48,49,48,49,48,49,48,49,48,49,48,49,48,49,48,49,48,49,48,49,48,49,48,49,48,49,48,49,48,49,48,49,48,49,48,49,48,49,31,32,31,32,33,13,21,2,1,2,1,2,1,2,1,2,1,2,1,2,1,2,1,2,1,2,1,2,1,2,1,2,1,2,1,2,1,2,1,2,1,2,1,2,1,2,1,2,1,2,1,2,1,2,1,2,1,2,1,2,1,2,1,2,1,2,1,2,1,2,1,2,1,2,1,2,1,2,1,2,1,19,12,13,12,13,109,110,48,49,48,49,48,49,48,49,48,49,48,49,48,49,52,53,12,13,122,114,113,114,113,114,113,114,113,114,111,117,146,147,137,137,137,137,137,137,137,137,137,137,137,137,137,137,137,137,137,137,137,137,154,182,12,103,113,114,113,114,113,114,113,114,113,114,113,114,111,117,7,2,1,2,1,2,1,2,1,2,1,2,1,2,1,2,1,2,1,2,1,2,1,2,1,2,1,2,1,2,1,2,1,2,1,2,1,2,1,2,1,2,1,2,
3,4,3,4,3,4,3,4,3,4,3,4,3,4,3,4,3,4,3,4,3,4,3,4,3,4,3,4,3,4,3,4,3,4,3,4,3,4,3,4,3,4,3,4,3,4,3,20,16,17,16,26,24,25,5,3,4,3,4,3,4,3,4,3,4,3,4,3,4,3,4,3,4,15,36,37,61,62,61,62,61,62,61,62,61,62,61,62,61,62,61,62,65,17,105,106,107,106,107,106,107,106,107,106,107,106,107,106,107,106,107,106,107,106,107,106,107,106,107,106,107,106,107,106,107,106,107,106,107,106,107,106,107,106,107,106,107,106,107,106,107,108,10,3,4,3,4,3,4,3,4,3,4,3,4,3,4,3,4,3,4,3,4,3,4,3,4,3,4,3,4,3,4,3,4,3,4,3,4,3,4,3,4,3,4,3,4,3,4,3,4,3,4,3,4,3,4,3,4,3,4,3,4,3,126,127,126,127,3,4,126,127,126,127,126,15,16,17,139,137,137,137,137,137,137,137,137,137,137,137,137,137,137,137,137,137,137,137,137,154,182,17,59,60,61,62,40,41,16,17,16,17,16,115,63,64,65,17,132,136,137,137,137,135,16,115,61,62,61,62,61,62,61,62,61,62,61,62,61,62,61,62,61,62,61,62,61,62,61,62,61,62,61,62,61,62,61,62,61,62,61,62,61,62,61,62,61,62,61,62,38,39,38,39,40,41,16,26,5,3,4,3,4,3,4,3,4,3,4,3,4,3,4,3,4,3,4,3,4,3,4,3,4,3,4,3,4,3,4,3,4,3,4,3,4,3,4,3,4,3,4,3,4,3,4,3,4,3,4,3,4,3,4,3,4,3,4,3,4,3,4,3,4,3,4,3,4,3,4,3,4,20,16,17,16,17,16,115,61,62,61,62,61,62,61,62,61,62,61,62,61,62,65,17,16,17,16,124,107,106,107,106,107,106,107,106,107,120,16,146,148,149,147,137,137,137,137,137,137,137,137,137,137,137,137,137,137,137,137,154,182,17,105,106,107,106,107,106,107,106,107,106,107,106,107,106,107,120,10,3,4,3,4,3,4,3,4,3,4,3,4,3,4,3,4,3,4,3,4,3,4,3,4,3,4,3,4,3,4,3,4,3,4,3,4,3,4,3,4,3,4,3,
1,2,1,2,1,2,1,2,1,2,1,2,1,2,1,2,1,2,1,2,1,2,1,2,1,2,1,2,1,2,1,2,1,2,1,2,1,2,1,2,1,2,1,2,1,2,1,11,12,13,12,30,33,13,21,2,1,2,1,2,1,2,1,2,1,2,1,2,1,2,1,2,1,19,46,47,48,49,48,49,48,49,48,49,50,51,50,51,50,51,52,53,12,103,113,114,113,114,113,114,113,114,113,114,113,114,113,114,113,114,113,114,113,114,113,114,113,114,113,114,113,114,113,114,113,114,113,114,113,114,113,114,113,114,113,114,113,114,113,114,111,121,14,2,1,2,1,2,1,2,1,2,1,2,1,2,1,2,1,2,1,2,1,2,1,2,1,2,1,2,1,2,1,2,1,2,1,2,1,2,1,2,1,2,1,2,1,2,1,2,1,2,1,2,1,2,1,2,1,2,1,2,1,2,1,2,125,2,125,2,125,2,125,2,125,11,12,13,138,137,137,137,137,137,137,137,137,137,137,137,137,137,137,137,137,137,137,137,137,137,135,13,109,110,48,49,48,49,33,13,12,13,12,13,12,13,12,132,136,137,137,137,137,137,135,13,46,47,48,49,48,49,48,49,48,49,48,49,48,49,48,49,48,49,48,49,48,49,48,49,48,49,48,49,48,49,48,49,48,49,48,49,48,49,48,49,48,49,48,49,48,49,48,49,48,49,33,13,21,2,1,2,1,2,1,2,1,2,1,2,1,2,1,2,1,2,1,2,1,2,1,2,1,2,1,2,1,2,1,2,1,2,1,2,1,2,1,2,1,2,1,2,1,2,1,2,1,2,1,2,1,2,1,2,1,2,1,2,1,2,1,2,1,2,1,2,1,2,1,2,1,11,12,13,12,13,12,13,109,110,48,49,48,49,48,49,48,49,48,49,66,67,12,13,12,13,12,13,122,114,113,114,113,114,113,114,113,114,111,112,104,13,146,147,137,137,137,137,137,137,137,137,137,137,137,137,137,137,154,182,12,13,113,114,113,114,113,114,113,114,113,114,113,114,113,114,111,117,14,2,1,2,1,2,1,2,1,2,1,2,1,2,1,2,1,2,1,2,1,2,1,2,1,2,1,2,1,2,1,2,1,2,1,2,1,2,1,2,1,2,1,2,
3,4,3,4,3,4,3,4,3,4,3,4,3,4,3,4,3,4,3,4,3,4,3,4,3,4,3,4,3,4,3,4,3,4,3,4,3,4,3,4,3,4,3,4,3,4,3,15,16,17,36,37,40,41,16,26,22,23,24,25,22,23,24,25,24,25,5,3,4,3,4,3,4,20,59,60,61,62,61,62,61,62,61,62,63,64,63,64,63,64,65,17,105,106,107,106,107,106,107,106,107,106,107,106,107,106,107,106,107,106,107,106,107,106,107,106,107,106,107,106,107,106,107,106,107,106,107,106,107,106,107,106,107,106,107,106,107,106,107,106,123,17,18,3,4,3,4,3,4,3,4,3,4,3,4,3,4,4,5,3,4,3,4,3,4,3,4,3,4,3,4,3,4,3,4,3,4,3,4,3,4,3,4,3,4,3,4,3,4,3,4,3,4,3,4,3,4,3,4,3,4,3,4,3,4,3,126,127,126,127,126,127,126,127,126,15,16,17,139,137,137,137,137,137,137,137,137,137,137,137,137,137,137,137,137,137,137,137,137,137,137,135,16,115,61,62,61,62,40,41,16,17,16,17,16,17,132,136,137,137,137,137,137,137,137,135,59,60,61,62,61,62,61,62,61,62,61,62,61,62,61,62,61,62,61,62,61,62,61,62,61,62,61,62,61,62,61,62,61,62,61,62,61,62,61,62,61,62,61,62,61,62,61,62,61,62,40,41,16,26,22,23,24,25,5,3,4,3,4,3,4,3,4,3,4,3,4,3,4,3,4,3,4,3,4,3,4,3,4,3,4,3,4,3,4,3,4,3,4,3,4,3,4,3,4,3,4,3,4,3,4,3,4,3,4,3,4,3,4,3,4,3,4,3,4,3,4,3,4,3,4,15,35,17,16,17,16,17,16,115,61,62,61,62,61,62,61,62,61,62,70,71,17,35,35,17,16,17,16,124,107,106,107,106,107,106,107,106,107,106,107,108,16,146,147,137,137,137,137,137,137,137,137,137,137,154,148,149,182,17,16,17,116,106,107,106,107,106,107,106,107,106,107,106,107,106,107,120,18,3,4,3,4,3,4,3,4,3,4,3,4,3,4,3,4,3,4,3,4,3,4,3,4,3,4,3,4,3,4,3,4,3,4,3,4,3,4,3,4,3,4,3,
1,2,1,2,1,2,1,2,1,2,1,2,1,2,1,2,1,2,1,2,1,2,1,2,1,2,1,2,1,2,1,2,1,2,1,2,1,2,1,2,1,2,1,2,1,2,1,27,28,29,46,47,48,49,31,32,31,32,31,32,31,32,31,32,33,13,21,2,1,2,1,2,1,11,46,47,48,49,48,49,48,49,52,53,12,103,111,112,111,112,104,13,122,114,113,114,113,114,113,114,113,114,113,114,113,114,113,114,113,114,113,114,113,114,113,114,113,114,113,114,113,114,113,114,113,114,113,114,113,114,113,114,113,114,113,114,111,114,111,121,54,55,56,2,1,2,1,2,1,2,1,2,1,2,1,2,1,6,7,2,1,2,1,2,1,2,1,2,1,2,1,2,1,2,1,2,1,2,1,2,1,2,1,2,1,2,1,2,1,2,1,2,1,2,1,2,1,2,1,2,1,2,1,2,1,2,1,2,125,2,125,2,1,2,1,19,12,13,146,147,137,137,137,137,137,137,137,137,137,137,137,137,137,137,137,137,137,137,137,137,137,137,135,13,109,110,48,49,66,67,12,13,12,13,12,13,138,137,137,137,137,137,137,137,154,182,46,47,48,49,48,49,48,49,48,49,48,49,48,49,48,49,48,49,48,49,48,49,48,49,48,49,48,49,48,49,48,49,48,49,48,49,48,49,48,49,48,49,48,49,48,49,48,49,48,49,48,49,31,32,31,32,33,13,21,2,1,2,1,2,1,2,1,2,1,2,1,2,1,2,1,2,1,2,1,2,1,2,1,2,1,2,1,2,1,2,1,2,1,2,1,2,1,2,1,2,1,2,1,2,1,2,1,2,1,2,1,2,1,2,1,2,1,2,1,2,1,2,1,2,1,27,28,29,12,13,12,13,12,13,109,110,50,51,48,49,48,49,48,49,66,67,54,55,44,45,28,29,12,13,113,114,113,114,113,114,113,114,113,114,113,114,104,13,146,147,137,137,137,137,137,137,137,137,154,182,12,13,12,13,12,103,113,114,113,114,113,114,113,114,113,114,113,114,113,114,111,117,7,2,1,2,1,2,1,2,1,2,1,2,1,2,1,2,1,2,1,2,1,2,1,2,1,2,1,2,1,2,1,2,1,2,1,2,1,2,1,2,1,2,1,2,
3,4,3,4,3,4,3,4,3,4,3,4,3,4,3,4,3,4,3,4,3,4,3,4,3,4,3,4,3,4,3,4,3,4,3,4,3,4,3,4,3,4,3,4,3,4,3,4,34,28,59,60,61,62,38,39,38,39,38,39,38,39,38,39,40,41,16,26,5,3,4,3,4,15,59,60,61,62,61,62,61,62,65,17,105,106,107,106,107,106,107,108,16,124,107,106,107,106,107,106,107,106,107,106,107,106,107,106,107,106,107,106,107,106,107,106,107,106,107,106,107,106,107,106,107,106,107,106,107,106,107,106,107,106,107,106,118,119,123,17,55,57,3,4,3,4,3,4,3,4,3,4,3,4,22,23,8,9,10,3,4,3,4,3,4,3,4,3,4,3,4,3,4,3,4,3,4,3,4,3,4,3,4,3,4,3,4,3,4,3,4,3,4,3,4,3,4,3,4,3,4,3,4,3,4,3,4,3,126,127,126,127,3,4,3,20,35,17,16,146,148,149,147,137,137,137,137,137,137,137,137,154,148,149,147,137,137,137,137,137,137,137,137,135,16,115,61,62,70,71,16,17,16,17,16,17,139,137,137,137,137,137,137,154,182,17,59,60,61,62,61,62,61,62,61,62,61,62,61,62,61,62,61,62,61,62,61,62,61,62,61,62,61,62,61,62,61,62,61,62,61,62,61,62,61,62,61,62,72,73,74,75,76,62,61,62,61,62,38,39,38,39,40,41,16,26,22,23,22,23,24,25,22,23,24,25,5,3,4,3,4,3,4,3,4,3,4,3,4,3,4,3,4,3,4,3,4,3,4,3,4,3,4,3,4,3,4,3,4,3,4,3,4,3,4,3,4,3,4,3,4,3,4,3,4,3,4,3,4,3,4,3,34,28,35,17,35,17,16,17,16,115,63,64,61,62,61,62,61,62,70,71,55,57,58,57,34,28,35,17,116,106,107,106,107,106,107,106,107,106,107,106,107,108,16,146,148,149,147,137,137,137,137,154,182,17,16,17,16,17,105,106,107,106,107,106,107,106,107,106,107,106,107,106,107,106,107,120,10,3,4,3,4,3,4,3,4,3,4,3,4,3,4,3,4,3,4,3,4,3,4,3,4,3,4,3,4,3,4,3,4,3,4,3,4,3,4,3,4,3,4,3,
1,2,1,2,1,2,1,2,1,2,1,2,1,2,1,2,1,2,1,2,1,2,1,2,1,2,1,2,1,2,1,2,1,2,1,2,1,2,1,2,1,2,1,2,1,2,1,2,1,11,46,47,48,49,48,49,48,49,48,49,48,49,48,49,48,49,33,13,7,2,1,2,1,6,46,47,48,49,50,51,52,53,12,103,113,114,113,114,113,114,113,114,104,13,113,114,113,114,113,114,113,114,113,114,113,114,113,114,113,114,113,114,113,114,113,114,113,114,113,114,113,114,113,114,113,114,113,114,113,114,113,114,113,114,111,121,54,55,44,45,56,2,1,2,1,2,1,2,1,2,1,2,1,11,12,103,104,13,14,2,1,2,1,2,1,2,1,2,1,2,1,2,1,2,1,2,1,2,1,2,1,2,1,2,1,2,1,2,1,2,1,2,1,2,1,2,1,2,1,2,1,2,125,2,1,2,125,2,125,2,125,2,125,2,1,27,28,29,12,30,33,13,146,147,137,137,137,137,137,137,154,182,12,13,146,147,137,137,137,137,137,137,137,140,12,13,46,47,48,49,33,13,12,13,12,132,136,137,137,137,137,137,137,140,12,30,48,49,48,49,48,49,48,49,48,49,48,49,48,49,48,49,48,49,48,49,48,49,48,49,48,49,48,49,48,49,48,49,48,49,48,49,48,49,48,49,77,78,79,80,81,82,83,49,48,49,48,49,48,49,48,49,48,49,31,32,31,32,31,32,33,13,12,13,54,55,56,2,1,2,1,2,1,2,1,2,1,2,1,2,1,2,1,2,1,2,1,2,1,2,1,2,1,2,1,2,1,2,1,2,1,2,1,2,1,2,1,2,1,2,1,2,1,2,1,2,1,2,1,2,1,2,1,27,42,43,44,45,68,69,28,29,12,13,109,110,48,49,48,49,66,67,7,2,1,2,1,27,28,29,122,114,113,114,113,114,113,114,113,114,113,114,113,114,111,112,104,13,146,147,137,137,154,182,12,13,12,103,111,112,113,114,113,114,113,114,113,114,113,114,113,114,113,114,113,114,111,117,14,2,1,2,1,2,1,2,1,2,1,2,1,2,1,2,1,2,1,2,1,2,1,2,1,2,1,2,1,2,1,2,1,2,1,2,1,2,1,2,1,2,1,2,
3,4,3,4,3,4,3,4,3,4,3,4,3,4,3,4,3,4,3,4,3,4,3,4,3,4,3,4,3,4,3,4,3,4,3,4,3,4,3,4,3,4,3,4,3,4,3,4,3,15,59,60,61,62,61,62,61,62,61,62,72,73,74,75,76,62,40,41,10,3,4,4,8,9,59,60,61,62,63,64,65,17,105,106,107,106,107,106,107,106,107,106,107,108,116,106,107,106,107,106,107,106,107,106,107,106,107,106,107,106,107,106,107,106,107,106,107,106,107,106,107,106,107,106,107,106,107,106,107,106,107,106,107,106,123,17,55,57,58,57,3,4,3,4,3,4,3,4,3,4,3,4,3,15,105,106,107,108,18,3,4,3,4,3,4,3,4,3,4,3,4,3,4,3,4,3,4,3,4,3,4,3,4,3,4,3,4,3,4,3,4,3,4,3,4,3,4,3,4,3,4,3,126,127,3,4,126,127,126,127,126,127,126,127,3,4,34,28,36,37,40,41,16,146,148,149,148,149,148,149,182,17,16,17,16,146,147,137,137,137,137,137,137,141,16,17,59,60,61,62,40,41,16,17,132,136,137,137,137,137,137,137,137,141,36,37,61,62,61,62,61,62,61,62,61,62,61,62,61,62,61,62,61,62,61,62,61,62,61,62,61,62,61,62,61,62,61,62,61,62,61,62,61,62,61,62,84,85,86,87,88,89,90,62,61,62,72,73,74,75,76,62,61,62,38,39,38,39,38,39,40,41,17,35,55,57,3,4,3,4,3,4,3,4,3,4,3,4,3,4,3,4,3,4,3,4,3,4,3,4,3,4,3,4,3,4,3,4,3,4,3,4,3,4,3,4,3,4,3,4,3,4,3,4,3,4,3,4,3,4,3,4,3,4,3,57,58,57,3,4,34,28,16,17,16,115,61,62,61,62,70,71,10,3,4,3,4,3,34,28,16,124,107,106,107,106,107,106,107,106,107,106,107,106,107,106,107,108,16,146,148,149,182,17,16,17,105,106,107,106,107,106,107,106,107,106,107,106,107,106,107,106,107,106,107,106,107,120,18,3,4,3,4,3,4,3,4,3,4,3,4,3,4,3,4,3,4,3,4,3,4,3,4,3,4,3,4,3,4,3,4,3,4,3,4,3,4,3,4,3,4,3,
1,2,1,2,1,2,1,2,1,2,1,2,1,2,1,2,1,2,1,2,1,2,1,2,1,2,1,2,1,2,1,2,1,2,1,2,1,2,1,2,1,2,1,2,1,2,1,2,1,19,46,47,48,49,48,49,48,49,77,78,79,80,81,82,83,49,66,67,14,2,1,11,12,30,48,49,52,53,12,103,111,112,113,114,113,114,113,114,113,114,113,114,111,117,113,114,113,114,113,114,113,114,113,114,113,114,113,114,113,114,113,114,113,114,113,114,113,114,113,114,113,114,113,114,113,114,113,114,113,114,113,114,111,117,54,55,56,2,1,2,1,2,1,2,1,2,1,2,1,2,1,2,1,6,113,114,111,117,7,2,1,2,1,2,1,2,1,2,1,2,1,2,1,2,1,2,1,2,1,2,1,2,1,2,1,2,1,2,1,2,1,2,1,2,1,2,1,2,1,2,1,2,1,2,125,2,125,2,125,2,125,2,1,2,1,2,1,11,46,47,66,67,12,13,12,13,12,13,12,13,12,13,12,13,12,13,146,147,137,137,137,137,137,140,12,13,109,110,48,49,48,49,33,13,138,137,137,137,137,137,137,137,154,182,46,47,48,49,48,49,48,49,48,49,48,49,48,49,48,49,48,49,48,49,50,51,50,51,50,51,48,49,48,49,48,49,48,49,48,49,48,49,48,49,48,49,91,92,93,94,95,96,48,49,77,78,79,80,81,82,83,49,48,49,48,49,48,49,48,49,66,67,54,55,56,2,1,2,1,2,1,2,1,2,1,2,1,2,1,2,1,2,1,2,1,2,1,2,1,2,1,2,1,2,1,2,1,2,1,2,1,2,1,2,1,2,1,2,1,2,1,2,1,2,1,2,1,2,1,2,1,2,1,2,1,2,1,2,1,2,1,27,28,29,12,13,46,47,48,49,52,53,14,2,1,2,1,2,1,19,12,13,122,114,111,114,113,114,113,114,113,114,113,114,113,114,111,117,12,13,12,13,12,13,12,103,113,114,113,114,113,114,113,114,113,114,113,114,113,114,113,114,113,114,113,114,111,121,7,2,1,2,1,2,1,2,1,2,1,2,1,2,1,2,1,2,1,2,1,2,1,2,1,2,1,2,1,2,1,2,1,2,1,2,1,2,1,2,1,2,1,2,
3,4,3,4,3,4,3,4,3,4,3,4,3,4,3,4,3,4,3,4,3,4,3,4,3,4,3,4,3,4,3,4,3,4,3,4,3,4,3,4,3,4,3,4,3,4,3,4,3,20,59,60,61,62,61,62,61,62,84,85,86,87,88,89,90,62,70,71,18,3,4,15,36,37,61,62,65,17,105,106,107,106,107,106,107,106,107,106,107,106,107,106,107,120,116,106,107,106,107,106,107,106,107,106,107,106,107,106,107,106,107,106,107,106,107,106,107,106,107,106,107,106,107,106,107,106,107,106,107,106,107,106,107,120,55,57,3,4,3,4,3,4,3,4,3,4,24,25,22,23,24,25,8,9,116,106,107,120,10,3,4,3,4,3,4,3,4,3,4,3,4,3,4,3,4,3,4,3,4,3,4,3,4,3,4,3,4,3,4,3,4,3,4,3,4,3,4,3,4,3,4,3,4,3,126,127,126,127,126,127,126,127,3,4,3,4,3,15,59,60,70,71,16,17,16,17,16,17,16,17,16,17,16,17,16,17,16,146,147,137,137,137,137,141,16,17,16,115,61,62,61,62,40,41,139,137,137,137,137,137,137,154,182,17,59,60,61,62,61,62,61,62,61,62,61,62,61,62,61,62,61,62,61,62,63,64,63,64,63,64,61,62,61,62,61,62,61,62,61,62,61,62,61,62,61,62,61,62,97,98,99,100,61,62,84,85,86,87,88,89,90,62,61,62,61,62,61,62,61,62,70,71,55,57,3,4,3,4,3,4,3,4,3,4,3,4,3,4,3,4,3,4,3,4,3,4,3,4,3,4,3,4,3,4,3,4,3,4,3,4,3,4,3,4,3,4,3,4,3,4,3,4,3,4,3,4,3,4,3,4,3,4,3,4,3,4,3,4,3,4,3,4,34,28,16,17,59,60,61,62,65,17,18,3,4,3,4,3,4,20,16,17,16,124,118,119,107,106,107,106,107,106,107,106,107,106,107,120,16,17,16,17,16,17,105,106,107,106,107,106,107,106,107,106,107,106,107,106,107,106,107,106,107,106,107,106,123,17,10,3,4,3,4,3,4,3,4,3,4,3,4,3,4,3,4,3,4,3,4,3,4,3,4,3,4,3,4,3,4,3,4,3,4,3,4,3,4,3,4,3,4,3,
1,2,1,2,1,2,1,2,1,2,1,2,1,2,1,2,1,2,1,2,1,2,1,2,1,2,1,2,1,2,1,2,1,2,1,2,1,2,1,2,1,2,1,2,1,2,1,2,1,6,46,47,48,49,48,49,48,49,91,92,93,94,95,96,48,49,66,67,21,2,1,6,46,47,66,67,12,103,113,114,113,114,113,114,113,114,113,114,113,114,113,114,111,117,113,114,113,114,113,114,113,114,113,114,113,114,113,114,113,114,113,114,113,114,113,114,113,114,113,114,113,114,113,114,113,114,113,114,113,114,113,114,111,117,7,2,1,2,1,2,1,2,1,2,1,6,12,103,111,112,111,112,111,112,113,114,111,121,14,2,1,2,1,2,1,2,1,2,1,2,1,2,1,2,1,2,1,2,1,2,1,2,1,2,1,2,1,2,1,2,1,2,1,2,1,2,1,2,1,2,1,2,125,2,125,2,125,2,125,2,1,2,1,2,125,2,1,19,46,47,66,67,12,13,12,13,12,13,12,30,31,32,31,32,33,13,12,13,138,137,137,137,137,140,12,13,12,13,109,110,48,49,66,67,146,147,137,137,137,137,154,182,12,30,48,49,48,49,48,49,48,49,48,49,48,49,48,49,142,143,50,51,52,53,12,183,184,185,186,13,109,110,48,49,48,49,48,49,48,49,48,49,48,49,48,49,48,49,91,92,101,102,48,49,91,92,93,94,95,96,48,49,48,49,48,49,48,49,48,49,66,67,7,2,1,2,1,2,1,2,1,2,1,2,1,2,1,2,1,2,1,2,1,2,1,2,1,2,1,2,1,2,1,2,1,2,1,2,1,2,1,2,1,2,1,2,1,2,1,2,1,2,1,2,1,2,1,2,1,2,1,2,1,2,1,2,1,2,1,2,1,2,1,11,12,13,109,110,52,53,54,55,56,2,1,2,1,2,1,11,12,13,12,13,12,13,122,114,111,114,113,114,113,114,113,114,111,117,12,13,12,13,12,103,113,114,113,114,113,114,113,114,113,114,113,114,113,114,113,114,113,114,113,114,111,117,12,13,14,2,1,2,1,2,1,2,1,2,1,2,1,2,1,2,1,2,1,2,1,2,1,2,1,2,1,2,1,2,1,2,1,2,1,2,1,2,1,2,1,2,1,2,
3,4,3,4,3,4,3,4,3,4,3,4,3,4,3,4,3,4,3,4,3,4,3,4,3,4,3,4,3,4,3,4,3,4,3,4,3,4,3,4,3,4,3,4,3,4,3,4,8,9,59,60,61,62,61,62,61,62,61,62,97,98,99,100,61,62,70,71,16,26,8,9,59,60,70,71,105,106,107,106,107,106,107,106,107,106,107,106,107,106,107,106,107,120,116,106,107,106,107,106,107,106,107,106,107,106,107,106,107,106,107,106,107,106,107,106,107,106,107,106,107,106,107,106,107,106,107,106,107,106,107,106,107,120,10,3,4,3,4,3,4,3,4,4,8,9,105,106,107,106,107,106,107,106,107,106,123,17,18,3,4,3,4,3,4,3,4,3,4,3,4,3,4,3,4,3,4,3,4,3,4,3,4,4,5,3,4,3,4,3,4,3,4,3,4,3,4,3,4,3,4,3,126,127,126,127,126,127,126,127,3,4,3,4,126,127,3,20,59,60,70,71,16,17,16,17,16,17,36,37,38,39,38,39,40,41,16,17,139,137,137,137,137,141,16,17,16,17,16,115,61,62,70,71,16,146,148,149,148,149,182,17,36,37,61,62,61,62,72,73,74,75,76,62,61,62,61,62,144,145,63,64,65,17,187,188,189,189,190,191,16,115,61,62,61,62,61,62,61,62,61,62,61,62,61,62,61,62,61,62,61,62,61,62,61,62,97,98,99,100,61,62,61,62,61,62,61,62,61,62,70,71,10,3,4,3,4,3,4,3,4,3,4,3,4,3,4,3,4,3,4,3,4,3,4,3,4,3,4,3,4,3,4,3,4,3,4,3,4,3,4,3,4,3,4,3,4,3,4,3,4,3,4,3,4,3,4,3,4,3,4,3,4,3,4,3,4,3,4,3,4,3,4,15,16,17,16,115,65,17,55,57,3,4,3,4,3,4,3,15,35,17,16,17,16,17,16,124,118,119,107,106,107,106,107,106,107,120,16,17,16,17,105,106,107,106,107,106,107,106,107,106,107,106,107,106,107,106,107,106,107,106,107,106,107,120,17,35,18,3,4,3,4,3,4,3,4,3,4,3,4,3,4,3,4,3,4,3,4,3,4,3,4,3,4,3,4,3,4,3,4,3,4,3,4,3,4,3,4,3,4,3,
1,2,1,2,1,2,1,2,1,2,1,2,1,2,1,2,1,2,1,2,1,2,1,2,1,2,1,2,1,2,1,2,1,2,1,2,1,2,1,2,1,2,1,2,1,2,1,6,12,30,48,49,48,49,48,49,48,49,48,49,91,92,101,102,48,49,48,49,31,32,31,32,48,49,66,67,122,114,113,114,113,114,113,114,113,114,113,114,113,114,113,114,111,117,113,114,113,114,113,114,113,114,113,114,113,114,113,114,113,114,113,114,113,114,113,114,113,114,113,114,113,114,113,114,113,114,113,114,113,114,113,114,111,117,14,2,1,2,1,2,1,2,1,6,12,103,113,114,113,114,113,114,111,114,111,121,54,55,56,2,1,2,1,2,1,2,1,2,1,2,1,2,1,2,1,2,1,2,1,2,1,2,1,11,21,2,1,2,1,2,1,2,1,2,1,2,1,2,1,2,1,2,125,2,1,2,125,2,125,2,125,2,1,2,125,2,1,11,46,47,48,49,31,32,31,32,31,32,48,49,48,49,48,49,52,53,12,132,136,137,137,137,137,137,135,13,12,13,12,13,46,47,48,49,33,13,12,13,12,30,31,32,48,49,48,49,77,78,79,80,81,82,83,49,48,49,52,53,12,183,184,185,184,185,192,189,189,189,189,193,12,13,46,47,48,49,48,49,48,49,48,49,48,49,48,49,48,49,48,49,48,49,48,49,48,49,91,92,101,102,48,49,48,49,48,49,48,49,48,49,66,67,7,2,1,2,1,2,1,2,1,2,1,2,1,2,1,2,1,2,1,2,1,2,1,2,1,2,1,2,1,2,1,2,1,2,1,2,1,2,1,2,1,2,1,2,1,2,1,2,1,2,1,2,1,2,1,2,1,2,1,2,1,2,1,2,1,2,1,2,1,2,1,27,28,29,12,13,12,13,14,2,1,2,1,2,1,2,1,27,28,29,54,55,44,45,28,29,12,13,122,114,111,114,111,114,111,121,12,13,12,13,113,114,113,114,113,114,113,114,111,114,111,114,111,114,113,114,113,114,113,114,113,114,111,121,54,55,56,2,1,2,1,2,1,2,1,2,1,2,1,2,1,2,1,2,1,2,1,2,1,2,1,2,1,2,1,2,1,2,1,2,1,2,1,2,1,2,1,2,1,2,
3,4,3,4,3,4,3,4,3,4,3,4,3,4,3,4,3,4,3,4,3,4,3,4,3,4,3,4,3,4,3,4,3,4,3,4,3,4,3,4,3,4,3,4,3,4,8,9,36,37,61,62,61,62,61,62,61,62,61,62,61,62,61,62,61,62,61,62,38,39,38,39,61,62,70,71,16,124,107,106,107,106,107,106,107,106,107,106,107,106,107,106,107,120,116,106,107,106,107,106,107,106,107,106,107,106,107,106,107,106,107,106,107,106,107,106,107,106,107,106,107,106,107,106,107,106,107,106,107,106,107,106,107,120,18,3,4,3,4,3,4,4,8,9,105,106,107,106,107,106,107,106,118,119,123,17,55,57,3,4,3,4,3,4,3,4,3,4,3,4,3,4,3,4,3,4,3,4,3,4,5,3,4,15,16,26,5,3,4,3,4,3,4,3,4,3,4,3,4,3,4,3,126,127,3,4,126,127,126,127,126,127,3,4,126,127,3,15,59,60,61,62,38,39,38,39,38,39,61,62,61,62,61,62,65,17,132,136,137,137,137,137,137,137,137,135,16,17,16,17,59,60,61,62,40,41,16,17,36,37,38,39,61,62,61,62,84,85,86,87,88,89,90,62,61,62,65,17,187,188,189,189,189,189,189,189,189,189,189,194,16,17,59,60,61,62,61,62,61,62,61,62,61,62,61,62,61,62,61,62,61,62,61,62,61,62,61,62,61,62,61,62,61,62,61,62,61,62,61,62,70,71,10,3,4,3,4,3,4,3,4,3,4,3,4,3,4,3,4,3,4,3,4,3,4,3,4,3,4,3,4,3,4,3,4,3,4,3,4,3,4,3,4,3,4,3,4,3,4,3,4,3,4,3,4,3,4,3,4,3,4,3,4,3,4,3,4,3,4,3,4,3,4,3,34,28,16,17,16,17,18,3,4,3,4,3,4,3,4,3,34,28,55,57,58,57,34,28,16,17,16,124,118,119,118,119,123,17,16,17,16,17,116,106,107,106,107,106,107,106,118,119,118,119,118,119,107,106,107,106,107,106,107,106,123,17,55,57,3,4,3,4,3,4,3,4,3,4,3,4,3,4,3,4,3,4,3,4,3,4,3,4,3,4,3,4,3,4,3,4,3,4,3,4,3,4,3,4,3,4,3,4,
1,2,1,2,1,2,1,2,1,2,1,2,1,2,1,2,1,2,1,2,1,2,1,2,1,2,1,2,1,2,1,2,1,2,1,2,1,2,1,2,1,2,1,2,1,11,12,30,48,49,48,49,48,49,50,51,50,51,50,51,50,51,50,51,50,51,50,51,50,51,50,51,50,51,48,49,33,13,113,114,113,114,113,114,113,114,113,114,113,114,113,114,111,117,113,114,113,114,113,114,113,114,113,114,113,114,113,114,113,114,113,114,113,114,113,114,113,114,113,114,113,114,113,114,113,114,113,114,113,114,113,114,111,121,7,2,1,2,1,2,1,19,12,103,113,114,113,114,113,114,111,121,54,55,44,45,56,2,1,2,1,2,1,2,1,2,1,2,1,2,1,2,1,2,1,2,1,2,1,6,7,2,1,19,12,13,21,2,1,2,1,2,1,2,1,2,1,2,1,2,1,2,125,2,125,2,125,2,125,2,125,2,125,2,1,2,1,19,46,47,48,49,48,49,48,49,48,49,48,49,48,49,66,67,12,13,138,137,137,137,137,137,137,137,137,140,12,13,12,30,48,49,48,49,48,49,31,32,48,49,48,49,48,49,48,49,91,92,93,94,95,96,48,49,66,67,12,183,192,189,189,189,189,189,189,189,189,189,195,13,12,30,48,49,48,49,48,49,48,49,48,49,48,49,48,49,48,49,48,49,48,49,48,49,48,49,48,49,48,49,48,49,48,49,48,49,48,49,48,49,66,67,14,2,1,2,1,2,1,2,1,2,1,2,1,2,1,2,1,2,1,2,1,2,1,2,1,2,1,2,1,2,1,2,1,2,1,2,1,2,1,2,1,2,1,2,1,2,1,2,1,2,1,2,1,2,1,2,1,2,1,2,1,2,1,2,1,2,1,2,1,2,1,2,1,19,12,13,12,13,7,2,1,2,1,2,1,2,1,2,1,27,56,2,1,2,1,27,28,29,12,13,12,13,12,13,12,13,12,13,12,13,113,114,113,114,113,114,111,121,54,55,28,29,12,13,122,114,111,114,111,114,111,121,54,55,56,2,1,2,1,2,1,2,1,2,1,2,1,2,1,2,1,2,1,2,1,2,1,2,1,2,1,2,1,2,1,2,1,2,1,2,1,2,1,2,1,2,1,2,1,2,
3,4,3,4,3,4,3,4,3,4,3,4,3,4,3,4,3,4,3,4,3,4,3,4,3,4,3,4,3,4,3,4,3,4,3,4,3,4,3,4,3,4,3,4,3,15,36,37,61,62,61,62,61,62,63,64,63,64,63,64,63,64,63,64,63,64,63,64,63,64,63,64,63,64,61,62,40,41,116,106,107,106,107,106,107,106,107,106,107,106,107,106,107,120,116,106,107,106,107,106,107,106,107,106,107,106,107,106,107,106,107,106,107,106,107,106,107,106,107,106,107,106,107,106,107,106,107,106,107,106,107,106,123,17,10,3,4,3,4,3,4,20,105,106,107,106,107,106,107,106,123,17,55,57,58,57,3,4,3,4,3,4,3,4,3,4,3,4,3,4,3,4,3,4,3,4,3,4,8,9,10,3,4,20,16,17,16,26,5,3,4,3,4,3,4,3,4,3,4,3,4,3,126,127,126,127,126,127,126,127,126,127,126,127,3,4,3,20,59,60,61,62,61,62,61,62,61,62,61,62,61,62,70,71,16,17,139,137,137,137,137,137,137,137,137,141,16,17,36,37,61,62,61,62,61,62,38,39,61,62,61,62,61,62,61,62,61,62,97,98,99,100,61,62,70,71,187,188,189,189,189,196,197,198,197,198,197,198,16,17,36,37,61,62,61,62,61,62,61,62,72,73,74,75,76,62,61,62,61,62,61,62,61,62,61,62,61,62,61,62,61,62,61,62,61,62,61,62,61,62,70,71,18,3,4,3,4,3,4,3,4,3,4,3,4,3,4,3,4,3,4,3,4,3,4,3,4,3,4,3,4,3,4,3,4,3,4,3,4,3,4,3,4,3,4,3,4,3,4,3,4,3,4,3,4,3,4,3,4,3,4,3,4,3,4,3,4,3,4,3,4,3,4,3,4,20,16,17,16,17,10,3,4,3,4,3,4,3,4,3,4,3,4,3,4,3,4,3,34,28,35,17,35,17,16,17,16,17,16,17,16,17,116,106,107,106,107,106,123,17,55,57,34,28,35,17,16,124,118,119,118,119,123,17,55,57,3,4,3,4,3,4,3,4,3,4,3,4,3,4,3,4,3,4,3,4,3,4,3,4,3,4,3,4,3,4,3,4,3,4,3,4,3,4,3,4,3,4,3,4,3,4,
1,2,1,2,1,2,1,2,1,2,1,2,1,2,1,2,1,2,1,2,1,2,1,2,1,2,1,2,1,2,1,2,1,2,1,2,1,2,1,2,1,2,1,2,1,19,46,47,48,49,48,49,66,67,55,150,151,150,151,150,151,150,151,150,151,150,151,150,151,150,151,150,151,28,46,47,66,67,113,114,113,114,113,114,113,114,113,114,113,114,113,114,111,117,113,114,113,114,113,114,113,114,113,114,113,114,113,114,113,114,113,114,113,114,113,114,113,114,113,114,111,114,111,114,111,114,111,114,111,114,111,121,54,55,56,2,1,2,1,2,1,6,113,114,113,114,113,114,111,117,54,55,56,2,1,2,1,2,1,2,1,2,1,2,1,2,1,2,1,2,1,2,1,2,1,2,1,11,12,13,21,2,1,6,12,13,12,13,21,2,1,2,1,2,1,2,1,2,1,2,1,2,125,2,1,2,1,2,125,2,125,2,1,2,1,2,1,6,46,47,48,49,48,49,48,49,48,49,48,49,48,49,48,49,33,13,146,147,137,137,137,137,137,137,137,140,12,13,46,47,48,49,48,49,48,49,48,49,48,49,48,49,48,49,48,49,48,49,91,92,101,102,48,49,66,67,199,189,189,189,189,193,12,30,31,32,31,32,31,32,48,49,48,49,48,49,48,49,77,78,79,80,81,82,83,49,48,49,48,49,48,49,48,49,48,49,48,49,48,49,48,49,48,49,48,49,48,49,48,49,66,67,7,2,1,2,1,2,1,2,1,2,1,2,1,2,1,2,1,2,1,2,1,2,1,2,1,2,1,2,1,2,1,2,1,2,1,2,1,2,1,2,1,2,1,2,1,2,1,2,1,2,1,2,1,2,1,2,1,2,1,2,1,2,1,2,1,2,1,2,1,2,1,2,1,11,12,13,12,13,14,2,1,2,1,2,1,2,1,2,1,2,1,2,1,2,1,2,1,27,42,43,68,69,28,29,12,13,12,13,12,13,122,114,111,114,111,121,12,13,14,2,1,27,42,43,68,69,28,29,54,55,44,45,56,2,1,2,1,2,1,2,1,2,1,2,1,2,1,2,1,2,1,2,1,2,1,2,1,2,1,2,1,2,1,2,1,2,1,2,1,2,1,2,1,2,1,2,1,2,1,2,
3,4,3,4,3,4,3,4,3,4,3,4,3,4,3,4,3,4,3,4,3,4,3,4,3,4,3,4,3,4,3,4,3,4,3,4,3,4,3,4,3,4,3,4,3,20,59,60,61,62,61,62,70,71,155,159,159,159,159,159,159,159,159,159,159,159,159,159,159,159,159,159,159,160,59,60,70,71,116,106,107,106,107,106,107,106,107,106,107,106,107,106,107,120,116,106,107,106,107,106,107,106,107,106,107,106,107,106,107,106,107,106,107,106,107,106,107,106,107,106,118,119,118,119,118,119,118,119,118,119,123,17,55,57,3,4,3,4,3,4,8,9,116,106,107,106,107,106,107,120,55,57,3,4,3,4,3,4,3,4,3,4,3,4,3,4,3,4,3,4,3,4,3,4,3,4,3,15,16,17,16,26,8,9,16,17,16,17,16,26,5,3,4,3,4,3,4,3,4,3,4,3,126,127,3,4,3,4,126,127,126,127,3,4,3,4,8,9,59,60,61,62,61,62,61,62,61,62,61,62,61,62,61,62,40,41,16,146,147,137,137,137,137,137,137,141,16,17,59,60,61,62,61,62,61,62,72,73,74,75,76,62,61,62,61,62,61,62,61,62,61,62,61,62,70,71,200,189,189,189,189,194,36,37,38,39,38,39,38,39,61,62,61,62,61,62,61,62,84,85,86,87,88,89,90,62,61,62,61,62,61,62,61,62,61,62,72,73,74,75,76,62,61,62,61,62,61,62,61,62,70,71,10,3,4,3,4,3,4,3,4,3,4,3,4,3,4,3,4,3,4,3,4,3,4,3,4,3,4,3,4,3,4,3,4,3,4,3,4,3,4,3,4,3,4,3,4,3,4,3,4,3,4,3,4,3,4,3,4,3,4,3,4,3,4,3,4,3,4,3,4,3,4,3,4,15,16,17,17,35,18,3,4,3,4,3,4,3,4,3,4,3,4,3,4,3,4,3,4,3,4,57,3,4,34,28,16,17,16,17,16,17,16,124,118,119,123,17,17,35,18,3,4,3,4,57,3,4,34,28,55,57,58,57,3,4,3,4,3,4,3,4,3,4,3,4,3,4,3,4,3,4,3,4,3,4,3,4,3,4,3,4,3,4,3,4,3,4,3,4,3,4,3,4,3,4,3,4,3,4,3,4,
1,2,1,2,1,2,1,2,1,2,1,2,1,2,1,2,1,2,1,2,1,2,1,2,1,2,1,2,1,2,1,2,1,2,1,2,1,2,1,2,1,2,1,2,1,11,109,110,48,49,48,49,66,67,167,159,159,159,159,159,159,159,159,159,159,159,159,159,159,159,159,159,159,168,46,47,66,67,113,114,113,114,113,114,113,114,113,114,113,114,113,114,111,121,113,114,113,114,113,114,113,114,113,114,113,114,113,114,113,114,113,114,113,114,113,114,113,114,111,121,12,103,111,112,111,112,111,112,111,112,104,13,21,2,1,2,1,2,1,6,12,103,113,114,113,114,113,114,111,117,7,2,1,2,1,2,1,2,1,2,1,2,1,2,1,2,1,2,1,2,1,2,1,2,1,2,1,19,12,13,12,13,12,13,12,13,12,13,12,13,7,2,1,2,1,2,1,2,1,2,125,2,125,2,1,2,125,2,125,2,125,2,1,2,1,6,12,13,46,47,48,49,48,49,48,49,48,49,48,49,48,49,48,49,48,49,33,13,146,147,137,137,137,137,154,182,12,13,46,47,48,49,48,49,77,78,79,80,81,82,83,49,48,49,48,49,48,49,48,49,48,49,48,49,66,67,201,202,189,189,189,193,46,47,48,49,48,49,48,49,48,49,48,49,48,49,48,49,91,92,93,94,95,96,48,49,48,49,48,49,48,49,48,49,77,78,79,80,81,82,83,49,48,49,48,49,48,49,48,49,66,67,14,2,1,2,1,2,1,2,1,2,1,2,1,2,1,2,1,2,1,2,1,2,1,2,1,2,1,2,1,2,1,2,1,2,1,2,1,2,1,2,1,2,1,2,1,2,1,2,1,2,1,2,1,2,1,2,1,2,1,2,1,2,1,2,1,2,1,2,1,2,1,2,1,19,12,13,54,55,56,2,1,2,1,2,1,2,1,2,1,2,1,2,1,2,1,2,1,2,1,2,1,2,1,6,12,13,12,13,12,13,12,13,12,13,12,13,54,55,56,2,1,2,1,2,1,2,1,27,56,2,1,2,1,2,1,2,1,2,1,2,1,2,1,2,1,2,1,2,1,2,1,2,1,2,1,2,1,2,1,2,1,2,1,2,1,2,1,2,1,2,1,2,1,2,1,2,1,2,1,2,
3,4,3,4,3,4,3,4,3,4,3,4,3,4,3,4,3,4,3,4,3,4,3,4,3,4,3,4,3,4,3,4,3,4,3,4,3,4,3,4,3,4,3,4,3,15,16,115,61,62,61,62,70,71,155,159,159,159,159,159,159,159,159,159,159,159,159,159,159,159,159,159,159,160,59,60,70,71,116,106,107,106,107,106,107,106,107,106,107,106,107,106,123,17,116,106,107,106,107,106,107,106,107,106,107,106,107,106,107,106,107,106,107,106,107,106,107,106,123,17,105,106,107,106,107,106,107,106,107,106,107,108,16,26,22,23,24,25,8,9,105,106,107,106,107,106,107,106,107,120,10,3,4,3,4,3,4,3,4,3,4,3,4,3,4,3,4,3,4,3,4,3,4,3,4,3,4,20,35,17,16,17,16,17,16,17,16,17,16,17,10,3,4,3,4,3,4,3,4,3,126,127,126,127,3,4,126,127,126,127,126,127,3,4,8,9,35,17,59,60,61,62,61,62,61,62,61,62,61,62,61,62,61,62,61,62,40,41,16,146,148,149,148,149,182,17,16,17,59,60,61,62,61,62,84,85,86,87,88,89,90,62,61,62,61,62,61,62,61,62,61,62,61,62,70,71,16,203,204,189,189,194,59,60,61,62,61,62,61,62,61,62,61,62,61,62,61,62,61,62,97,98,99,100,61,62,61,62,61,62,61,62,61,62,84,85,86,87,88,89,90,62,61,62,72,73,74,75,76,62,70,71,18,3,4,3,4,3,4,3,4,3,4,3,4,3,4,3,4,3,4,3,4,3,4,3,4,3,4,3,4,3,4,3,4,3,4,3,4,3,4,3,4,3,4,3,4,3,4,3,4,3,4,3,4,3,4,3,4,3,4,3,4,3,4,3,4,3,4,3,4,3,4,3,4,20,16,17,55,57,3,4,3,4,3,4,3,4,3,4,3,4,3,4,3,4,3,4,3,4,3,4,3,4,8,9,16,17,16,17,16,17,16,17,16,17,16,17,55,57,3,4,3,4,3,4,3,4,3,4,3,4,3,4,3,4,3,4,3,4,3,4,3,4,3,4,3,4,3,4,3,4,3,4,3,4,3,4,3,4,3,4,3,4,3,4,3,4,3,4,3,4,3,4,3,4,3,4,3,4,3,4,
1,2,1,2,1,2,1,2,1,2,1,2,1,2,1,2,1,2,1,2,1,2,1,2,1,2,1,2,1,2,1,2,1,2,1,2,1,2,1,2,1,2,1,2,1,6,12,30,48,49,48,49,66,67,167,159,159,159,159,159,159,159,159,159,159,159,159,159,159,159,159,159,159,168,46,47,66,67,113,114,113,114,113,114,113,114,113,114,113,114,111,117,12,103,113,114,113,114,113,114,113,114,113,114,113,114,113,114,113,114,113,114,113,114,113,114,111,117,12,103,113,114,113,114,113,114,113,114,113,114,113,114,111,112,111,112,104,13,12,103,113,114,113,114,113,114,113,114,111,117,14,2,1,2,1,2,1,2,1,2,1,2,1,2,1,2,1,2,1,2,1,2,1,2,1,2,1,27,28,29,12,103,111,112,111,112,104,13,12,13,7,2,1,2,1,2,1,2,1,2,125,2,1,2,125,2,125,2,125,2,1,2,1,27,42,43,28,29,109,110,50,51,48,49,48,49,48,49,48,49,48,49,48,49,48,49,66,67,12,13,12,13,12,13,12,13,12,30,48,49,48,49,48,49,91,92,93,94,95,96,48,49,48,49,48,49,48,49,48,49,48,49,48,49,48,49,33,13,201,202,195,13,109,110,50,51,142,143,50,51,48,49,48,49,48,49,48,49,48,49,91,92,101,102,48,49,48,49,48,49,48,49,48,49,91,92,93,94,95,96,48,49,77,78,79,80,81,82,83,49,66,67,7,2,1,2,1,2,1,2,1,2,1,2,1,2,1,2,1,2,1,2,1,2,1,2,1,2,1,2,1,2,1,2,1,2,1,2,1,2,1,2,1,2,1,2,1,2,1,2,1,2,1,2,1,2,1,2,1,2,1,2,1,2,1,2,1,2,1,2,1,2,1,2,1,11,12,13,14,2,1,2,1,2,1,2,1,2,1,2,1,2,1,2,1,2,1,2,1,2,1,2,1,27,28,29,12,13,12,13,12,13,12,13,12,13,12,13,21,2,1,2,1,2,1,2,1,2,1,2,1,2,1,2,1,2,1,2,1,2,1,2,1,2,1,2,1,2,1,2,1,2,1,2,1,2,1,2,1,2,1,2,1,2,1,2,1,2,1,2,1,2,1,2,1,2,1,2,1,2,1,2,
3,4,3,4,3,4,3,4,3,4,3,4,3,4,3,4,3,4,3,4,3,4,3,4,3,4,3,4,3,4,3,4,3,4,3,4,3,4,3,4,3,4,3,4,8,9,36,37,61,62,61,62,70,71,155,159,159,159,159,159,159,159,159,159,159,159,159,159,159,159,159,159,159,160,59,60,70,71,116,106,107,106,107,106,107,106,107,106,107,106,107,120,105,106,107,106,107,106,107,106,107,106,107,106,107,106,107,106,107,106,107,106,107,106,107,106,107,120,105,106,107,106,107,106,107,106,107,106,107,106,107,106,107,106,107,106,107,108,105,106,107,106,107,106,107,106,107,106,107,120,18,3,4,3,4,3,4,3,4,3,4,3,4,3,4,3,4,3,4,3,4,3,4,3,4,3,4,3,34,28,105,106,107,106,107,106,107,108,16,17,10,3,4,3,4,3,4,3,4,3,126,127,3,4,126,127,126,127,126,127,3,4,3,4,3,57,34,28,16,115,63,64,61,62,61,62,61,62,61,62,61,62,61,62,61,62,70,71,16,17,16,17,16,17,16,17,36,37,61,62,61,62,61,62,61,62,97,98,99,100,61,62,61,62,72,73,74,75,76,62,61,62,61,62,61,62,40,41,16,203,16,17,16,115,63,64,144,145,63,64,61,62,61,62,61,62,61,62,61,62,61,62,61,62,61,62,61,62,72,73,74,75,76,62,61,62,97,98,99,100,61,62,84,85,86,87,88,89,90,62,70,71,10,3,4,3,4,3,4,3,4,3,4,3,4,3,4,3,4,3,4,3,4,3,4,3,4,3,4,3,4,3,4,3,4,3,4,3,4,3,4,3,4,3,4,3,4,3,4,3,4,3,4,3,4,3,4,3,4,3,4,3,4,3,4,3,4,3,4,3,4,3,4,3,4,15,16,17,18,3,4,3,4,3,4,3,4,3,4,3,4,3,4,3,4,3,4,3,4,3,4,3,4,3,34,28,35,17,16,17,16,17,16,17,16,17,16,17,16,26,5,3,4,3,4,3,4,3,4,3,4,3,4,3,4,3,4,3,4,3,4,3,4,3,4,3,4,3,4,3,4,3,4,3,4,3,4,3,4,3,4,3,4,3,4,3,4,3,4,3,4,3,4,3,4,3,4,3,4,3,4,3,
1,2,1,2,1,2,1,2,1,2,1,2,1,2,1,2,1,2,1,2,1,2,1,2,1,2,1,2,1,2,1,2,1,2,1,2,1,2,1,2,1,2,1,19,12,13,109,110,48,49,48,49,66,67,167,159,159,159,159,159,159,159,159,159,159,159,159,159,159,159,159,159,159,168,46,47,66,67,113,114,113,114,113,114,113,114,113,114,113,114,111,117,113,114,113,114,113,114,113,114,113,114,113,114,113,114,113,114,113,114,113,114,113,114,113,114,111,117,113,114,113,114,113,114,113,114,113,114,113,114,113,114,113,114,113,114,113,114,113,114,113,114,113,114,113,114,113,114,111,117,7,2,1,2,1,2,1,2,1,2,1,2,1,2,1,2,1,2,1,2,1,2,1,2,1,2,1,2,1,11,113,114,113,114,113,114,111,117,12,13,14,2,1,2,1,2,1,2,1,2,125,2,125,2,125,2,125,2,1,2,1,2,125,2,1,2,1,27,42,43,28,29,46,47,48,49,48,49,48,49,48,49,48,49,48,49,48,49,33,13,12,13,12,13,12,30,48,49,48,49,48,49,48,49,48,49,91,92,101,102,48,49,77,78,79,80,81,82,83,49,48,49,48,49,48,49,48,49,33,13,12,13,12,13,12,183,184,185,186,13,109,110,48,49,48,49,48,49,48,49,48,49,48,49,48,49,77,78,79,80,81,82,83,49,48,49,91,92,101,102,48,49,91,92,93,94,95,96,48,49,66,67,14,2,1,2,1,2,1,2,1,2,1,2,1,2,1,2,1,2,1,2,1,2,1,2,1,2,1,2,1,2,1,2,1,2,1,2,1,2,1,2,1,2,1,2,1,2,1,2,1,2,1,2,1,2,1,2,1,2,1,2,1,2,1,2,1,2,1,2,1,2,1,2,1,11,54,55,56,2,1,2,1,2,1,2,1,2,1,2,1,2,1,2,1,2,1,2,1,2,1,2,1,2,1,27,42,43,68,69,28,29,12,13,12,132,135,13,12,13,14,2,1,2,1,2,1,2,1,2,1,2,1,2,1,2,1,2,1,2,1,2,1,2,1,2,1,2,1,2,1,2,1,2,1,2,1,2,1,2,1,2,1,2,1,2,1,2,1,2,1,2,1,2,1,2,1,2,1,2,1,2,
3,4,3,4,3,4,3,4,3,4,3,4,3,4,3,4,3,4,3,4,3,4,3,4,3,4,3,4,3,4,3,4,3,4,3,4,3,4,3,4,3,4,3,20,35,17,16,115,61,62,61,62,70,71,21,158,157,158,157,158,157,158,157,158,157,158,159,159,159,159,159,156,157,6,59,60,70,71,116,106,107,106,107,106,107,106,107,106,107,106,107,120,116,106,107,106,107,106,107,106,107,106,107,106,107,106,107,106,107,106,107,106,107,106,107,106,107,120,116,106,107,106,107,106,107,106,107,106,107,106,107,106,107,106,107,106,107,106,107,106,107,106,107,106,107,106,107,106,107,120,10,3,4,3,4,3,4,3,4,3,4,3,4,3,4,3,4,3,4,3,4,3,4,3,4,3,4,3,4,15,116,106,107,106,107,106,107,120,16,17,18,3,4,3,4,3,4,3,4,3,126,127,126,127,126,127,126,127,3,4,3,4,126,127,3,4,3,4,3,57,34,28,59,60,61,62,61,62,61,62,61,62,61,62,61,62,61,62,40,41,16,17,16,17,36,37,61,62,61,62,61,62,61,62,61,62,61,62,61,62,61,62,84,85,86,87,88,89,90,62,61,62,61,62,61,62,61,62,40,41,16,17,16,17,187,188,189,189,190,191,16,115,61,62,61,62,61,62,61,62,61,62,61,62,61,62,84,85,86,87,88,89,90,62,61,62,61,62,61,62,61,62,61,62,97,98,99,100,61,62,70,71,18,3,4,3,4,3,4,3,4,3,4,3,4,3,4,3,4,3,4,3,4,3,4,3,4,3,4,3,4,3,4,3,4,3,4,3,4,3,4,3,4,3,4,3,4,3,4,3,4,3,4,3,4,3,4,3,4,3,4,3,4,3,4,3,4,3,4,3,4,3,4,3,4,15,55,57,3,4,3,4,3,4,3,4,3,4,3,4,3,4,3,4,3,4,3,4,3,4,3,4,3,4,3,4,3,57,3,4,34,28,16,17,132,136,137,135,16,17,18,3,4,3,4,3,4,3,4,3,4,3,4,3,4,3,4,3,4,3,4,3,4,3,4,3,4,3,4,3,4,3,4,3,4,3,4,3,4,3,4,3,4,3,4,3,4,3,4,3,4,3,4,3,4,3,4,3,4,3,4,3,
1,2,1,2,1,2,1,2,1,2,1,2,1,2,1,2,1,2,1,2,1,2,1,2,1,2,1,2,1,2,1,2,1,2,1,2,1,2,1,2,1,2,1,27,68,69,28,29,109,110,50,51,48,49,31,32,31,32,31,32,31,32,31,32,33,13,167,159,159,159,159,168,12,30,48,49,66,67,113,114,113,114,113,114,113,114,113,114,113,114,111,117,113,114,113,114,113,114,113,114,113,114,113,114,113,114,113,114,113,114,113,114,113,114,113,114,111,117,113,114,113,114,113,114,113,114,113,114,113,114,113,114,113,114,113,114,113,114,113,114,113,114,113,114,113,114,113,114,111,117,14,2,1,2,1,2,1,2,1,2,1,2,1,2,1,2,1,2,1,2,1,2,1,2,1,2,1,2,1,19,113,114,113,114,113,114,111,117,12,13,7,2,1,2,1,2,1,2,1,2,125,2,1,2,125,2,125,2,125,2,125,2,1,2,1,2,1,2,1,2,1,6,109,110,50,51,48,49,48,49,48,49,48,49,48,49,48,49,48,49,31,32,31,32,48,49,48,49,48,49,48,49,48,49,48,49,48,49,48,49,48,49,91,92,93,94,95,96,48,49,48,49,48,49,48,49,48,49,48,49,31,32,33,13,201,202,189,189,195,13,12,30,48,49,48,49,48,49,48,49,48,49,48,49,48,49,91,92,93,94,95,96,48,49,48,49,48,49,48,49,48,49,48,49,91,92,101,102,48,49,66,67,7,2,1,2,1,2,1,2,1,2,1,2,1,2,1,2,1,2,1,2,1,2,1,2,1,2,1,2,1,2,1,2,1,2,1,2,1,2,1,2,1,2,1,2,1,2,1,2,1,2,1,2,1,2,1,2,1,2,1,2,1,2,1,2,1,2,1,2,1,2,1,2,1,27,56,2,1,2,1,2,1,2,1,2,1,2,1,2,1,2,1,2,1,2,1,2,1,2,1,2,1,2,1,2,1,2,1,2,1,6,12,132,136,137,137,140,12,13,7,2,1,2,1,2,1,2,1,2,1,2,1,2,1,2,1,2,1,2,1,2,1,2,1,2,1,2,1,2,1,2,1,2,1,2,1,2,1,2,1,2,1,2,1,2,1,2,1,2,1,2,1,2,1,2,1,2,1,2,1,2,
3,4,3,4,3,4,3,4,3,4,3,4,3,4,3,4,3,4,3,4,3,4,3,4,3,4,3,4,3,4,3,4,3,4,3,4,3,4,3,4,3,4,3,4,3,4,34,28,16,115,63,64,61,62,38,39,38,39,38,39,38,39,38,39,40,41,155,159,159,159,159,160,36,37,61,62,70,71,116,106,107,106,107,106,107,106,107,106,107,106,107,120,116,106,107,106,107,106,107,106,107,106,107,106,107,106,107,106,107,106,107,106,107,106,107,106,107,120,116,106,107,106,107,106,107,106,107,106,107,106,107,106,107,106,107,106,107,106,107,106,107,106,107,106,107,106,107,106,107,120,18,3,4,3,4,3,4,3,4,3,4,3,4,3,4,3,4,3,4,3,4,3,4,3,4,3,4,3,4,20,116,106,107,106,107,106,107,120,16,17,10,3,4,3,4,3,4,3,4,3,126,127,3,4,126,127,126,127,126,127,126,127,3,4,3,4,3,4,22,23,8,9,16,115,63,64,61,62,61,62,61,62,61,62,61,62,61,62,61,62,38,39,38,39,61,62,61,62,61,62,61,62,61,62,61,62,61,62,61,62,61,62,61,62,97,98,99,100,61,62,61,62,61,62,61,62,61,62,61,62,38,39,40,41,16,203,197,198,16,17,36,37,61,62,61,62,61,62,61,62,61,62,61,62,61,62,61,62,97,98,99,100,61,62,61,62,61,62,61,62,61,62,61,62,61,62,61,62,61,62,70,71,10,3,4,3,4,3,4,3,4,3,4,3,4,3,4,3,4,3,4,3,4,3,4,3,4,3,4,3,4,3,4,3,4,3,4,3,4,3,4,3,4,3,4,3,4,3,4,3,4,3,4,3,4,3,4,3,4,3,4,3,4,3,4,3,4,3,4,3,4,3,4,3,4,3,4,3,4,3,4,3,4,3,4,3,4,3,4,3,4,3,4,3,4,3,4,3,4,3,4,3,4,3,4,4,22,23,24,25,8,9,132,136,137,137,137,141,16,17,10,3,4,3,4,3,4,3,4,3,4,3,4,3,4,3,4,3,4,3,4,3,4,3,4,3,4,3,4,3,4,3,4,3,4,3,4,3,4,3,4,3,4,3,4,3,4,3,4,3,4,3,4,3,4,3,4,3,4,3,4,3,
1,2,1,2,1,2,1,2,1,2,1,2,1,2,1,2,1,2,1,2,1,2,1,2,1,2,1,2,1,2,1,2,1,2,1,2,1,2,1,2,1,2,1,2,1,2,1,27,42,43,28,29,109,110,48,49,48,49,48,49,48,49,48,49,66,67,205,206,205,206,205,206,46,47,48,49,66,67,122,114,111,114,113,114,113,114,113,114,113,114,111,117,113,114,113,114,113,114,113,114,113,114,113,114,113,114,113,114,113,114,113,114,113,114,113,114,111,117,113,114,113,114,113,114,113,114,113,114,113,114,113,114,113,114,113,114,113,114,113,114,113,114,113,114,113,114,113,114,111,117,14,2,1,2,1,2,1,2,1,2,1,2,1,2,1,2,1,2,1,2,1,2,1,2,1,2,1,2,1,11,122,114,111,114,113,114,111,117,12,13,14,2,1,2,1,2,1,2,1,2,125,2,125,2,125,2,125,2,125,2,125,2,1,2,1,2,1,6,12,132,133,134,133,134,135,13,109,110,48,49,48,49,48,49,48,49,48,49,48,49,48,49,48,49,48,49,48,49,48,49,48,49,48,49,48,49,48,49,48,49,48,49,48,49,91,92,101,102,48,49,48,49,48,49,48,49,48,49,48,49,48,49,48,49,31,32,31,32,31,32,48,49,48,49,48,49,48,49,48,49,48,49,48,49,48,49,48,49,91,92,101,102,48,49,48,49,48,49,48,49,48,49,48,49,48,49,48,49,48,49,66,67,14,2,1,2,1,2,1,2,1,2,1,2,1,2,1,2,1,2,1,2,1,2,1,2,1,2,1,2,1,2,1,2,1,2,1,2,1,2,1,2,1,2,1,2,1,2,1,2,1,2,1,2,1,2,1,2,1,2,1,2,1,2,1,2,1,2,1,2,1,2,1,2,1,2,1,2,1,2,1,2,1,2,1,2,1,2,1,2,1,2,1,2,1,2,1,2,1,2,1,2,1,2,1,6,12,13,12,13,12,13,138,137,137,137,137,137,135,13,21,2,1,2,1,2,1,2,1,2,1,2,1,2,1,2,1,2,1,2,1,2,1,2,1,2,1,2,1,2,1,2,1,2,1,2,1,2,1,2,1,2,1,2,1,2,1,2,1,2,1,2,1,2,1,2,1,2,1,2,1,2,
3,4,3,4,3,4,3,4,3,4,3,4,3,4,3,4,3,4,3,4,3,4,3,4,3,4,3,4,3,4,3,4,3,4,3,4,3,4,3,4,3,4,3,4,3,4,3,4,3,57,34,28,16,115,61,62,61,62,61,62,61,62,61,62,70,71,207,208,207,208,207,208,59,60,61,62,70,71,16,124,118,119,107,106,107,106,107,106,107,106,107,120,116,106,107,106,107,106,107,106,107,106,107,106,107,106,107,106,107,106,107,106,107,106,107,106,107,120,116,106,107,106,107,106,107,106,107,106,107,106,107,106,107,106,107,106,107,106,107,106,107,106,107,106,107,106,107,106,107,120,18,3,4,3,4,3,4,3,4,3,4,3,4,3,4,3,4,3,4,3,4,3,4,3,4,3,4,3,4,15,16,124,118,119,107,106,107,120,16,17,18,3,4,3,4,3,4,3,4,3,126,127,126,127,126,127,126,127,126,127,126,127,3,4,3,4,8,9,132,136,137,137,137,137,137,135,16,115,61,62,61,62,61,62,61,62,61,62,61,62,61,62,61,62,61,62,61,62,61,62,61,62,61,62,61,62,61,62,61,62,61,62,61,62,61,62,61,62,61,62,61,62,61,62,61,62,61,62,61,62,61,62,61,62,38,39,38,39,38,39,61,62,61,62,61,62,61,62,61,62,61,62,61,62,61,62,61,62,61,62,61,62,61,62,61,62,61,62,61,62,61,62,61,62,61,62,61,62,61,62,70,71,18,3,4,3,4,3,4,3,4,3,4,3,4,3,4,3,4,3,4,3,4,3,4,3,4,3,4,3,4,3,4,3,4,3,4,3,4,3,4,3,4,3,4,3,4,3,4,3,4,3,4,3,4,3,4,3,4,3,4,3,4,3,4,3,4,3,4,3,4,3,4,3,4,3,4,3,4,3,4,3,4,3,4,3,4,3,4,4,22,23,24,25,22,23,24,25,5,3,4,3,4,4,8,9,16,17,16,17,16,17,139,137,137,137,137,137,137,135,16,26,24,25,5,3,4,3,4,3,4,3,4,3,4,3,4,3,4,3,4,3,4,3,4,3,4,3,4,3,4,3,4,3,4,3,4,3,4,3,4,3,4,3,4,3,4,3,4,3,4,3,4,3,4,3,4,3,4,3,4,3,
1,2,1,2,1,2,1,2,1,2,1,2,1,2,1,2,1,2,1,2,1,2,1,2,1,2,1,2,1,2,1,2,1,2,1,2,1,2,1,2,1,2,1,2,1,2,1,2,1,2,1,27,28,29,109,110,48,49,48,49,48,49,48,49,66,67,205,206,205,206,205,206,46,47,48,49,66,67,163,164,165,166,113,114,113,114,113,114,113,114,111,117,113,114,113,114,113,114,113,114,113,114,113,114,113,114,113,114,113,114,113,114,113,114,113,114,111,117,113,114,113,114,113,114,113,114,113,114,113,114,113,114,113,114,113,114,113,114,113,114,113,114,113,114,113,114,113,114,111,117,7,2,1,2,1,2,1,2,1,2,1,2,1,2,1,2,1,2,1,2,1,2,1,2,1,2,1,2,1,27,28,29,12,13,122,114,111,121,54,55,56,2,1,2,1,2,1,2,1,2,125,2,1,2,125,2,1,2,125,2,125,2,1,2,1,19,12,132,136,137,137,137,137,137,137,137,135,13,46,47,48,49,48,49,48,49,48,49,48,49,48,49,50,51,50,51,48,49,48,49,48,49,48,49,48,49,48,49,48,49,48,49,48,49,48,49,48,49,48,49,48,49,48,49,48,49,48,49,48,49,48,49,48,49,48,49,48,49,48,49,48,49,48,49,48,49,48,49,48,49,48,49,48,49,48,49,48,49,48,49,48,49,48,49,48,49,52,53,109,110,48,49,48,49,48,49,48,49,48,49,52,53,7,2,1,2,1,2,1,2,1,2,1,2,1,2,1,2,1,2,1,2,1,2,1,2,1,2,1,2,1,2,1,2,1,2,1,2,1,2,1,2,1,2,1,2,1,2,1,2,1,2,1,2,1,2,1,2,1,2,1,2,1,2,1,2,1,2,1,2,1,2,1,2,1,2,1,2,1,2,1,2,1,2,1,2,1,2,1,27,28,29,12,13,12,13,12,13,21,2,1,2,1,6,12,13,12,13,12,132,133,134,136,137,137,137,137,137,137,140,12,13,12,13,21,2,1,2,1,2,1,2,1,2,1,2,1,2,1,2,1,2,1,2,1,2,1,2,1,2,1,2,1,2,1,2,1,2,1,2,1,2,1,2,1,2,1,2,1,2,1,2,1,2,1,2,1,2,1,2,1,2,
3,4,3,4,3,4,3,4,3,4,3,4,3,4,3,4,3,4,3,4,3,4,3,4,3,4,3,4,3,4,3,4,3,4,3,4,3,4,3,4,3,4,3,4,3,4,3,4,3,4,3,4,34,28,16,115,61,62,61,62,61,62,61,62,70,71,207,208,207,208,207,208,59,60,61,62,70,71,169,170,171,172,116,106,107,106,107,106,107,106,107,120,116,106,107,106,107,106,107,106,107,106,107,106,107,106,107,106,107,106,107,106,107,106,107,106,107,120,116,106,107,106,107,106,107,106,107,106,107,106,107,106,107,106,107,106,107,106,107,106,107,106,107,106,107,106,107,106,107,120,10,3,4,3,4,3,4,3,4,3,4,3,4,3,4,3,4,3,4,3,4,3,4,3,4,3,4,3,4,3,34,28,35,17,16,124,123,17,55,57,3,4,3,4,3,4,3,4,3,4,126,127,3,4,126,127,3,4,126,127,126,127,3,4,3,20,132,136,137,137,137,137,137,137,137,137,137,135,59,60,61,62,61,62,61,62,61,62,61,62,61,62,63,64,63,64,61,62,61,62,61,62,61,62,61,62,61,62,61,62,61,62,61,62,61,62,61,62,72,73,74,75,76,62,61,62,61,62,61,62,61,62,61,62,61,62,61,62,61,62,61,62,61,62,61,62,61,62,61,62,61,62,61,62,72,73,74,75,76,62,61,62,61,62,61,62,65,17,16,115,61,62,61,62,61,62,61,62,61,62,65,17,10,3,4,3,4,3,4,3,4,3,4,3,4,3,4,3,4,3,4,3,4,3,4,3,4,3,4,3,4,3,4,3,4,3,4,3,4,3,4,3,4,3,4,3,4,3,4,3,4,3,4,3,4,3,4,3,4,3,4,3,4,3,4,3,4,3,4,3,4,3,4,3,4,3,4,3,4,3,4,3,4,3,4,3,4,3,4,3,34,28,35,17,16,17,16,17,16,26,22,23,8,9,16,17,16,17,132,136,137,137,137,137,137,137,137,137,137,141,16,17,16,17,16,26,5,3,4,3,4,3,4,3,4,3,4,3,4,3,4,3,4,3,4,3,4,3,4,3,4,3,4,3,4,3,4,3,4,3,4,3,4,3,4,3,4,3,4,3,4,3,4,3,4,3,4,3,4,3,4,3,
1,2,1,2,1,2,1,2,1,2,1,2,1,2,1,2,1,2,1,2,1,2,1,2,1,2,1,2,1,2,1,2,1,2,1,2,1,2,1,2,1,2,1,2,1,2,1,2,1,2,1,2,1,27,28,29,46,47,48,49,48,49,48,49,52,53,205,206,205,206,205,206,109,110,50,51,52,53,173,174,175,176,122,114,113,114,113,114,113,114,111,117,113,114,113,114,113,114,113,114,113,114,113,114,113,114,113,114,113,114,113,114,111,114,111,114,111,121,113,114,113,114,113,114,113,114,113,114,113,114,113,114,113,114,113,114,113,114,113,114,113,114,113,114,113,114,113,114,111,117,21,2,1,2,1,2,1,2,1,2,1,2,1,2,1,2,1,2,1,2,1,2,1,2,1,2,1,2,1,2,1,27,28,29,12,13,54,55,56,2,1,2,1,2,1,2,1,2,1,2,125,2,1,2,1,2,125,2,125,2,125,2,125,2,125,11,138,137,137,137,137,137,137,137,137,137,137,140,109,110,50,51,50,51,50,51,50,51,50,51,52,53,12,132,135,13,109,110,48,49,48,49,48,49,48,49,48,49,48,49,48,49,48,49,48,49,77,78,79,80,81,82,83,49,48,49,48,49,48,49,48,49,48,49,48,49,48,49,48,49,48,49,48,49,48,49,48,49,48,49,48,49,77,78,79,80,81,82,83,49,48,49,48,49,66,67,54,55,28,29,109,110,50,51,50,51,50,51,52,53,12,13,14,2,1,2,1,2,1,2,1,2,1,2,1,2,1,2,1,2,1,2,1,2,1,2,1,2,1,2,1,2,1,2,1,2,1,2,1,2,1,2,1,2,1,2,1,2,1,2,1,2,1,2,1,2,1,2,1,2,1,2,1,2,1,2,1,2,1,2,1,2,1,2,1,2,1,2,1,2,1,2,1,2,1,2,1,2,1,2,1,27,28,29,54,55,44,45,28,29,12,13,12,13,12,13,12,13,146,147,137,137,137,137,137,137,137,137,154,182,12,13,12,13,54,55,56,2,1,2,1,2,1,2,1,2,1,2,1,2,1,2,1,2,1,2,1,2,1,2,1,2,1,2,1,2,1,2,1,2,1,2,1,2,1,2,1,2,1,2,1,2,1,2,1,2,1,2,1,2,1,2,
3,4,3,4,3,4,3,4,3,4,3,4,3,4,3,4,3,4,3,4,3,4,3,4,3,4,3,4,3,4,3,4,3,4,3,4,3,4,3,4,3,4,3,4,3,4,3,4,3,4,3,4,3,4,34,28,59,60,61,62,61,62,61,62,65,17,207,208,207,208,207,208,16,115,63,64,65,17,177,178,179,180,16,124,107,106,107,106,107,106,107,120,116,106,107,106,107,106,107,106,107,106,107,106,107,106,107,106,107,106,107,106,118,119,118,119,123,17,116,106,107,106,107,106,107,106,107,106,107,106,107,106,107,106,107,106,107,106,107,106,107,106,107,106,107,106,107,106,107,120,16,26,5,3,4,3,4,3,4,3,4,3,4,3,4,3,4,3,4,3,4,3,4,3,4,3,4,3,4,3,4,3,34,28,16,17,55,57,3,4,3,4,3,4,3,4,3,4,3,4,126,127,3,4,3,4,126,127,126,127,126,127,126,127,126,15,139,137,137,137,137,137,137,137,137,137,137,141,16,115,63,64,63,64,63,64,63,64,63,64,65,17,132,136,137,135,16,115,61,62,61,62,61,62,61,62,61,62,61,62,61,62,61,62,61,62,84,85,86,87,88,89,90,62,61,62,61,62,61,62,61,62,61,62,61,62,61,62,61,62,61,62,61,62,61,62,61,62,61,62,61,62,84,85,86,87,88,89,90,62,61,62,61,62,70,71,55,57,34,28,16,115,63,64,63,64,63,64,65,17,16,17,18,3,4,3,4,3,4,3,4,3,4,3,4,3,4,3,4,3,4,3,4,3,4,3,4,3,4,3,4,3,4,3,4,3,4,3,4,3,4,3,4,3,4,3,4,3,4,3,4,3,4,3,4,3,4,3,4,3,4,3,4,3,4,3,4,3,4,3,4,3,4,3,4,3,4,3,4,3,4,3,4,3,4,3,4,3,4,3,4,3,34,28,55,57,58,57,34,28,35,17,16,17,16,17,16,17,16,146,147,137,137,137,137,137,137,154,182,17,16,17,17,35,55,57,3,4,3,4,3,4,3,4,3,4,3,4,3,4,3,4,3,4,3,4,3,4,3,4,3,4,3,4,3,4,3,4,3,4,3,4,3,4,3,4,3,4,3,4,3,4,3,4,3,4,3,4,3,4,3,4,
1,2,1,2,1,2,1,2,1,2,1,2,1,2,1,2,1,2,1,2,1,2,1,2,1,2,1,2,1,2,1,2,1,2,1,2,1,2,1,2,1,2,1,2,1,2,1,2,1,2,1,2,1,2,1,6,46,47,48,49,50,51,52,53,55,150,159,159,159,159,159,159,151,150,151,150,151,150,151,28,209,210,12,13,113,114,113,114,113,114,111,117,113,114,113,114,113,114,113,114,113,114,113,114,113,114,113,114,113,114,111,117,12,103,111,112,111,112,113,114,113,114,113,114,113,114,113,114,113,114,113,114,113,114,113,114,113,114,113,114,111,114,111,114,111,114,111,114,113,114,104,13,21,2,1,2,1,2,1,2,1,2,1,2,1,2,1,2,1,2,1,2,1,2,1,2,1,2,1,2,1,2,1,19,12,13,14,2,1,2,1,2,1,2,1,2,1,2,1,2,125,2,125,2,1,2,1,2,125,2,125,2,125,2,125,11,138,137,137,137,137,137,137,137,137,137,137,137,133,134,133,134,133,134,133,134,133,134,133,134,133,134,136,137,137,137,135,13,46,47,48,49,48,49,48,49,48,49,48,49,48,49,48,49,48,49,91,92,93,94,95,96,48,49,48,49,48,49,48,49,48,49,50,51,50,51,142,143,50,51,50,51,48,49,48,49,48,49,48,49,48,49,91,92,93,94,95,96,48,49,48,49,48,49,66,67,14,2,1,27,42,43,44,45,68,69,44,45,28,29,12,13,7,2,1,2,1,2,1,2,1,2,1,2,1,2,1,2,1,2,1,2,1,2,1,2,1,2,1,2,1,2,1,2,1,2,1,2,1,2,1,2,1,2,1,2,1,2,1,2,1,2,1,2,1,2,1,2,1,2,1,2,1,2,1,2,1,2,1,2,1,2,1,2,1,2,1,2,1,2,1,2,1,2,1,2,1,2,1,2,1,2,1,27,56,2,1,2,1,27,28,29,54,55,28,29,12,13,12,13,146,147,137,137,137,137,154,182,12,13,54,55,44,45,56,2,1,2,1,2,1,2,1,2,1,2,1,2,1,2,1,2,1,2,1,2,1,2,1,2,1,2,1,2,1,2,1,2,1,2,1,2,1,2,1,2,1,2,1,2,1,2,1,2,1,2,1,2,1,2,1,2,
3,4,3,4,3,4,3,4,3,4,3,4,3,4,3,4,3,4,3,4,3,4,3,4,3,4,3,4,3,4,3,4,3,4,3,4,3,4,3,4,3,4,3,4,3,4,3,4,3,4,3,4,3,4,8,9,59,60,61,62,63,64,65,17,155,159,159,159,159,159,159,159,159,159,159,159,159,159,159,160,211,17,16,17,116,106,107,106,107,106,107,120,116,106,107,106,107,106,107,106,107,106,107,106,107,106,107,106,107,106,107,120,105,106,107,106,107,106,107,106,107,106,107,106,107,106,107,106,107,106,107,106,107,106,107,106,107,106,107,106,118,119,118,119,118,119,118,119,107,106,107,108,16,26,5,3,4,3,4,3,4,3,4,3,4,3,4,3,4,3,4,3,4,3,4,3,4,3,4,3,4,3,4,20,17,35,18,3,4,3,4,3,4,3,4,3,4,3,4,3,126,127,126,127,3,4,3,4,126,127,126,127,126,127,126,15,139,137,137,137,137,137,137,137,137,137,137,137,137,137,137,137,137,137,137,137,137,137,137,137,137,137,137,137,137,137,137,135,59,60,61,62,61,62,61,62,61,62,61,62,61,62,61,62,61,62,61,62,97,98,99,100,61,62,61,62,61,62,61,62,61,62,63,64,63,64,144,145,63,64,63,64,61,62,61,62,61,62,61,62,61,62,61,62,97,98,99,100,61,62,61,62,61,62,70,71,18,3,4,3,4,57,58,57,3,4,58,57,34,28,35,17,10,3,4,3,4,3,4,3,4,3,4,3,4,3,4,3,4,3,4,3,4,3,4,3,4,3,4,3,4,3,4,3,4,3,4,3,4,3,4,3,4,3,4,3,4,3,4,3,4,3,4,3,4,3,4,3,4,3,4,3,4,3,4,3,4,3,4,3,4,3,4,3,4,3,4,3,4,3,4,3,4,3,4,3,4,3,4,3,4,3,4,3,4,3,4,3,4,3,34,28,55,57,34,28,35,17,16,17,16,146,147,137,137,154,182,17,17,35,55,57,58,57,3,4,3,4,3,4,3,4,3,4,3,4,3,4,3,4,3,4,3,4,3,4,3,4,3,4,3,4,3,4,3,4,3,4,3,4,3,4,3,4,3,4,3,4,3,4,3,4,3,4,3,4,3,4,3,4,3,4,
1,2,1,2,1,2,1,2,1,2,1,2,1,2,1,2,1,2,1,2,1,2,1,2,1,2,1,2,1,2,1,2,1,2,1,2,1,2,1,2,1,2,1,2,1,2,1,2,1,2,1,2,1,6,12,30,48,49,52,53,12,103,104,13,167,159,159,159,159,159,159,159,159,159,159,159,159,159,159,168,212,211,209,210,122,114,111,114,111,114,111,121,113,114,113,114,113,114,113,114,113,114,113,114,113,114,113,114,113,114,111,117,113,114,113,114,113,114,113,114,113,114,113,114,113,114,113,114,113,114,113,114,111,114,111,114,111,114,111,121,54,55,44,45,68,69,28,29,122,114,113,114,104,13,14,2,1,2,1,2,1,2,1,2,1,2,1,2,1,2,1,2,1,2,1,2,1,2,1,2,1,2,1,11,54,55,56,2,1,2,1,2,1,2,1,2,1,2,1,2,1,2,1,2,1,2,1,2,125,2,1,2,125,2,125,11,138,137,137,137,137,137,137,137,137,137,137,137,137,137,137,137,137,137,137,137,137,137,137,137,137,137,137,137,137,137,137,140,46,47,48,49,48,49,48,49,48,49,48,49,48,49,48,49,48,49,48,49,91,92,101,102,48,49,48,49,48,49,48,49,52,53,12,132,133,134,133,134,135,13,12,13,109,110,48,49,48,49,48,49,48,49,48,49,91,92,101,102,48,49,48,49,48,49,66,67,7,2,1,2,1,2,1,2,1,2,1,2,1,27,28,29,14,2,1,2,1,2,1,2,1,2,1,2,1,2,1,2,1,2,1,2,1,2,1,2,1,2,1,2,1,2,1,2,1,2,1,2,1,2,1,2,1,2,1,2,1,2,1,2,1,2,1,2,1,2,1,2,1,2,1,2,1,2,1,2,1,2,1,2,1,2,1,2,1,2,1,2,1,2,1,2,1,2,1,2,1,2,1,2,1,2,1,2,1,2,1,2,1,2,1,27,56,2,1,27,42,43,28,29,12,13,146,147,154,182,54,55,44,45,56,2,1,2,1,2,1,2,1,2,1,2,1,2,1,2,1,2,1,2,1,2,1,2,1,2,1,2,1,2,1,2,1,2,1,2,1,2,1,2,1,2,1,2,1,2,1,2,1,2,1,2,1,2,1,2,1,2,1,2,1,2,
3,4,3,4,3,4,3,4,3,4,3,4,3,4,3,4,3,4,3,4,3,4,3,4,3,4,3,4,3,4,3,4,3,4,3,4,3,4,3,4,3,4,3,4,3,4,3,4,3,4,3,4,8,9,36,37,61,62,65,17,105,106,107,108,155,159,159,159,159,159,159,159,159,159,159,159,159,159,159,160,211,209,211,17,16,124,118,119,118,119,123,17,116,106,107,106,107,106,107,106,107,106,107,106,107,106,107,106,107,106,107,120,116,106,107,106,107,106,107,106,107,106,107,106,107,106,107,106,107,106,107,106,118,119,118,119,118,119,123,17,55,57,58,57,3,4,34,28,16,124,107,106,107,108,18,3,4,3,4,3,4,3,4,3,4,3,4,3,4,3,4,3,4,3,4,3,4,3,4,3,4,3,4,15,55,57,3,4,3,4,3,4,3,4,3,4,3,4,3,4,3,4,3,4,3,4,3,4,126,127,3,4,126,127,126,15,139,137,137,137,137,137,137,137,137,137,137,137,137,137,137,137,137,137,137,137,137,137,137,137,137,137,137,137,137,137,137,141,59,60,61,62,61,62,61,62,61,62,61,62,61,62,61,62,61,62,61,62,61,62,61,62,61,62,61,62,61,62,61,62,65,17,132,136,137,137,137,137,137,135,16,17,16,115,61,62,61,62,61,62,61,62,61,62,61,62,61,62,61,62,61,62,61,62,70,71,10,3,4,3,4,3,4,3,4,3,4,3,4,3,34,28,18,3,4,3,4,3,4,3,4,3,4,3,4,3,4,3,4,3,4,3,4,3,4,3,4,3,4,3,4,3,4,3,4,3,4,3,4,3,4,3,4,3,4,3,4,3,4,3,4,3,4,3,4,3,4,3,4,3,4,3,4,3,4,3,4,3,4,3,4,3,4,3,4,3,4,3,4,3,4,3,4,3,4,3,4,3,4,3,4,3,4,3,4,3,4,3,4,3,4,3,4,3,4,3,4,57,34,28,16,17,16,146,182,17,55,57,58,57,3,4,3,4,3,4,3,4,3,4,3,4,3,4,3,4,3,4,3,4,3,4,3,4,3,4,3,4,3,4,3,4,3,4,3,4,3,4,3,4,3,4,3,4,3,4,3,4,3,4,3,4,3,4,3,4,3,4,3,4,3,4,
1,2,1,2,1,2,1,2,1,2,1,2,1,2,1,2,1,2,1,2,1,2,1,2,1,2,1,2,1,2,1,2,1,2,1,2,1,2,1,2,1,2,1,2,1,2,1,2,1,2,1,6,12,30,48,49,52,53,12,103,113,114,111,117,167,159,159,159,159,159,159,159,159,159,159,159,159,159,159,159,151,150,151,150,151,150,151,150,151,150,151,28,122,114,111,114,113,114,113,114,113,114,113,114,113,114,113,114,113,114,111,117,113,114,113,114,113,114,113,114,111,114,111,114,111,114,111,114,111,114,111,121,54,55,42,43,44,45,68,69,56,2,1,2,1,2,1,27,28,29,113,114,111,117,21,2,1,2,1,2,1,2,1,2,1,2,1,2,1,2,1,2,1,2,1,2,1,2,1,2,1,2,1,27,56,2,1,2,1,2,1,2,1,2,1,2,1,2,1,2,1,2,1,2,1,2,1,2,1,2,1,2,125,2,1,19,138,137,137,137,137,137,137,137,137,137,137,137,137,137,137,137,137,137,137,137,137,137,137,137,137,137,137,137,137,137,137,140,109,110,48,49,48,49,48,49,48,49,48,49,48,49,48,49,48,49,48,49,48,49,48,49,48,49,48,49,48,49,66,67,12,132,136,137,137,137,137,137,137,137,133,134,135,13,46,47,48,49,48,49,48,49,48,49,48,49,48,49,48,49,48,49,48,49,66,67,14,2,1,2,1,2,1,2,1,2,1,2,1,2,1,27,56,2,1,2,1,2,1,2,1,2,1,2,1,2,1,2,1,2,1,2,1,2,1,2,1,2,1,2,1,2,1,2,1,2,1,2,1,2,1,2,1,2,1,2,1,2,1,2,1,2,1,2,1,2,1,2,1,2,1,2,1,2,1,2,1,2,1,2,1,2,1,2,1,2,1,2,1,2,1,2,1,2,1,2,1,2,1,2,1,2,1,2,1,2,1,2,1,2,1,2,1,2,1,2,1,2,1,19,12,13,12,13,12,13,14,2,1,2,1,2,1,2,1,2,1,2,1,2,1,2,1,2,1,2,1,2,1,2,1,2,1,2,1,2,1,2,1,2,1,2,1,2,1,2,1,2,1,2,1,2,1,2,1,2,1,2,1,2,1,2,1,2,1,2,1,2,1,2,1,2,
3,4,3,4,3,4,3,4,3,4,3,4,3,4,3,4,3,4,3,4,3,4,3,4,3,4,3,4,3,4,3,4,3,4,3,4,3,4,3,4,3,4,3,4,3,4,3,4,3,4,8,9,36,37,61,62,65,17,105,106,107,106,107,120,21,158,157,158,159,159,159,159,159,159,159,159,159,159,159,156,157,158,157,158,157,158,157,158,157,158,159,160,16,124,118,119,107,106,107,106,107,106,107,106,107,106,107,106,107,106,107,120,116,106,107,106,107,106,107,106,118,119,118,119,118,119,118,119,118,119,123,17,55,57,3,57,58,57,3,4,3,4,3,4,3,4,3,4,34,28,116,106,107,120,16,26,5,3,4,3,4,3,4,3,4,3,4,3,4,3,4,3,4,3,4,3,4,3,4,3,4,3,4,3,4,3,4,3,4,3,4,3,4,3,4,3,4,3,4,3,4,3,4,3,4,3,4,3,4,3,4,3,126,127,3,20,139,137,137,137,137,137,137,137,137,137,137,137,137,137,137,137,137,137,137,137,137,137,137,137,137,137,137,137,137,137,137,141,16,115,61,62,61,62,61,62,61,62,61,62,61,62,61,62,72,73,74,75,76,62,61,62,61,62,61,62,61,62,70,71,132,136,137,137,137,137,137,137,137,137,137,137,137,135,59,60,61,62,61,62,61,62,61,62,61,62,61,62,61,62,61,62,61,62,70,71,18,3,4,3,4,3,4,3,4,3,4,3,4,3,4,3,4,3,4,3,4,3,4,3,4,3,4,3,4,3,4,3,4,3,4,3,4,3,4,3,4,3,4,3,4,3,4,3,4,3,4,3,4,3,4,3,4,3,4,3,4,3,4,3,4,3,4,3,4,3,4,3,4,3,4,3,4,3,4,3,4,3,4,3,4,3,4,3,4,3,4,3,4,3,4,3,4,3,4,3,4,3,4,3,4,3,4,3,4,3,4,3,4,3,4,3,4,3,4,3,4,3,4,20,35,17,16,17,16,17,18,3,4,3,4,3,4,3,4,3,4,3,4,3,4,3,4,3,4,3,4,3,4,3,4,3,4,3,4,3,4,3,4,3,4,3,4,3,4,3,4,3,4,3,4,3,4,3,4,3,4,3,4,3,4,3,4,3,4,3,4,3,4,3,4,3,
1,2,1,2,1,2,1,2,1,2,1,2,1,2,1,2,1,2,1,2,1,2,1,2,1,2,1,2,1,2,1,2,1,2,1,2,1,2,1,2,1,2,1,2,1,2,1,2,1,19,12,30,48,49,66,67,12,103,113,114,113,114,113,114,111,112,104,13,167,159,159,159,159,159,159,159,159,159,159,168,12,103,111,112,111,112,111,112,104,13,167,159,151,150,151,28,113,114,113,114,113,114,113,114,113,114,113,114,113,114,111,117,113,114,113,114,113,114,111,117,55,150,151,150,151,150,151,150,151,150,151,150,56,2,1,2,1,2,1,2,1,2,1,2,1,2,1,2,1,19,113,114,113,114,104,13,14,2,1,2,1,2,1,2,1,2,1,2,1,2,1,2,1,2,1,2,1,2,1,2,1,2,1,2,1,2,1,2,1,2,1,2,1,2,1,2,1,2,1,2,1,2,1,2,1,2,1,2,1,2,1,2,1,2,1,11,138,137,137,137,137,137,137,137,137,137,137,137,137,137,137,137,137,137,137,137,137,137,137,137,137,137,137,137,137,137,137,137,135,13,109,110,50,51,48,49,48,49,48,49,48,49,77,78,79,80,81,82,83,49,48,49,48,49,48,49,48,49,52,53,138,137,137,137,137,137,137,137,137,137,137,137,137,140,46,47,48,49,48,49,48,49,48,49,48,49,48,49,48,49,48,49,48,49,52,53,7,2,1,2,1,2,1,2,1,2,1,2,1,2,1,2,1,2,1,2,1,2,1,2,1,2,1,2,1,2,1,2,1,2,1,2,1,2,1,2,1,2,1,2,1,2,1,2,1,2,1,2,1,2,1,2,1,2,1,2,1,2,1,2,1,2,1,2,1,2,1,2,1,2,1,2,1,2,1,2,1,2,1,2,1,2,1,2,1,2,1,2,1,2,1,2,1,2,1,2,1,2,1,2,1,2,1,2,1,2,1,2,1,2,1,2,1,2,1,2,1,2,1,27,28,29,12,13,12,13,14,2,1,2,1,2,1,2,1,2,1,2,1,2,1,2,1,2,1,2,1,2,1,2,1,2,1,2,1,2,1,2,1,2,1,2,1,2,1,2,1,2,1,2,1,2,1,2,1,2,1,2,1,2,1,2,1,2,1,2,1,2,1,2,1,2,
3,4,3,4,3,4,3,4,3,4,3,4,3,4,3,4,3,4,3,4,3,4,3,4,3,4,3,4,3,4,3,4,3,4,3,4,3,4,3,4,3,4,3,4,3,4,3,4,3,20,36,37,61,62,70,71,105,106,107,106,107,106,107,106,107,106,107,108,21,158,159,159,159,159,159,159,159,159,159,160,105,106,107,106,107,106,107,106,107,108,21,158,157,158,159,160,116,106,107,106,107,106,107,106,107,106,107,106,107,106,107,120,116,106,107,106,107,106,107,120,155,156,157,158,157,158,157,158,157,158,157,158,5,3,4,3,4,3,4,3,4,3,4,3,4,3,4,3,4,20,116,106,107,106,107,108,18,3,4,3,4,3,4,3,4,3,4,3,4,3,4,3,4,3,4,3,4,3,4,3,4,3,4,3,4,3,4,3,4,3,4,3,4,3,4,3,4,3,4,3,4,3,4,3,4,3,4,3,4,3,4,3,4,3,4,15,139,137,137,137,137,137,137,137,137,137,137,137,137,137,137,137,137,137,137,137,137,137,137,137,137,137,137,137,137,137,137,137,137,135,16,115,63,64,61,62,61,62,61,62,61,62,84,85,86,87,88,89,90,62,61,62,61,62,61,62,61,62,65,17,139,137,137,137,137,137,137,137,137,137,137,137,137,141,59,60,61,62,61,62,61,62,61,62,61,62,61,62,61,62,61,62,61,62,65,17,10,3,4,3,4,3,4,4,5,3,4,3,4,3,4,3,4,3,4,3,4,3,4,3,4,3,4,3,4,3,4,3,4,3,4,3,4,3,4,3,4,3,4,3,4,3,4,3,4,3,4,3,4,3,4,3,4,3,4,3,4,3,4,3,4,3,4,3,4,3,4,3,4,3,4,3,4,3,4,3,4,3,4,3,4,3,4,3,4,3,4,3,4,3,4,3,4,3,4,3,4,3,4,3,4,3,4,3,4,3,4,3,4,3,4,3,4,3,4,3,4,3,4,3,34,28,35,17,16,17,18,3,4,3,4,3,4,3,4,3,4,3,4,3,4,3,4,3,4,3,4,3,4,3,4,3,4,3,4,3,4,3,4,3,4,3,4,3,4,3,4,3,4,3,4,3,4,3,4,3,4,3,4,3,4,3,4,3,4,3,4,3,4,3,4,3,
1,2,1,2,1,2,1,2,1,2,1,2,1,2,1,2,1,2,1,2,1,2,1,2,1,2,1,2,1,2,1,2,1,2,1,2,1,2,1,2,1,2,1,2,1,2,1,2,1,11,46,47,48,49,66,67,113,114,113,114,113,114,113,114,113,114,113,114,104,13,167,159,159,159,159,159,159,159,159,168,113,114,113,114,113,114,113,114,113,114,111,112,104,13,167,168,122,114,111,114,111,114,113,114,113,114,113,114,113,114,111,121,122,114,111,114,111,114,111,121,167,168,12,103,111,112,111,112,111,112,104,13,14,2,1,2,1,2,1,2,1,2,1,2,1,2,1,2,1,11,113,114,113,114,111,121,7,2,1,2,1,2,1,2,1,2,1,2,1,2,1,2,1,2,1,2,1,2,1,2,1,2,1,2,1,2,1,2,1,2,1,2,1,2,1,2,1,2,1,2,1,2,1,2,1,2,1,2,1,2,1,2,1,2,1,19,146,147,137,137,137,137,137,137,137,137,137,137,137,137,137,137,137,137,137,137,137,137,137,137,137,137,137,137,137,137,137,137,137,137,133,134,135,13,109,110,48,49,48,49,48,49,91,92,93,94,95,96,48,49,48,49,48,49,48,49,66,67,12,132,136,137,137,137,137,137,137,137,137,137,137,137,154,182,46,47,48,49,48,49,48,49,48,49,48,49,48,49,48,49,48,49,52,53,54,55,56,2,1,2,1,2,1,6,7,2,1,2,1,2,1,2,1,2,1,2,1,2,1,2,1,2,1,2,1,2,1,2,1,2,1,2,1,2,1,2,1,2,1,2,1,2,1,2,1,2,1,2,1,2,1,2,1,2,1,2,1,2,1,2,1,2,1,2,1,2,1,2,1,2,1,2,1,2,1,2,1,2,1,2,1,2,1,2,1,2,1,2,1,2,1,2,1,2,1,2,1,2,1,2,1,2,1,2,1,2,1,2,1,2,1,2,1,2,1,2,1,2,1,2,1,27,42,43,28,29,7,2,1,2,1,2,1,2,1,2,1,2,1,2,1,2,1,2,1,2,1,2,1,2,1,2,1,2,1,2,1,2,1,2,1,2,1,2,1,2,1,2,1,2,1,2,1,2,1,2,1,2,1,2,1,2,1,2,1,2,1,2,1,2,1,2,
3,4,3,4,3,4,3,4,3,4,3,4,3,4,3,4,3,4,3,4,3,4,3,4,3,4,3,4,3,4,3,4,3,4,3,4,3,4,3,4,3,4,3,4,3,4,3,4,3,15,59,60,61,62,70,71,116,106,107,106,107,106,107,106,107,106,107,106,107,108,21,158,159,156,157,158,157,158,157,6,116,106,107,106,107,106,107,106,107,106,107,106,107,108,155,160,16,124,118,119,118,119,107,106,107,106,107,106,107,106,123,17,16,124,118,119,118,119,123,17,155,160,105,106,107,106,107,106,107,106,107,108,18,3,4,3,4,3,4,3,4,3,4,3,4,3,4,3,4,15,116,106,107,106,123,17,10,3,4,3,4,3,4,3,4,3,4,3,4,3,4,3,4,3,4,3,4,3,4,3,4,3,4,3,4,3,4,3,4,3,4,3,4,3,4,3,4,3,4,3,4,3,4,3,4,3,4,3,4,3,4,3,4,3,4,20,16,146,148,149,147,137,137,137,137,137,137,137,137,137,137,137,137,137,137,137,137,137,137,137,137,137,137,137,137,137,137,137,137,137,137,137,137,135,16,115,61,62,61,62,61,62,61,62,97,98,99,100,61,62,61,62,61,62,61,62,70,71,132,136,137,137,137,137,137,137,137,137,137,137,137,154,182,17,59,60,61,62,61,62,61,62,61,62,61,62,61,62,61,62,61,62,65,17,55,57,3,4,3,4,3,4,8,9,10,3,4,3,4,3,4,3,4,3,4,3,4,3,4,3,4,3,4,3,4,3,4,3,4,3,4,3,4,3,4,3,4,3,4,3,4,3,4,3,4,3,4,3,4,3,4,3,4,3,4,3,4,3,4,3,4,3,4,3,4,3,4,3,4,3,4,3,4,3,4,3,4,3,4,3,4,3,4,3,4,3,4,3,4,3,4,3,4,3,4,3,4,3,4,3,4,3,4,3,4,3,4,3,4,3,4,3,4,3,4,3,4,3,4,3,4,3,4,57,34,28,10,3,4,3,4,3,4,3,4,3,4,3,4,3,4,3,4,3,4,3,4,3,4,3,4,3,4,3,4,3,4,3,4,3,4,3,4,3,4,3,4,3,4,3,4,3,4,3,4,3,4,3,4,3,4,3,4,3,4,3,4,3,4,3,4,3,
1,2,1,2,1,2,1,2,1,2,1,2,1,2,1,2,1,2,1,2,1,2,1,2,1,2,1,2,1,2,1,2,1,2,1,2,1,2,1,2,1,2,1,2,1,2,1,2,1,6,46,47,48,49,52,53,113,114,113,114,113,114,113,114,113,114,113,114,113,114,104,13,167,168,12,103,111,112,111,112,113,114,113,114,113,114,113,114,113,114,113,114,111,117,167,159,151,150,151,150,151,28,122,114,113,114,113,114,111,117,55,150,151,150,151,150,151,150,151,150,181,168,113,114,113,114,113,114,113,114,111,117,21,2,1,2,1,2,1,2,1,2,1,2,1,2,1,2,1,19,122,114,111,121,54,55,56,2,1,2,1,2,1,2,1,2,1,2,1,2,1,2,1,2,1,2,1,2,1,2,1,2,1,2,1,2,1,2,1,2,1,2,1,2,1,2,1,2,1,2,1,2,1,2,1,2,1,2,1,2,1,2,1,2,1,11,12,30,33,13,138,137,137,137,137,137,137,137,137,137,137,137,137,137,137,137,137,137,137,137,137,137,137,137,137,137,137,137,137,137,137,137,137,137,135,13,109,110,48,49,48,49,48,49,91,92,101,102,48,49,48,49,50,51,50,51,52,53,138,137,137,137,137,137,137,137,137,137,137,137,137,140,12,30,48,49,48,49,48,49,48,49,48,49,48,49,48,49,48,49,52,53,54,55,56,2,1,2,1,2,1,6,12,13,14,2,1,2,1,2,1,2,1,2,1,2,1,2,1,2,1,2,1,2,1,2,1,2,1,2,1,2,1,2,1,2,1,2,1,2,1,2,1,2,1,2,1,2,1,2,1,2,1,2,1,2,1,2,1,2,1,2,1,2,1,2,1,2,1,2,1,2,1,2,1,2,1,2,1,2,1,2,1,2,1,2,1,2,1,2,1,2,1,2,1,2,1,2,1,2,1,2,1,2,1,2,1,2,1,2,1,2,1,2,1,2,1,2,1,2,1,2,1,2,1,27,56,2,1,2,1,2,1,2,1,2,1,2,1,2,1,2,1,2,1,2,1,2,1,2,1,2,1,2,1,2,1,2,1,2,1,2,1,2,1,2,1,2,1,2,1,2,1,2,1,2,1,2,1,2,1,2,1,2,1,2,1,2,1,2,1,2,
3,4,3,4,3,4,3,4,3,4,3,4,3,4,3,4,3,4,3,4,3,4,3,4,3,4,3,4,3,4,3,4,3,4,3,4,3,4,3,4,3,4,24,25,22,23,24,25,8,9,59,60,61,62,65,17,116,106,107,106,107,106,107,106,107,106,107,106,107,106,107,108,155,160,105,106,107,106,107,106,107,106,107,106,107,106,107,106,107,106,107,106,107,120,21,158,157,158,157,158,159,160,16,124,107,106,107,106,107,120,155,156,157,158,157,158,157,158,157,158,157,6,116,106,107,106,107,106,107,106,107,120,16,26,24,25,5,3,4,3,4,3,4,3,4,3,4,3,4,20,16,124,123,17,55,57,3,4,3,4,3,4,3,4,3,4,3,4,3,4,3,4,3,4,3,4,3,4,3,4,3,4,3,4,3,4,3,4,3,4,3,4,3,4,3,4,3,4,3,4,3,4,3,4,3,4,3,4,3,4,3,4,3,4,3,15,36,37,40,41,139,137,137,137,137,137,137,137,137,137,137,137,137,137,137,137,137,137,137,137,137,137,137,137,137,137,137,137,137,137,137,137,137,137,137,135,16,115,61,62,61,62,61,62,61,62,61,62,61,62,61,62,63,64,63,64,65,17,139,137,137,137,137,137,137,137,137,137,137,137,137,141,36,37,61,62,61,62,61,62,61,62,61,62,61,62,61,62,61,62,65,17,55,57,3,4,3,4,24,25,8,9,16,17,18,3,4,3,4,4,24,25,22,23,5,3,4,3,4,3,4,3,4,3,4,3,4,3,4,3,4,3,4,3,4,3,4,3,4,3,4,3,4,3,4,3,4,3,4,3,4,3,4,3,4,3,4,3,4,3,4,3,4,3,4,3,4,3,4,3,4,3,4,3,4,3,4,3,4,3,4,3,4,3,4,3,4,3,4,3,4,3,4,3,4,3,4,3,4,3,4,3,4,3,4,3,4,3,4,3,4,3,4,3,4,3,4,3,4,3,4,3,4,3,4,3,4,3,4,3,4,3,4,3,4,3,4,3,4,3,4,3,4,3,4,3,4,3,4,3,4,3,4,3,4,3,4,3,4,3,4,3,4,3,4,3,4,3,4,3,4,3,4,3,4,3,4,3,4,3,4,3,4,3,4,3,4,3,4,3,4,3,
1,2,1,2,1,2,1,2,1,2,1,2,1,2,1,2,1,2,1,2,1,2,1,2,1,2,1,2,1,2,1,2,1,2,1,2,1,2,1,2,1,6,12,30,31,32,31,32,31,32,48,49,52,53,12,103,113,114,113,114,113,114,113,114,113,114,113,114,113,114,111,117,167,168,113,114,113,114,113,114,113,114,113,114,113,114,113,114,113,114,113,114,113,114,111,112,111,112,104,13,167,159,151,28,113,114,113,114,111,117,167,168,12,103,111,112,111,112,111,112,111,112,113,114,113,114,113,114,113,114,113,114,111,112,104,13,21,2,1,2,1,2,1,2,1,2,1,2,1,27,42,43,44,45,56,2,1,2,1,2,1,2,1,2,1,2,1,2,1,2,1,2,1,2,1,2,1,2,1,2,1,2,1,2,1,2,1,2,1,2,1,2,1,2,1,2,1,2,1,2,1,2,1,2,1,2,1,2,1,2,1,2,1,2,1,11,46,47,66,67,138,137,137,137,137,137,137,137,137,137,137,137,137,137,137,137,137,137,137,137,137,137,137,137,137,137,137,137,137,137,137,137,137,137,137,137,135,13,46,47,48,49,50,51,50,51,50,51,50,51,52,53,12,13,12,13,12,132,136,137,137,137,137,137,137,137,137,137,137,137,154,182,46,47,48,49,48,49,48,49,48,49,48,49,48,49,48,49,48,49,33,13,21,2,1,2,1,6,12,30,31,32,33,13,7,2,1,2,1,27,28,29,12,13,21,2,1,2,1,2,1,2,1,2,1,2,1,2,1,2,1,2,1,2,1,2,1,2,1,2,1,2,1,2,1,2,1,2,1,2,1,2,1,2,1,2,1,2,1,2,1,2,1,2,1,2,1,2,1,2,1,2,1,2,1,2,1,2,1,2,1,2,1,2,1,2,1,2,1,2,1,2,1,2,1,2,1,2,1,2,1,2,1,2,1,2,1,2,1,2,1,2,1,2,1,2,1,2,1,2,1,2,1,2,1,2,1,2,1,2,1,2,1,2,1,2,1,2,1,2,1,2,1,2,1,2,1,2,1,2,1,2,1,2,1,2,1,2,1,2,1,2,1,2,1,2,1,2,1,2,1,2,1,2,1,2,1,2,1,2,1,2,1,2,1,2,1,2,1,2,1,2,
3,4,3,4,3,4,3,4,3,4,3,4,3,4,3,4,3,4,3,4,3,4,3,4,3,4,3,4,3,4,3,4,3,4,3,4,3,4,3,4,8,9,36,37,38,39,38,39,38,39,61,62,65,17,105,106,107,106,107,106,107,106,107,106,107,106,107,106,107,106,107,120,155,160,116,106,107,106,107,106,107,106,107,106,107,106,107,106,107,106,107,106,107,106,107,106,107,106,107,108,21,158,159,160,116,106,107,106,107,120,155,160,105,106,107,106,107,106,107,106,107,106,107,106,107,106,107,106,107,106,107,106,107,106,107,108,16,26,5,3,4,3,4,3,4,3,4,3,4,3,4,57,58,57,3,4,3,4,3,4,3,4,3,4,3,4,3,4,3,4,3,4,3,4,3,4,3,4,3,4,3,4,3,4,3,4,3,4,3,4,3,4,3,4,3,4,3,4,3,4,3,4,3,4,3,4,3,4,3,4,3,4,3,4,3,15,59,60,70,71,139,137,137,137,137,137,137,137,137,137,137,137,137,137,137,137,137,137,137,137,137,137,137,137,137,137,137,137,137,137,137,137,137,137,137,137,137,135,59,60,61,62,63,64,63,64,63,64,63,64,65,17,16,17,16,17,132,136,137,137,137,137,137,154,148,149,148,149,148,149,182,17,59,60,61,62,61,62,61,62,61,62,61,62,61,62,61,62,61,62,40,41,16,26,24,25,8,9,36,37,38,39,40,41,10,3,4,3,4,3,34,28,16,17,16,26,5,3,4,3,4,3,4,3,4,3,4,3,4,3,4,3,4,3,4,3,4,3,4,3,4,3,4,3,4,3,4,3,4,3,4,3,4,3,4,3,4,3,4,3,4,3,4,3,4,3,4,3,4,3,4,3,4,3,4,3,4,3,4,3,4,3,4,3,4,3,4,3,4,3,4,3,4,3,4,3,4,3,4,3,4,3,4,3,4,3,4,3,4,3,4,3,4,3,4,3,4,3,4,3,4,3,4,3,4,4,5,3,4,3,4,3,4,3,4,3,4,3,4,3,4,3,4,3,4,3,4,3,4,3,4,3,4,3,4,3,4,3,4,3,4,3,4,3,4,3,4,3,4,3,4,3,4,3,4,3,4,3,4,3,4,3,4,3,4,3,4,3,4,3,4,3,
1,2,1,2,1,2,1,2,1,2,1,2,1,2,1,2,1,2,1,2,1,2,1,2,1,2,1,2,1,2,1,2,1,2,1,2,1,2,1,19,12,30,48,49,48,49,48,49,48,49,66,67,12,103,113,114,113,114,113,114,113,114,113,114,113,114,113,114,113,114,111,117,152,153,113,114,113,114,113,114,113,114,113,114,113,114,113,114,113,114,113,114,113,114,113,114,113,114,113,114,104,13,167,168,122,114,111,114,111,121,167,168,113,114,113,114,113,114,113,114,113,114,113,114,113,114,113,114,113,114,113,114,113,114,113,114,104,13,7,2,1,2,1,2,1,2,1,2,1,2,1,2,1,2,1,2,1,2,1,2,1,2,1,2,1,2,1,2,1,2,1,2,1,2,1,2,1,2,1,2,1,2,1,2,1,2,1,2,1,2,1,2,1,2,1,2,1,2,1,2,1,2,1,2,1,2,1,2,1,2,1,2,1,2,1,6,46,47,66,67,146,147,137,137,137,137,137,137,137,137,137,137,137,137,137,137,137,137,137,137,137,137,137,137,137,137,137,137,137,137,137,137,137,137,137,137,137,140,109,110,52,53,12,132,133,134,133,134,135,13,12,13,12,132,133,134,136,137,137,137,137,137,154,182,12,30,31,32,31,32,31,32,48,49,48,49,48,49,48,49,48,49,48,49,48,49,48,49,48,49,48,49,31,32,31,32,31,32,48,49,48,49,66,67,21,2,1,2,1,2,1,6,12,30,33,13,14,2,1,2,1,2,1,2,1,2,1,2,1,2,1,2,1,2,1,2,1,2,1,2,1,2,1,2,1,2,1,2,1,2,1,2,1,2,1,2,1,2,1,2,1,2,1,2,1,2,1,2,1,2,1,2,1,2,1,2,1,2,1,2,1,2,1,2,1,2,1,2,1,2,1,2,1,2,1,2,1,2,1,2,1,2,1,2,1,2,1,2,1,2,1,2,1,2,1,2,1,2,1,2,1,2,1,2,1,6,21,2,1,2,1,2,1,2,1,2,1,2,1,2,1,2,1,2,1,2,1,2,1,2,1,2,1,2,1,2,1,2,1,2,1,2,1,2,1,2,1,2,1,2,1,2,1,2,1,2,1,2,1,2,1,2,1,2,1,2,1,2,1,2,1,2,
3,4,3,4,3,4,3,4,3,4,3,4,3,4,3,4,3,4,3,4,3,4,3,4,3,4,3,4,3,4,3,4,3,4,3,4,3,4,3,20,36,37,61,62,61,62,61,62,61,62,70,71,105,106,107,106,107,106,107,106,107,106,107,106,107,106,107,106,107,106,107,120,161,162,116,106,107,106,107,106,107,106,107,106,107,106,107,106,107,106,107,106,107,106,107,106,107,106,107,106,107,108,155,160,16,124,118,119,123,17,155,160,116,106,107,106,107,106,107,106,107,106,107,106,107,106,107,106,107,106,107,106,107,106,107,106,107,108,10,3,4,3,4,3,4,3,4,3,4,3,4,3,4,3,4,3,4,3,4,3,4,3,4,3,4,3,4,3,4,3,4,3,4,3,4,3,4,3,4,3,4,3,4,3,4,3,4,3,4,3,4,3,4,3,4,3,4,3,4,3,4,3,4,3,4,3,4,3,4,3,4,3,4,4,8,9,59,60,70,71,16,146,147,137,137,137,137,137,137,137,137,137,137,137,137,137,137,137,137,137,137,137,137,137,137,137,137,137,137,137,137,137,137,137,137,137,137,141,16,115,65,17,132,136,137,137,137,137,137,135,16,17,132,136,137,137,137,137,137,137,137,154,182,17,36,37,38,39,38,39,38,39,61,62,61,62,61,62,61,62,61,62,61,62,61,62,61,62,61,62,61,62,38,39,38,39,38,39,61,62,61,62,70,71,16,26,24,25,22,23,8,9,36,37,40,41,18,3,4,3,4,3,4,3,4,3,4,3,4,3,4,3,4,3,4,3,4,3,4,3,4,3,4,3,4,3,4,3,4,3,4,3,4,3,4,3,4,3,4,3,4,3,4,3,4,3,4,3,4,3,4,3,4,3,4,3,4,3,4,3,4,3,4,3,4,3,4,3,4,3,4,3,4,3,4,3,4,3,4,3,4,3,4,3,4,3,4,3,4,3,4,3,4,3,4,3,4,3,4,3,4,3,4,4,8,9,16,26,5,3,4,3,4,3,4,3,4,3,4,3,4,3,4,3,4,3,4,3,4,3,4,3,4,3,4,3,4,3,4,3,4,3,4,3,4,3,4,3,4,3,4,3,4,3,4,3,4,3,4,3,4,3,4,3,4,3,4,3,4,3,4,3,
1,2,1,2,1,2,1,2,1,2,1,2,1,2,1,2,1,2,1,2,1,2,1,2,1,2,1,2,1,2,1,2,1,2,1,2,1,2,1,6,46,47,48,49,48,49,48,49,48,49,66,67,122,114,111,114,113,114,113,114,113,114,113,114,113,114,113,114,113,114,111,117,167,168,122,114,111,114,113,114,113,114,113,114,113,114,113,114,113,114,113,114,113,114,113,114,113,114,113,114,111,117,167,159,151,150,151,150,151,150,181,168,113,114,113,114,113,114,113,114,113,114,113,114,113,114,113,114,113,114,113,114,113,114,113,114,111,117,21,2,1,2,1,2,1,2,1,2,1,2,1,2,1,2,1,2,1,2,1,2,1,2,1,2,1,2,1,2,1,2,1,2,1,2,1,2,1,2,1,2,1,2,1,2,1,2,1,2,1,2,1,2,1,2,1,2,1,2,1,2,1,2,1,2,1,2,1,2,1,2,1,2,1,6,12,30,48,49,66,67,12,13,138,137,137,137,137,137,137,137,137,137,137,137,137,137,137,137,137,137,137,137,137,137,137,137,137,137,137,137,137,137,137,137,137,137,137,137,135,13,12,132,136,137,137,137,137,137,137,137,133,134,136,137,137,137,137,137,137,137,137,140,12,30,48,49,48,49,48,49,48,49,48,49,48,49,48,49,48,49,48,49,48,49,48,49,48,49,48,49,48,49,48,49,48,49,48,49,48,49,48,49,48,49,31,32,31,32,31,32,31,32,48,49,52,53,7,2,1,2,1,2,1,2,1,2,1,2,1,2,1,2,1,2,1,2,1,2,1,2,1,2,1,2,1,2,1,2,1,2,1,2,1,2,1,2,1,2,1,2,1,2,1,2,1,2,1,2,1,2,1,2,1,2,1,2,1,2,1,2,1,2,1,2,1,2,1,2,1,2,1,2,1,2,1,2,1,2,1,2,1,2,1,2,1,2,1,2,1,2,1,2,1,2,1,2,1,2,1,2,1,2,1,19,12,13,12,13,14,2,1,2,1,2,1,2,1,2,1,2,1,2,1,2,1,2,1,2,1,2,1,2,1,2,1,2,1,2,1,2,1,2,1,2,1,2,1,2,1,2,1,2,1,2,1,2,1,2,1,2,1,2,1,2,1,2,1,2,1,2,1,2,
3,4,3,4,3,4,3,4,3,4,3,4,3,4,3,4,3,4,3,4,3,4,3,4,3,4,3,4,3,4,3,4,3,4,3,4,24,25,8,9,59,60,61,62,61,62,61,62,61,62,70,71,16,124,118,119,107,106,107,106,107,106,107,106,107,106,107,106,107,106,107,120,155,160,16,124,118,119,107,106,107,106,107,106,107,106,107,106,107,106,107,106,107,106,107,106,107,106,107,106,107,120,21,158,157,158,157,158,157,158,157,6,116,106,107,106,107,106,107,106,107,106,107,106,107,106,107,106,107,106,107,106,107,106,107,106,107,120,16,26,5,3,4,3,4,3,4,3,4,3,4,3,4,3,4,3,4,3,4,3,4,3,4,3,4,3,4,3,4,3,4,3,4,3,4,3,4,3,4,3,4,3,4,3,4,3,4,3,4,3,4,3,4,3,4,3,4,3,4,3,4,3,4,3,4,3,4,3,4,3,4,4,8,9,36,37,61,62,70,71,16,17,139,137,137,137,137,137,137,137,137,137,137,137,137,137,137,137,137,137,137,137,137,137,137,137,137,137,137,137,137,137,137,137,137,137,137,137,137,135,132,136,137,137,137,137,137,137,137,137,137,137,137,137,137,137,137,137,137,137,137,141,36,37,61,62,61,62,61,62,61,62,61,62,61,62,61,62,61,62,61,62,61,62,61,62,61,62,61,62,61,62,61,62,61,62,61,62,61,62,61,62,61,62,38,39,38,39,38,39,38,39,61,62,65,17,10,3,4,3,4,3,4,3,4,3,4,3,4,3,4,3,4,3,4,3,4,3,4,3,4,3,4,3,4,3,4,3,4,3,4,3,4,3,4,3,4,3,4,3,4,3,4,3,4,3,4,3,4,3,4,3,4,3,4,3,4,3,4,3,4,3,4,3,4,3,4,3,4,3,4,3,4,3,4,3,4,3,4,3,4,3,4,3,4,3,4,3,4,3,4,3,4,3,4,3,4,3,4,3,4,3,4,20,16,17,16,17,18,3,4,3,4,3,4,3,4,3,4,3,4,3,4,3,4,3,4,3,4,3,4,3,4,3,4,3,4,3,4,3,4,3,4,3,4,3,4,3,4,3,4,3,4,3,4,3,4,3,4,3,4,3,4,3,4,3,4,3,4,3,4,3,
1,2,1,2,1,2,1,2,1,2,1,2,1,2,1,2,1,2,1,2,1,2,1,2,1,2,1,2,1,2,1,2,1,2,1,6,12,30,31,32,48,49,48,49,48,49,48,49,48,49,48,49,31,32,33,13,122,114,111,114,113,114,113,114,113,114,113,114,113,114,111,117,167,159,151,150,151,28,113,114,113,114,113,114,113,114,113,114,113,114,113,114,113,114,113,114,113,114,113,114,111,117,12,103,111,112,111,112,111,112,111,112,113,114,113,114,113,114,113,114,113,114,113,114,113,114,113,114,113,114,113,114,113,114,113,114,113,114,104,13,21,2,1,2,1,2,1,2,1,2,1,2,1,2,1,2,1,2,1,2,1,2,1,2,1,2,1,2,1,2,1,2,1,2,1,2,1,2,1,2,1,2,1,2,1,2,1,2,1,2,1,2,1,2,1,2,1,2,1,2,1,2,1,2,1,2,1,2,1,2,1,6,12,30,48,49,48,49,66,67,12,13,138,137,137,137,137,137,137,137,137,137,137,137,137,137,137,137,137,137,137,137,137,137,137,137,137,137,137,137,137,137,137,137,137,137,137,137,137,137,136,137,137,137,137,137,137,137,137,137,137,137,137,137,137,137,137,137,137,137,154,182,46,47,48,49,48,49,48,49,48,49,48,49,48,49,48,49,48,49,48,49,48,49,48,49,48,49,48,49,48,49,48,49,48,49,48,49,48,49,48,49,48,49,48,49,48,49,50,51,50,51,52,53,54,55,56,2,1,2,1,2,1,2,1,2,1,2,1,2,1,2,1,2,1,2,1,2,1,2,1,2,1,2,1,2,1,2,1,2,1,2,1,2,1,2,1,2,1,2,1,2,1,2,1,2,1,2,1,2,1,2,1,2,1,2,1,2,1,2,1,2,1,2,1,2,1,2,1,2,1,2,1,2,1,2,1,2,1,2,1,2,1,2,1,2,1,2,1,2,1,2,1,2,1,2,1,2,1,2,1,2,1,11,12,13,12,13,7,2,1,2,1,2,1,2,1,2,1,2,1,2,1,2,1,2,1,2,1,2,1,2,1,2,1,2,1,2,1,2,1,2,1,2,1,2,1,2,1,2,1,2,1,2,1,2,1,2,1,2,1,2,1,2,1,2,1,2,1,2,1,2,
3,4,3,4,3,4,3,4,3,4,3,4,3,4,3,4,3,4,3,4,3,4,3,4,3,4,22,23,24,25,22,23,24,25,8,9,36,37,38,39,61,62,61,62,61,62,61,62,61,62,61,62,38,39,40,41,16,124,118,119,107,106,107,106,107,106,107,106,107,106,107,120,21,158,157,158,159,160,116,106,107,106,107,106,107,106,107,106,107,106,107,106,107,106,107,106,107,106,107,106,107,120,105,106,107,106,107,106,107,106,107,106,107,106,107,106,107,106,107,106,107,106,107,106,107,106,107,106,107,106,107,106,107,106,107,106,107,106,107,108,16,26,5,3,4,3,4,3,4,3,4,3,4,3,4,3,4,3,4,3,4,3,4,3,4,3,4,3,4,3,4,3,4,3,4,3,4,3,4,3,4,3,4,3,4,3,4,3,4,3,4,3,4,3,4,3,4,3,4,3,4,3,4,3,4,3,4,3,4,4,8,9,36,37,61,62,61,62,70,71,16,17,139,137,137,137,137,137,137,137,137,137,137,137,137,137,137,137,137,137,137,137,137,137,137,137,137,137,137,137,137,137,137,137,137,137,137,137,137,137,137,137,137,137,137,137,137,137,137,137,137,137,137,137,137,137,137,137,137,154,182,17,59,60,61,62,61,62,61,62,61,62,61,62,61,62,61,62,61,62,61,62,61,62,61,62,61,62,61,62,61,62,61,62,61,62,61,62,61,62,61,62,61,62,61,62,61,62,63,64,63,64,65,17,55,57,3,4,3,4,3,4,3,4,3,4,3,4,3,4,3,4,3,4,3,4,3,4,3,4,3,4,3,4,3,4,3,4,3,4,3,4,3,4,3,4,3,4,3,4,3,4,3,4,3,4,3,4,3,4,3,4,3,4,3,4,3,4,3,4,3,4,3,4,3,4,3,4,3,4,3,4,3,4,3,4,3,4,3,4,3,4,3,4,3,4,3,4,3,4,3,4,3,4,3,4,3,4,3,4,3,4,3,15,35,17,16,17,10,3,4,3,4,3,4,3,4,3,4,3,4,3,4,3,4,3,4,3,4,3,4,3,4,3,4,3,4,3,4,3,4,3,4,3,4,3,4,3,4,3,4,3,4,3,4,3,4,3,4,3,4,3,4,3,4,3,4,3,4,3,4,3,
1,2,1,2,1,2,1,2,1,2,1,2,1,2,1,2,1,2,1,2,1,2,1,2,1,27,28,29,12,13,12,13,12,13,12,13,109,110,48,49,48,49,48,49,48,49,48,49,48,49,48,49,48,49,48,49,31,32,33,13,122,114,111,114,113,114,113,114,113,114,113,114,111,112,104,13,167,168,122,114,111,114,111,114,111,114,111,114,111,114,111,114,111,114,111,114,111,114,111,114,111,121,113,114,113,114,113,114,113,114,113,114,113,114,113,114,113,114,113,114,113,114,113,114,113,114,113,114,113,114,113,114,113,114,113,114,113,114,113,114,104,13,14,2,1,2,1,2,1,2,1,2,1,2,1,2,1,2,1,2,1,2,1,2,1,2,1,2,1,2,1,2,1,2,1,2,1,2,1,2,1,2,1,2,1,2,1,2,1,2,1,2,1,2,1,2,1,2,1,2,1,2,1,2,1,2,1,2,1,6,12,30,48,49,48,49,48,49,66,67,12,13,138,137,137,137,137,137,137,137,137,137,137,137,137,137,137,137,137,137,137,137,137,137,137,137,137,137,137,137,137,137,137,137,137,137,137,137,137,137,137,137,137,137,137,137,137,137,137,137,137,137,137,137,137,137,137,137,137,140,12,13,46,47,48,49,48,49,48,49,48,49,48,49,48,49,48,49,48,49,48,49,48,49,48,49,48,49,48,49,48,49,48,49,48,49,48,49,48,49,48,49,48,49,48,49,52,53,54,55,44,45,68,69,56,2,1,2,1,2,1,2,1,2,1,2,1,2,1,2,1,2,1,2,1,2,1,2,1,2,1,2,1,2,1,2,1,2,1,2,1,2,1,2,1,2,1,2,1,2,1,2,1,2,1,2,1,2,1,2,1,2,1,2,1,2,1,2,1,2,1,2,1,2,1,2,1,2,1,2,1,2,1,2,1,2,1,2,1,2,1,2,1,2,1,2,1,2,1,2,1,2,1,2,1,2,1,2,1,2,1,2,1,27,28,29,54,55,56,2,1,2,1,2,1,2,1,2,1,2,1,2,1,2,1,2,1,2,1,2,1,2,1,2,1,2,1,2,1,2,1,2,1,2,1,2,1,2,1,2,1,2,1,2,1,2,1,2,1,2,1,2,1,2,1,2,1,2,1,2,1,2,
3,4,3,4,3,4,3,4,3,4,3,4,3,4,3,4,3,4,3,4,3,4,3,4,3,4,34,28,35,17,16,17,16,17,16,17,16,115,61,62,61,62,61,62,61,62,61,62,61,62,61,62,61,62,61,62,38,39,40,41,16,124,118,119,107,106,107,106,107,106,107,106,107,106,107,108,155,160,16,124,118,119,118,119,118,119,118,119,118,119,118,119,118,119,118,119,118,119,118,119,123,17,116,106,107,106,107,106,107,106,107,106,107,106,107,106,107,106,107,106,107,106,107,106,107,106,107,106,107,106,107,106,107,106,107,106,107,106,107,106,107,108,18,3,4,3,4,3,4,3,4,3,4,3,4,3,4,3,4,3,4,3,4,3,4,3,4,3,4,3,4,3,4,3,4,3,4,3,4,3,4,3,4,3,4,3,4,3,4,3,4,3,4,3,4,3,4,3,4,3,4,3,4,3,4,4,24,25,8,9,36,37,61,62,61,62,61,62,70,71,16,17,139,137,137,137,137,137,137,137,137,137,137,137,137,137,137,137,137,137,137,137,137,137,137,137,137,137,137,137,137,137,137,137,137,137,137,137,137,137,137,137,137,137,137,137,137,137,137,137,137,137,137,137,137,137,137,137,137,141,16,17,59,60,61,62,61,62,61,62,61,62,61,62,61,62,61,62,61,62,61,62,61,62,61,62,61,62,61,62,61,62,61,62,61,62,61,62,61,62,61,62,61,62,61,62,65,17,55,57,58,57,3,4,3,4,3,4,3,4,3,4,3,4,3,4,3,4,3,4,3,4,3,4,3,4,3,4,3,4,3,4,3,4,3,4,3,4,3,4,3,4,3,4,3,4,3,4,3,4,3,4,3,4,3,4,3,4,3,4,3,4,3,4,3,4,3,4,3,4,3,4,3,4,3,4,3,4,3,4,3,4,3,4,3,4,3,4,3,4,3,4,3,4,3,4,3,4,3,4,3,4,3,4,3,4,3,4,3,4,3,4,3,4,34,28,55,57,3,4,3,4,3,4,3,4,3,4,3,4,3,4,3,4,3,4,3,4,3,4,3,4,3,4,3,4,3,4,3,4,3,4,3,4,3,4,3,4,3,4,3,4,3,4,3,4,3,4,3,4,3,4,3,4,3,4,3,4,3,4,3,4,
1,2,1,2,1,2,1,2,1,2,1,2,1,2,1,2,1,2,1,2,1,2,1,2,1,2,1,27,42,43,44,45,68,69,42,43,28,29,109,110,50,51,50,51,50,51,50,51,50,51,48,49,48,49,48,49,48,49,48,49,31,32,33,13,122,114,113,114,113,114,113,114,113,114,111,117,167,168,12,103,111,112,111,112,111,112,111,112,111,112,111,112,111,112,111,112,111,112,111,112,111,112,113,114,113,114,113,114,113,114,113,114,113,114,113,114,113,114,113,114,113,114,113,114,113,114,113,114,113,114,113,114,113,114,113,114,113,114,113,114,111,117,7,2,1,2,1,2,1,2,1,2,1,2,1,2,1,2,1,2,1,2,1,2,1,2,1,2,1,2,1,2,1,2,1,2,1,2,1,2,1,2,1,2,1,2,1,2,1,2,1,2,1,2,1,2,1,2,1,2,1,2,1,2,1,6,12,30,31,32,48,49,48,49,48,49,48,49,66,67,12,13,146,147,137,137,137,137,137,137,137,137,137,137,137,137,137,137,137,137,137,137,137,137,137,137,137,137,137,137,137,137,137,137,137,137,137,137,137,137,137,137,137,137,137,137,137,137,137,137,137,137,137,137,137,137,137,137,137,137,135,13,109,110,50,51,50,51,48,49,48,49,48,49,48,49,48,49,48,49,48,49,48,49,48,49,48,49,48,49,48,49,48,49,48,49,50,51,50,51,50,51,50,51,52,53,54,55,56,2,1,2,1,2,1,2,1,2,1,2,1,2,1,2,1,2,1,2,1,2,1,2,1,2,1,2,1,2,1,2,1,2,1,2,1,2,1,2,1,2,1,2,1,2,1,2,1,2,1,2,1,2,1,2,1,2,1,2,1,2,1,2,1,2,1,2,1,2,1,2,1,2,1,2,1,2,1,2,1,2,1,2,1,2,1,2,1,2,1,2,1,2,1,2,1,2,1,2,1,2,1,2,1,2,1,2,1,2,1,2,1,2,1,2,1,27,56,2,1,2,1,2,1,2,1,2,1,2,1,2,1,2,1,2,1,2,1,2,1,2,1,2,1,2,1,2,1,2,1,2,1,2,1,2,1,2,1,2,1,2,1,2,1,2,1,2,1,2,1,2,1,2,1,2,1,2,1,2,1,2,1,2,
3,4,3,4,3,4,3,4,3,4,3,4,3,4,3,4,3,4,3,4,3,4,3,4,3,4,3,4,3,57,58,57,3,4,3,57,34,28,16,115,63,64,63,64,63,64,63,64,63,64,61,62,61,62,61,62,61,62,61,62,38,39,40,41,16,124,107,106,107,106,107,106,107,106,107,120,155,160,105,106,107,106,107,106,107,106,107,106,107,106,107,106,107,106,107,106,107,106,107,106,107,106,107,106,107,106,107,106,107,106,107,106,107,106,107,106,107,106,107,106,107,106,107,106,107,106,107,106,107,106,107,106,107,106,107,106,107,106,107,106,107,120,10,3,4,3,4,3,4,3,4,3,4,3,4,3,4,3,4,3,4,3,4,3,4,3,4,3,4,3,4,3,4,3,4,3,4,3,4,3,4,3,4,3,4,3,4,3,4,3,4,3,4,3,4,3,4,3,4,4,22,23,24,25,8,9,36,37,38,39,61,62,61,62,61,62,61,62,70,71,16,17,16,146,147,137,137,137,137,137,137,137,137,137,137,137,137,137,137,137,137,137,137,137,137,137,137,137,137,137,137,137,137,137,137,137,137,137,137,137,137,137,137,137,137,137,137,137,137,137,137,137,137,137,137,137,137,137,137,137,137,135,16,115,63,64,63,64,61,62,61,62,61,62,61,62,61,62,61,62,61,62,61,62,61,62,61,62,61,62,61,62,61,62,61,62,63,64,63,64,63,64,63,64,65,17,55,57,3,4,3,4,3,4,3,4,3,4,3,4,3,4,3,4,3,4,3,4,3,4,3,4,3,4,3,4,3,4,3,4,3,4,3,4,3,4,3,4,3,4,3,4,3,4,3,4,3,4,3,4,3,4,3,4,3,4,3,4,3,4,3,4,3,4,3,4,3,4,3,4,3,4,3,4,3,4,3,4,3,4,3,4,3,4,3,4,3,4,3,4,3,4,3,4,3,4,3,4,3,4,3,4,3,4,3,4,3,4,3,4,3,4,3,4,3,4,3,4,3,4,3,4,3,4,3,4,3,4,3,4,3,4,3,4,3,4,3,4,3,4,3,4,3,4,3,4,3,4,3,4,3,4,3,4,3,4,3,4,3,4,3,4,3,4,3,4,3,4,3,4,3,4,3,4,3,4,3,4,3,4,3,4,
1,2,1,2,1,2,1,2,1,2,1,2,1,2,1,2,1,2,1,2,1,2,1,2,1,2,1,2,1,2,1,2,1,2,1,2,1,27,42,43,44,45,68,69,44,45,42,43,28,29,109,110,50,51,50,51,48,49,48,49,48,49,48,49,33,13,122,114,111,114,111,114,111,114,111,121,167,168,113,114,113,114,113,114,113,114,113,114,113,114,113,114,113,114,113,114,113,114,113,114,113,114,113,114,113,114,113,114,113,114,113,114,113,114,113,114,113,114,113,114,113,114,113,114,113,114,113,114,113,114,113,114,113,114,113,114,113,114,113,114,111,117,21,2,1,2,1,2,1,2,1,2,1,2,1,2,1,2,1,2,1,2,1,2,1,2,1,2,1,2,1,2,1,2,1,2,1,2,1,2,1,2,1,2,1,2,1,2,1,2,1,2,1,2,1,2,1,2,1,27,28,29,12,30,31,32,48,49,48,49,48,49,48,49,48,49,48,49,48,49,31,32,33,13,146,147,137,137,137,137,137,137,137,137,137,137,137,137,137,137,137,137,137,137,137,137,137,137,137,137,137,137,137,137,137,137,137,137,137,137,137,137,137,137,137,137,137,137,137,137,137,137,137,137,137,137,137,137,137,137,137,137,133,134,133,134,135,13,109,110,48,49,48,49,48,49,48,49,48,49,48,49,48,49,48,49,48,49,48,49,48,49,48,49,52,53,12,132,133,134,133,134,133,134,135,13,21,2,1,2,1,2,1,2,1,2,1,2,1,2,1,2,1,2,1,2,1,2,1,2,1,2,1,2,1,2,1,2,1,2,1,2,1,2,1,2,1,2,1,2,1,2,1,2,1,2,1,2,1,2,1,2,1,2,1,2,1,2,1,2,1,2,1,2,1,2,1,2,1,2,1,2,1,2,1,2,1,2,1,2,1,2,1,2,1,2,1,2,1,2,1,2,1,2,1,2,1,2,1,2,1,2,1,2,1,2,1,2,1,2,1,2,1,2,1,2,1,2,1,2,1,2,1,2,1,2,1,2,1,2,1,2,1,2,1,2,1,2,1,2,1,2,1,2,1,2,1,2,1,2,1,2,1,2,1,2,1,2,1,2,1,2,1,2,1,2,1,2,1,2,1,2,1,2,1,2,1,2,1,2,1,2,
3,4,3,4,3,4,3,4,3,4,3,4,3,4,3,4,3,4,3,4,3,4,3,4,3,4,3,4,3,4,3,4,3,4,3,4,3,4,3,57,58,57,3,4,58,57,3,57,34,28,16,115,63,64,63,64,61,62,61,62,61,62,61,62,40,41,16,124,118,119,118,119,118,119,123,17,155,160,116,106,107,106,107,106,107,106,107,106,107,106,107,106,107,106,107,106,107,106,107,106,107,106,107,106,107,106,107,106,107,106,107,106,107,106,107,106,107,106,107,106,107,106,107,106,107,106,107,106,107,106,107,106,107,106,107,106,107,106,107,106,107,120,16,26,22,23,24,25,22,23,24,25,22,23,24,25,5,3,4,3,4,3,4,3,4,3,4,3,4,3,4,3,4,3,4,3,4,3,4,3,4,3,4,3,4,3,4,3,4,3,4,3,4,3,4,3,4,3,4,3,34,28,36,37,38,39,61,62,61,62,61,62,72,73,74,75,76,62,61,62,38,39,40,41,16,146,147,137,137,137,137,137,137,137,137,137,137,137,137,137,137,137,137,137,137,137,137,137,137,137,137,137,137,137,137,137,137,137,137,137,137,137,137,137,137,137,137,137,137,137,137,137,137,137,137,137,137,137,137,137,137,137,137,137,137,137,137,135,16,115,61,62,61,62,61,62,61,62,61,62,61,62,61,62,61,62,61,62,61,62,61,62,61,62,65,17,132,136,137,137,137,137,137,137,137,135,16,26,5,3,4,3,4,3,4,3,4,3,4,3,4,3,4,3,4,3,4,3,4,3,4,3,4,3,4,3,4,3,4,3,4,3,4,3,4,3,4,3,4,3,4,3,4,3,4,3,4,3,4,3,4,3,4,3,4,3,4,3,4,3,4,3,4,3,4,3,4,3,4,3,4,3,4,3,4,3,4,3,4,3,4,3,4,3,4,3,4,3,4,3,4,3,4,3,4,3,4,3,4,3,4,3,4,3,4,3,4,3,4,3,4,3,4,3,4,4,22,23,24,25,22,23,24,25,5,3,4,3,4,3,4,3,4,3,4,3,4,3,4,3,4,3,4,3,4,3,4,3,4,3,4,3,4,3,4,3,4,3,4,3,4,3,4,3,4,3,4,3,4,3,4,3,4,3,4,3,4,3,4,3,4,3,
1,2,1,2,1,2,1,2,1,2,1,2,1,2,1,2,1,2,1,2,1,2,1,2,1,2,1,2,1,2,1,2,1,2,1,2,1,2,1,2,1,2,1,2,1,2,1,2,1,27,42,43,44,45,28,29,46,47,48,49,48,49,48,49,48,49,31,32,31,32,31,32,31,32,33,13,167,168,113,114,113,114,113,114,113,114,113,114,113,114,113,114,113,114,113,114,113,114,113,114,113,114,113,114,113,114,113,114,113,114,113,114,113,114,113,114,113,114,113,114,113,114,113,114,113,114,113,114,113,114,113,114,113,114,113,114,113,114,113,114,113,114,111,112,104,13,12,13,12,13,12,13,12,13,12,13,21,2,1,2,1,2,1,2,1,2,1,2,1,2,1,2,1,2,1,2,1,2,1,2,1,2,1,2,1,2,1,2,1,2,1,2,1,2,1,2,1,2,1,2,1,19,46,47,48,49,48,49,48,49,77,78,79,80,81,82,83,49,48,49,48,49,52,53,12,132,136,137,137,137,137,137,137,137,137,137,137,137,137,137,137,137,137,137,137,137,137,137,137,137,137,137,137,137,137,137,137,137,137,137,137,137,137,137,137,137,137,137,137,137,137,137,137,137,137,137,137,137,137,137,137,137,137,137,137,137,137,137,135,13,109,110,48,49,48,49,48,49,48,49,48,49,48,49,48,49,48,49,48,49,48,49,66,67,12,132,136,137,137,137,137,137,137,137,154,182,54,55,56,2,1,2,1,2,1,2,1,2,1,2,1,2,1,2,1,2,1,2,1,2,1,2,1,2,1,2,1,2,1,2,1,2,1,2,1,2,1,2,1,2,1,2,1,2,1,2,1,2,1,2,1,2,1,2,1,2,1,2,1,2,1,2,1,2,1,2,1,2,1,2,1,2,1,2,1,2,1,2,1,2,1,2,1,2,1,2,1,2,1,2,1,2,1,2,1,2,1,2,1,2,1,2,1,2,1,2,1,2,1,2,1,2,1,2,1,6,12,13,12,13,12,13,12,13,21,2,1,2,1,2,1,2,1,2,1,2,1,2,1,2,1,2,1,2,1,2,1,2,1,2,1,2,1,2,1,2,1,2,1,2,1,2,1,2,1,2,1,2,1,2,1,2,1,2,1,2,1,2,1,2,1,2,
3,4,3,4,3,4,3,4,3,4,3,4,3,4,3,4,3,4,3,4,3,4,3,4,3,4,3,4,3,4,3,4,3,4,3,4,3,4,3,4,3,4,3,4,3,4,3,4,3,4,3,57,58,57,34,28,59,60,61,62,61,62,61,62,61,62,38,39,38,39,38,39,38,39,40,41,155,160,116,106,107,106,107,106,107,106,107,106,107,106,107,106,107,106,107,106,107,106,107,106,107,106,107,106,107,106,107,106,107,106,107,106,107,106,107,106,107,106,107,106,107,106,107,106,107,106,107,106,107,106,107,106,107,106,107,106,107,106,107,106,107,106,107,106,107,108,17,35,16,17,16,17,35,17,16,17,16,26,5,3,4,3,4,3,4,3,4,3,4,3,4,3,4,3,4,3,4,3,4,3,4,3,4,3,4,3,4,3,4,3,4,3,4,3,4,3,4,3,4,3,4,20,59,60,61,62,61,62,61,62,84,85,86,87,88,89,90,62,61,62,61,62,65,17,132,136,137,137,137,137,137,137,137,137,137,137,137,137,137,137,137,137,137,137,137,137,137,137,137,137,137,137,137,137,137,137,137,137,137,137,137,137,137,137,137,137,137,137,137,137,137,137,137,137,137,137,137,137,137,137,137,137,137,137,137,137,137,137,137,135,16,115,61,62,61,62,61,62,61,62,61,62,61,62,61,62,61,62,61,62,61,62,70,71,132,136,137,137,137,137,137,137,137,154,182,17,55,57,3,4,3,4,3,4,3,4,3,4,3,4,3,4,3,4,3,4,3,4,3,4,3,4,3,4,3,4,3,4,3,4,3,4,3,4,3,4,3,4,3,4,3,4,3,4,3,4,3,4,3,4,3,4,3,4,3,4,3,4,3,4,3,4,3,4,3,4,3,4,3,4,3,4,3,4,3,4,3,4,3,4,3,4,3,4,3,4,3,4,3,4,3,4,3,4,3,4,3,4,3,4,3,4,3,4,3,4,3,4,3,4,22,23,24,25,8,9,16,17,16,17,16,17,16,17,16,26,22,23,5,3,4,3,4,3,4,3,4,3,4,3,4,3,4,3,4,3,4,3,4,3,4,3,4,3,4,3,4,3,4,3,4,3,4,3,4,3,4,3,4,3,4,3,4,3,4,3,4,3,4,3,4,3,
1,2,1,2,1,2,1,2,1,2,1,2,1,2,1,2,1,2,1,2,1,2,1,2,1,2,1,2,1,2,1,2,1,2,1,2,1,2,1,2,1,2,1,2,1,2,1,2,1,2,1,2,1,2,1,19,46,47,48,49,48,49,48,49,48,49,48,49,48,49,48,49,48,49,66,67,167,168,122,114,111,114,111,114,111,114,113,114,113,114,113,114,113,114,113,114,113,114,113,114,113,114,113,114,113,114,113,114,113,114,113,114,113,114,113,114,113,114,113,114,113,114,113,114,113,114,113,114,113,114,113,114,113,114,113,114,113,114,113,114,113,114,111,114,111,121,54,55,42,43,44,45,68,69,42,43,44,45,56,2,1,2,1,2,1,2,1,2,1,2,1,2,1,2,1,2,1,2,1,2,1,2,1,2,1,2,1,2,1,2,1,2,1,2,1,2,1,2,1,2,1,11,46,47,48,49,48,49,48,49,91,92,93,94,95,96,48,49,48,49,52,53,12,132,136,137,137,137,137,137,137,137,137,137,137,137,137,137,137,137,137,137,137,137,137,137,137,137,137,137,137,137,137,137,137,137,137,137,137,137,137,137,137,137,137,137,137,137,137,137,137,137,137,137,137,137,137,137,137,137,137,137,137,137,137,137,137,137,137,137,135,13,109,110,48,49,48,49,48,49,48,49,48,49,48,49,48,49,48,49,48,49,66,67,138,137,137,137,137,137,137,137,137,140,54,55,56,2,1,2,1,2,1,2,1,2,1,2,1,2,1,2,1,2,1,2,1,2,1,2,1,2,1,2,1,2,1,2,1,2,1,2,1,2,1,2,1,2,1,2,1,2,1,2,1,2,1,2,1,2,1,2,1,2,1,2,1,2,1,2,1,2,1,2,1,2,1,2,1,2,1,2,1,2,1,2,1,2,1,2,1,2,1,2,1,2,1,2,1,2,1,2,1,2,1,2,1,2,1,2,1,2,1,2,1,2,1,2,1,6,12,13,12,13,12,13,12,13,12,13,12,13,12,13,12,13,12,13,21,2,1,2,1,2,1,2,1,2,1,2,1,2,1,2,1,2,1,2,1,2,1,2,1,2,1,2,1,2,1,2,1,2,1,2,1,2,1,2,1,2,1,2,1,2,1,2,1,2,1,2,1,2,
3,4,3,4,3,4,3,4,3,4,3,4,3,4,3,4,3,4,3,4,3,4,3,4,3,4,3,4,3,4,3,4,3,4,3,4,3,4,3,4,3,4,3,4,3,4,3,4,3,4,3,4,3,4,3,20,59,60,61,62,61,62,61,62,61,62,61,62,61,62,61,62,61,62,70,71,155,160,16,124,118,119,118,119,118,119,107,106,107,106,107,106,107,106,107,106,107,106,107,106,107,106,107,106,107,106,107,106,107,106,107,106,107,106,107,106,107,106,107,106,107,106,107,106,107,106,107,106,107,106,107,106,107,106,107,106,107,106,107,106,107,106,118,119,123,17,55,57,3,57,58,57,3,4,3,57,58,57,3,4,3,4,3,4,3,4,3,4,3,4,3,4,3,4,3,4,3,4,3,4,3,4,3,4,3,4,3,4,3,4,3,4,3,4,3,4,3,4,3,4,3,15,59,60,61,62,61,62,61,62,61,62,97,98,99,100,61,62,61,62,65,17,132,136,137,137,137,137,137,137,137,137,137,137,137,137,137,137,137,137,137,137,137,137,137,137,137,137,137,137,137,137,137,137,137,137,137,137,137,137,137,137,137,137,137,137,137,137,137,137,137,137,137,137,137,137,137,137,137,137,137,137,137,137,137,137,137,137,137,137,137,135,16,115,61,62,61,62,61,62,61,62,61,62,61,62,61,62,61,62,61,62,70,71,139,137,137,137,137,137,137,137,137,141,55,57,3,4,3,4,3,4,3,4,3,4,3,4,3,4,3,4,3,4,3,4,3,4,3,4,3,4,3,4,3,4,3,4,3,4,3,4,3,4,3,4,3,4,3,4,3,4,3,4,3,4,3,4,3,4,3,4,3,4,3,4,3,4,3,4,3,4,3,4,3,4,3,4,3,4,3,4,3,4,3,4,3,4,3,4,3,4,3,4,3,4,3,4,3,4,3,4,3,4,3,4,3,4,3,4,3,4,3,4,3,4,3,4,8,9,16,17,16,17,17,35,16,17,16,17,16,17,16,17,16,17,16,17,16,26,5,3,4,3,4,3,4,3,4,3,4,3,4,3,4,3,4,3,4,3,4,3,4,3,4,3,4,3,4,3,4,3,4,3,4,3,4,3,4,3,4,3,4,3,4,3,4,3,4,3,4,3,
1,2,1,2,1,2,1,2,1,2,1,2,1,2,1,2,1,2,1,2,1,2,1,2,1,2,1,2,1,2,1,2,1,2,1,2,1,2,1,2,1,2,1,2,1,2,1,2,1,2,1,2,1,2,1,11,46,47,48,49,48,49,48,49,50,51,50,51,50,51,50,51,48,49,66,67,167,159,151,150,151,150,151,150,151,28,113,114,113,114,113,114,113,114,113,114,113,114,113,114,113,114,113,114,113,114,113,114,113,114,113,114,113,114,113,114,113,114,113,114,113,114,113,114,113,114,113,114,113,114,113,114,113,114,113,114,113,114,111,114,111,121,54,55,44,45,56,2,1,2,1,2,1,2,1,2,1,2,1,2,1,2,1,2,1,2,1,2,1,2,1,2,1,2,1,2,1,2,1,2,1,2,1,2,1,2,1,2,1,2,1,2,1,2,1,2,1,2,1,2,1,11,46,47,48,49,48,49,48,49,48,49,91,92,101,102,48,49,66,67,12,13,138,137,137,137,137,137,137,137,137,137,137,137,137,137,137,137,137,137,137,137,137,137,137,137,137,137,137,137,137,137,137,137,137,137,137,137,137,137,137,137,137,137,137,137,137,137,137,137,137,137,137,137,137,137,137,137,137,137,137,137,137,137,137,137,137,137,137,137,137,137,135,13,46,47,48,49,48,49,48,49,50,51,50,51,50,51,50,51,48,49,66,67,138,137,137,137,137,137,137,137,137,140,14,2,1,2,1,2,1,2,1,2,1,2,1,2,1,2,1,2,1,2,1,2,1,2,1,2,1,2,1,2,1,2,1,2,1,2,1,2,1,2,1,2,1,2,1,2,1,2,1,2,1,2,1,2,1,2,1,2,1,2,1,2,1,2,1,2,1,2,1,2,1,2,1,2,1,2,1,2,1,2,1,2,1,2,1,2,1,2,1,2,1,2,1,2,1,2,1,2,1,2,1,2,1,2,1,2,1,2,1,2,1,2,1,27,28,29,12,13,12,13,54,55,42,43,44,45,68,69,28,29,12,13,12,13,54,55,56,2,1,2,1,2,1,2,1,2,1,2,1,2,1,2,1,2,1,2,1,2,1,2,1,2,1,2,1,2,1,2,1,2,1,2,1,2,1,2,1,2,1,2,1,2,1,2,1,2,1,2,
3,4,3,4,3,4,3,4,3,4,3,4,3,4,3,4,3,4,3,4,3,4,3,4,3,4,3,4,3,4,3,4,3,4,3,4,3,4,3,4,3,4,3,4,3,4,3,4,3,4,3,4,3,4,3,15,59,60,61,62,61,62,61,62,63,64,63,64,63,64,63,64,61,62,70,71,21,158,157,158,157,158,157,158,159,160,116,106,107,106,107,106,107,106,107,106,107,106,107,106,107,106,107,106,107,106,107,106,107,106,107,106,107,106,107,106,107,106,107,106,107,106,107,106,107,106,107,106,107,106,107,106,107,106,107,106,107,106,118,119,123,17,55,57,58,57,3,4,3,4,3,4,3,4,3,4,3,4,3,4,3,4,3,4,3,4,3,4,3,4,3,4,3,4,3,4,3,4,3,4,3,4,3,4,3,4,3,4,3,4,3,4,3,4,3,4,3,4,3,4,3,15,59,60,61,62,61,62,61,62,61,62,61,62,61,62,61,62,70,71,16,17,139,137,137,137,137,137,137,137,137,137,137,137,137,137,137,137,137,137,137,137,137,137,137,137,137,137,137,137,137,137,137,137,137,137,137,137,137,137,137,137,137,137,137,137,137,137,137,137,137,137,137,137,137,137,137,137,137,137,137,137,137,137,137,137,137,137,137,137,137,137,137,135,59,60,61,62,61,62,61,62,63,64,63,64,63,64,63,64,61,62,70,71,139,137,137,137,137,137,137,137,137,141,18,3,4,3,4,3,4,3,4,3,4,3,4,3,4,3,4,3,4,3,4,3,4,3,4,3,4,3,4,3,4,3,4,3,4,3,4,3,4,3,4,3,4,3,4,3,4,3,4,3,4,3,4,3,4,3,4,3,4,3,4,3,4,3,4,3,4,3,4,3,4,3,4,3,4,3,4,3,4,3,4,3,4,3,4,3,4,3,4,3,4,3,4,3,4,3,4,3,4,3,4,3,4,3,4,3,4,3,4,3,4,3,4,3,34,28,35,17,16,17,55,57,3,57,58,57,3,4,34,28,35,17,16,17,55,57,3,4,3,4,3,4,3,4,3,4,3,4,3,4,3,4,3,4,3,4,3,4,3,4,3,4,3,4,3,4,3,4,3,4,3,4,3,4,3,4,3,4,3,4,3,4,3,4,3,4,3,4,
1,2,1,2,1,2,1,2,1,2,1,2,1,2,1,2,1,2,1,2,1,2,1,2,1,2,1,2,1,2,1,2,1,2,1,2,1,2,1,2,1,2,1,2,1,2,1,2,1,2,1,2,1,2,1,19,109,110,48,49,48,49,52,53,54,55,44,45,68,69,28,29,46,47,66,67,12,103,111,112,111,112,104,13,167,168,113,114,113,114,113,114,113,114,113,114,113,114,113,114,113,114,113,114,113,114,113,114,113,114,113,114,113,114,113,114,113,114,113,114,113,114,113,114,113,114,113,114,113,114,113,114,113,114,111,114,111,121,54,55,44,45,56,2,1,2,1,2,1,2,1,2,1,2,1,2,1,2,1,2,1,2,1,2,1,2,1,2,1,2,1,2,1,2,1,2,1,2,1,2,1,2,1,2,1,2,1,2,1,2,1,2,1,2,1,2,1,2,1,2,1,19,46,47,48,49,48,49,48,49,48,49,48,49,48,49,48,49,66,67,12,13,138,137,137,137,137,137,137,137,137,137,137,137,137,137,137,137,137,137,137,137,137,137,137,137,137,137,137,137,137,137,137,137,137,137,137,137,137,137,137,137,137,137,137,137,137,137,137,137,137,137,137,137,137,137,137,137,137,137,137,137,137,137,137,137,137,137,137,137,137,137,137,140,109,110,50,51,50,51,52,53,12,13,12,132,133,134,135,13,109,110,52,53,138,137,137,137,137,137,137,137,154,182,7,2,1,2,1,2,1,2,1,2,1,2,1,2,1,2,1,2,1,2,1,2,1,2,1,2,1,2,1,2,1,2,1,2,1,2,1,2,1,2,1,2,1,2,1,2,1,2,1,2,1,2,1,2,1,2,1,2,1,2,1,2,1,2,1,2,1,2,1,2,1,2,1,2,1,2,1,2,1,2,1,2,1,2,1,2,1,2,1,2,1,2,1,2,1,2,1,2,1,2,1,2,1,2,1,2,1,2,1,2,1,2,1,2,1,27,42,43,44,45,56,2,1,2,1,2,1,2,1,27,42,43,68,69,56,2,1,2,1,2,1,2,1,2,1,2,1,2,1,2,1,2,1,2,1,2,1,2,1,2,1,2,1,2,1,2,1,2,1,2,1,2,1,2,1,2,1,2,1,2,1,2,1,2,1,2,1,2,
3,4,3,4,3,4,3,4,3,4,3,4,3,4,3,4,3,4,3,4,3,4,3,4,3,4,3,4,3,4,3,4,3,4,3,4,3,4,3,4,3,4,3,4,3,4,3,4,3,4,3,4,3,4,3,20,16,115,61,62,61,62,65,17,55,57,58,57,3,4,34,28,59,60,70,71,105,106,107,106,107,106,107,108,155,160,116,106,107,106,107,106,107,106,107,106,107,106,107,106,107,106,107,106,107,106,107,106,107,106,107,106,107,106,107,106,107,106,107,106,107,106,107,106,107,106,107,106,107,106,107,106,107,106,118,119,123,17,55,57,58,57,3,4,3,4,3,4,3,4,3,4,3,4,3,4,3,4,3,4,3,4,3,4,3,4,3,4,3,4,3,4,3,4,3,4,3,4,3,4,3,4,3,4,3,4,3,4,3,4,3,4,3,4,3,4,3,4,3,4,3,20,59,60,61,62,61,62,61,62,61,62,61,62,61,62,61,62,70,71,16,17,139,137,137,137,137,137,137,137,137,137,137,137,137,137,137,137,137,137,137,137,137,137,137,137,137,137,137,137,137,137,137,137,137,137,137,137,137,137,137,137,137,137,137,137,137,137,137,137,137,137,137,137,137,137,137,137,137,137,137,137,137,137,137,137,137,137,137,137,137,137,137,141,16,115,63,64,63,64,65,17,16,17,132,136,137,137,137,135,16,115,65,17,139,137,137,137,137,137,137,154,182,17,10,3,4,3,4,3,4,3,4,3,4,3,4,3,4,3,4,3,4,3,4,3,4,3,4,3,4,3,4,3,4,3,4,3,4,3,4,3,4,3,4,3,4,3,4,3,4,3,4,3,4,3,4,3,4,3,4,3,4,3,4,3,4,3,4,3,4,3,4,3,4,3,4,3,4,3,4,3,4,3,4,3,4,3,4,3,4,3,4,3,4,3,4,3,4,3,4,3,4,3,4,3,4,3,4,3,4,3,4,3,4,3,4,3,4,3,4,57,58,57,3,4,3,4,3,4,3,4,3,4,3,57,3,4,3,4,3,4,3,4,5,3,4,3,4,3,4,3,4,3,4,3,4,3,4,3,4,3,4,3,4,3,4,3,4,3,4,3,4,3,4,3,4,3,4,3,4,3,4,3,4,3,4,3,4,3,4,3,
1,2,1,2,1,2,1,2,1,2,1,2,1,2,1,2,1,2,1,2,1,2,1,2,1,2,1,2,1,2,1,2,1,2,1,2,1,2,1,2,1,2,1,2,1,2,1,2,1,2,1,2,1,2,1,27,28,29,109,110,52,53,54,55,56,2,1,2,1,2,1,19,46,47,66,67,113,114,113,114,113,114,111,117,152,153,113,114,113,114,113,114,113,114,113,114,113,114,113,114,113,114,113,114,113,114,113,114,113,114,113,114,113,114,113,114,113,114,113,114,113,114,113,114,113,114,113,114,113,114,113,114,111,117,54,55,44,45,56,2,1,2,1,2,1,2,1,2,1,2,1,2,1,2,1,2,1,2,1,2,1,2,1,2,1,2,1,2,1,2,1,2,1,2,1,2,1,2,1,2,1,2,1,2,1,2,1,2,1,2,1,2,1,2,1,2,1,2,1,2,1,11,46,47,48,49,48,49,48,49,48,49,48,49,48,49,48,49,66,67,12,13,138,137,137,137,137,137,137,137,137,137,137,137,137,137,137,137,137,137,137,137,137,137,137,137,137,137,137,137,137,137,137,137,137,137,137,137,137,137,137,137,137,137,137,137,137,137,137,137,137,137,137,137,137,137,137,137,137,137,137,137,137,137,137,137,137,137,137,137,137,137,137,137,133,134,133,134,133,134,135,13,12,132,136,137,137,137,137,137,133,134,133,134,136,137,137,137,137,137,137,140,54,55,56,2,1,2,1,2,1,2,1,2,1,2,1,2,1,2,1,2,1,2,1,2,1,2,1,2,1,2,1,2,1,2,1,2,1,2,1,2,1,2,1,2,1,2,1,2,1,2,1,2,1,2,1,2,1,2,1,2,1,2,1,2,1,2,1,2,1,2,1,2,1,2,1,2,1,2,1,2,1,2,1,2,1,2,1,2,1,2,1,2,1,2,1,2,1,2,1,2,1,2,1,2,1,2,1,2,1,2,1,2,1,2,1,2,1,2,1,2,1,2,1,2,1,2,1,2,1,2,1,2,1,2,1,2,1,2,1,2,1,6,21,2,1,2,1,2,1,2,1,2,1,2,1,2,1,2,1,2,1,2,1,2,1,2,1,2,1,2,1,2,1,2,1,2,1,2,1,2,1,2,1,2,1,2,1,2,1,2,
3,4,3,4,3,4,3,4,3,4,3,4,3,4,3,4,3,4,3,4,3,4,3,4,3,4,3,4,3,4,3,4,3,4,3,4,3,4,3,4,3,4,3,4,3,4,3,4,3,4,3,4,3,4,3,4,34,28,16,115,65,17,55,57,3,4,3,4,3,4,3,20,59,60,70,71,116,106,107,106,107,106,107,120,161,162,116,106,107,106,107,106,107,106,107,106,107,106,107,106,107,106,107,106,107,106,107,106,107,106,107,106,107,106,107,106,107,106,107,106,107,106,107,106,107,106,107,106,107,106,107,106,107,120,55,57,58,57,3,4,3,4,3,4,3,4,3,4,3,4,3,4,3,4,3,4,3,4,3,4,3,4,3,4,3,4,3,4,3,4,3,4,3,4,3,4,3,4,3,4,3,4,3,4,3,4,3,4,3,4,3,4,5,3,4,3,4,3,4,3,4,15,59,60,61,62,61,62,61,62,61,62,61,62,61,62,61,62,70,71,16,17,139,137,137,137,137,137,137,137,137,137,137,137,137,137,137,137,137,137,137,137,137,137,137,137,137,137,137,137,137,137,137,154,148,149,148,149,148,149,148,149,148,149,147,137,137,137,137,137,137,137,137,137,137,137,137,137,137,137,137,137,137,137,137,137,137,137,137,137,137,137,137,137,137,137,137,137,137,137,137,135,132,136,137,137,137,137,137,137,137,137,137,137,137,137,137,137,137,137,137,141,55,57,3,4,3,4,3,4,3,4,3,4,3,4,3,4,3,4,3,4,3,4,3,4,3,4,3,4,3,4,3,4,3,4,3,4,3,4,3,4,3,4,3,4,3,4,3,4,3,4,3,4,3,4,3,4,3,4,3,4,3,4,3,4,3,4,3,4,3,4,3,4,3,4,3,4,3,4,3,4,3,4,3,4,3,4,3,4,3,4,3,4,3,4,3,4,3,4,3,4,3,4,3,4,3,4,3,4,3,4,3,4,3,4,3,4,3,4,3,4,3,4,3,4,3,4,3,4,3,4,3,4,3,4,3,4,3,4,3,4,8,9,16,26,5,3,4,3,4,3,4,3,4,3,4,3,4,3,4,3,4,3,4,3,4,3,4,3,4,3,4,3,4,3,4,3,4,3,4,3,4,3,4,3,4,3,4,3,4,3,
1,2,1,2,1,2,1,2,1,2,1,2,1,2,1,2,1,2,1,2,1,2,1,2,1,2,1,2,1,2,1,2,1,2,1,2,1,2,1,2,1,2,1,2,1,2,1,2,1,2,1,2,1,2,1,2,1,27,42,43,44,45,56,2,1,2,1,2,1,2,1,11,46,47,66,67,113,114,113,114,113,114,111,117,167,168,122,114,111,114,111,114,111,114,111,114,111,114,111,114,113,114,113,114,113,114,113,114,113,114,113,114,113,114,113,114,113,114,113,114,113,114,113,114,113,114,113,114,113,114,113,114,111,121,21,2,1,2,1,2,1,2,1,2,1,2,1,2,1,2,1,2,1,2,1,2,1,2,1,2,1,2,1,2,1,2,1,2,1,2,1,2,1,2,1,2,1,2,1,2,1,2,1,2,1,2,1,2,1,2,1,11,21,2,1,2,1,2,1,2,1,6,46,47,48,49,48,49,48,49,48,49,48,49,48,49,48,49,66,67,12,13,138,137,137,137,137,137,137,137,137,137,137,137,137,137,137,137,137,137,137,137,137,137,137,137,137,137,137,137,137,137,137,140,55,150,151,150,151,150,151,150,151,28,138,137,137,137,137,137,137,137,137,137,137,137,137,137,137,137,137,137,137,137,137,137,137,137,137,137,137,137,137,137,137,137,137,137,137,137,137,137,136,137,137,137,137,137,137,137,137,137,137,137,137,137,137,137,137,137,137,140,21,2,1,2,1,2,1,2,1,2,1,2,1,2,1,2,1,2,1,2,1,2,1,2,1,2,1,2,1,2,1,2,1,2,1,2,1,2,1,2,1,2,1,2,1,2,1,2,1,2,1,2,1,2,1,2,1,2,1,2,1,2,1,2,1,2,1,2,1,2,1,2,1,2,1,2,1,2,1,2,1,2,1,2,1,2,1,2,1,2,1,2,1,2,1,2,1,2,1,2,1,2,1,2,1,2,1,2,1,2,1,2,1,2,1,2,1,2,1,2,1,2,1,2,1,2,1,2,1,2,1,2,1,2,1,2,1,2,1,6,12,13,12,13,21,2,1,2,1,2,1,2,1,2,1,2,1,2,1,2,1,2,1,2,1,2,1,2,1,2,1,2,1,2,1,2,1,2,1,2,1,2,1,2,1,2,1,2,1,2,
3,4,3,4,3,4,3,4,3,4,3,4,3,4,3,4,3,4,3,4,3,4,3,4,3,4,3,4,3,4,3,4,3,4,3,4,3,4,3,4,3,4,3,4,3,4,3,4,3,4,3,4,3,4,3,4,3,4,3,57,58,57,3,4,3,4,3,4,3,4,3,15,59,60,70,71,116,106,107,106,107,106,107,120,155,160,16,124,118,119,118,119,118,119,118,119,118,119,118,119,107,106,107,106,107,106,107,106,107,106,107,106,107,106,107,106,107,106,107,106,107,106,107,106,107,106,107,106,107,106,107,106,123,17,16,26,22,23,5,3,4,3,4,3,4,3,4,3,4,3,4,3,4,3,4,3,4,3,4,3,4,3,4,3,4,3,4,3,4,3,4,3,4,3,4,3,4,3,4,3,4,3,4,3,4,3,4,3,4,3,4,15,16,26,5,3,4,3,4,4,8,9,59,60,61,62,61,62,72,73,74,75,76,62,61,62,61,62,70,71,16,17,139,137,137,137,137,137,137,137,137,137,137,137,137,137,137,137,137,137,137,137,137,137,137,137,137,137,137,137,137,137,137,141,155,159,159,159,159,159,159,159,159,160,139,137,137,137,137,137,137,137,137,137,137,137,137,137,137,137,137,137,137,137,137,137,137,137,137,137,137,137,137,137,137,137,137,137,137,137,137,137,137,137,137,137,137,137,137,137,137,137,137,137,137,137,137,137,137,137,137,141,16,26,5,3,4,3,4,3,4,3,4,3,4,3,4,3,4,3,4,3,4,3,4,3,4,3,4,3,4,3,4,3,4,3,4,3,4,3,4,3,4,3,4,3,4,3,4,3,4,3,4,3,4,3,4,3,4,3,4,3,4,3,4,3,4,3,4,3,4,3,4,3,4,3,4,3,4,3,4,3,4,3,4,3,4,3,4,3,4,3,4,3,4,3,4,3,4,3,4,3,4,3,4,3,4,3,4,3,4,3,4,3,4,3,4,3,4,3,4,3,4,3,4,3,4,3,4,3,4,3,4,3,4,3,4,3,4,4,8,9,16,17,16,17,16,26,5,3,4,3,4,3,4,3,4,3,4,3,4,3,4,3,4,3,4,3,4,3,4,3,4,3,4,3,4,3,4,3,4,3,4,3,4,3,4,3,4,3,4,3,
1,2,1,2,1,2,1,2,1,2,1,2,1,2,1,2,1,2,1,2,1,2,1,2,1,2,1,2,1,2,1,2,1,2,1,2,1,2,1,2,1,2,1,2,1,2,1,2,1,2,1,2,1,2,1,2,1,2,1,2,1,2,1,2,1,2,1,2,1,2,1,6,46,47,66,67,113,114,113,114,113,114,111,121,167,159,151,150,151,150,151,150,151,150,151,150,151,150,151,28,113,114,113,114,113,114,113,114,113,114,113,114,113,114,113,114,113,114,113,114,113,114,113,114,113,114,113,114,113,114,111,117,12,13,12,183,186,13,21,2,1,2,1,2,1,2,1,2,1,2,1,2,1,2,1,2,1,2,1,2,1,2,1,2,1,2,1,2,1,2,1,2,1,2,1,2,1,2,1,2,1,2,1,2,1,2,1,2,1,2,1,6,12,13,14,2,1,2,1,19,12,30,48,49,48,49,77,78,79,80,81,82,83,49,48,49,48,49,66,67,12,13,138,137,137,137,137,137,137,137,137,137,137,137,137,137,137,137,137,137,137,137,137,137,137,137,137,137,137,137,137,137,137,140,167,159,159,159,159,159,159,159,159,168,138,137,137,137,137,137,137,137,137,137,137,137,137,137,137,137,137,137,137,137,137,137,137,137,137,137,137,137,137,137,137,137,137,137,137,137,137,137,137,137,137,137,137,137,137,137,137,137,137,137,137,137,137,137,137,137,137,137,135,13,14,2,1,2,1,2,1,2,1,2,1,2,1,2,1,2,1,2,1,2,1,2,1,2,1,2,1,2,1,2,1,2,1,2,1,2,1,2,1,2,1,2,1,2,1,2,1,2,1,2,1,2,1,2,1,2,1,2,1,2,1,2,1,2,1,2,1,2,1,2,1,2,1,2,1,2,1,2,1,2,1,2,1,2,1,2,1,2,1,2,1,2,1,2,1,2,1,2,1,2,1,2,1,2,1,2,1,2,1,2,1,2,1,2,1,2,1,2,1,2,1,2,1,2,1,2,1,2,1,2,1,2,1,2,1,19,12,13,12,30,33,13,54,55,56,2,1,2,1,2,1,2,1,2,1,2,1,2,1,2,1,2,1,2,1,2,1,2,1,2,1,2,1,2,1,2,1,2,1,2,1,2,1,2,1,2,1,2,
3,4,3,4,3,4,3,4,3,4,3,4,3,4,3,4,3,4,3,4,3,4,3,4,3,4,3,4,3,4,3,4,3,4,3,4,3,4,3,4,3,4,3,4,3,4,3,4,3,4,3,4,3,4,3,4,3,4,3,4,3,4,3,4,3,4,3,4,3,4,8,9,59,60,70,71,116,106,107,106,107,106,123,17,21,158,157,158,157,158,157,158,157,158,157,158,157,158,159,160,116,106,107,106,107,106,107,106,107,106,107,106,107,106,107,106,107,106,107,106,107,106,107,106,107,106,107,106,107,106,107,120,16,17,187,188,190,191,16,26,24,25,5,3,4,3,4,3,4,3,4,3,4,3,4,3,4,3,4,3,4,3,4,3,4,3,4,3,4,3,4,3,4,3,4,3,4,3,4,3,4,3,4,3,4,3,4,3,4,4,8,9,16,17,18,3,4,3,4,20,36,37,61,62,61,62,84,85,86,87,88,89,90,62,61,62,61,62,70,71,16,17,139,137,137,137,137,137,137,137,137,137,137,137,137,137,137,137,137,137,137,137,137,137,137,137,137,137,137,137,137,137,137,141,155,159,159,159,159,159,159,159,159,160,139,137,137,137,137,137,137,137,137,137,137,137,137,137,137,137,137,137,137,137,137,137,137,137,137,137,137,137,137,137,137,137,137,137,137,137,137,137,137,137,137,137,137,137,137,137,137,137,137,137,137,137,137,137,137,137,137,137,137,135,18,3,4,3,4,3,4,3,4,3,4,3,4,3,4,3,4,3,4,3,4,3,4,3,4,3,4,3,4,3,4,3,4,3,4,3,4,3,4,3,4,3,4,3,4,3,4,3,4,3,4,3,4,3,4,3,4,3,4,3,4,3,4,3,4,3,4,3,4,3,4,3,4,3,4,3,4,3,4,3,4,3,4,3,4,3,4,3,4,3,4,3,4,3,4,3,4,3,4,3,4,3,4,3,4,3,4,3,4,3,4,3,4,3,4,3,4,3,4,3,4,3,4,3,4,3,4,3,4,3,4,3,4,3,4,20,16,17,36,37,40,41,55,57,3,4,3,4,3,4,3,4,3,4,3,4,3,4,3,4,3,4,3,4,3,4,3,4,3,4,3,4,3,4,3,4,3,4,3,4,3,4,3,4,3,4,3,4,
1,2,1,2,1,2,1,2,1,2,1,2,1,2,1,2,1,2,1,2,1,2,1,2,1,2,1,2,1,2,1,2,1,2,1,2,1,2,1,2,1,2,1,2,1,2,1,2,1,2,1,2,1,2,1,2,1,2,1,2,1,2,1,2,1,2,1,2,1,19,12,30,48,49,66,67,122,114,111,114,111,121,12,103,111,112,111,112,111,112,111,112,111,112,111,112,104,13,167,168,113,114,113,114,113,114,113,114,113,114,113,114,113,114,113,114,113,114,113,114,113,114,113,114,113,114,113,114,113,114,111,117,12,13,199,189,189,213,186,13,12,13,21,2,1,2,1,2,1,2,1,2,1,2,1,2,1,2,1,2,1,2,1,2,1,2,1,2,1,2,1,2,1,2,1,2,1,2,1,2,1,2,1,2,1,2,1,2,1,11,12,30,33,13,21,2,1,2,1,11,46,47,48,49,48,49,91,92,93,94,95,96,48,49,48,49,48,49,66,67,12,13,138,137,137,137,137,137,137,137,137,137,137,137,137,137,137,137,137,137,137,137,137,137,137,137,137,137,137,137,137,137,137,140,167,159,159,159,159,159,159,159,159,168,138,137,137,137,137,137,137,137,137,137,137,137,137,137,137,137,137,137,137,137,137,137,137,137,137,137,137,137,137,137,137,137,137,137,137,137,137,137,137,137,137,137,137,137,137,137,137,137,137,137,137,137,137,137,137,137,137,137,137,140,7,2,1,2,1,2,1,2,1,2,1,2,1,2,1,2,1,2,1,2,1,2,1,2,1,2,1,2,1,2,1,2,1,2,1,2,1,2,1,2,1,2,1,2,1,2,1,2,1,2,1,2,1,2,1,2,1,2,1,2,1,2,1,2,1,2,1,2,1,2,1,2,1,2,1,2,1,2,1,2,1,2,1,2,1,2,1,2,1,2,1,2,1,2,1,2,1,2,1,2,1,2,1,2,1,2,1,2,1,2,1,2,1,2,1,2,1,2,1,2,1,2,1,2,1,2,1,2,1,2,1,2,1,2,1,11,12,13,109,110,52,53,14,2,1,2,1,2,1,2,1,2,1,2,1,2,1,2,1,2,1,2,1,2,1,2,1,2,1,2,1,2,1,2,1,2,1,2,1,2,1,2,1,2,1,2,1,2,
3,4,3,4,3,4,3,4,3,4,3,4,3,4,3,4,3,4,3,4,3,4,3,4,3,4,3,4,3,4,3,4,3,4,3,4,3,4,3,4,3,4,3,4,3,4,3,4,3,4,3,4,3,4,3,4,3,4,3,4,3,4,3,4,3,4,3,4,3,20,36,37,61,62,70,71,16,124,118,119,123,17,105,106,107,106,107,106,107,106,107,106,107,106,107,106,107,108,155,160,116,106,107,106,107,106,107,106,107,106,107,106,107,106,107,106,107,106,107,106,107,106,107,106,107,106,107,106,107,106,107,120,16,17,200,189,189,189,190,191,16,17,16,26,24,25,22,23,5,3,4,3,4,3,4,3,4,3,4,3,4,3,4,3,4,3,4,3,4,3,4,3,4,3,4,3,4,3,4,3,4,4,5,3,4,3,4,3,4,15,36,37,40,41,16,26,5,3,4,15,59,60,61,62,61,62,61,62,97,98,99,100,61,62,61,62,61,62,70,71,16,17,139,137,137,137,137,137,137,137,137,137,137,137,137,137,137,137,137,137,137,137,137,137,137,137,137,137,137,137,137,137,137,141,21,158,157,158,157,158,157,158,157,6,139,137,137,137,137,137,137,137,137,137,137,137,137,137,137,137,137,137,137,137,137,137,137,137,137,137,137,137,137,137,137,137,137,137,137,137,137,137,137,137,137,137,137,137,137,137,137,137,137,137,137,154,148,149,148,149,147,137,137,141,10,3,4,3,4,3,4,3,4,3,4,3,4,3,4,3,4,3,4,3,4,3,4,3,4,3,4,3,4,3,4,3,4,3,4,3,4,4,5,3,4,3,4,3,4,3,4,3,4,3,4,3,4,3,4,3,4,3,4,3,4,3,4,3,4,3,4,3,4,3,4,3,4,3,4,3,4,3,4,3,4,3,4,3,4,3,4,3,4,3,4,3,4,3,4,3,4,3,4,3,4,3,4,3,4,3,4,3,4,3,4,3,4,3,4,3,4,3,4,3,4,3,4,3,4,3,4,3,4,3,4,3,4,3,4,15,35,17,16,115,65,17,18,3,4,3,4,3,4,3,4,3,4,3,4,3,4,3,4,3,4,3,4,3,4,3,4,3,4,3,4,3,4,3,4,3,4,3,4,3,4,3,4,3,4,3,4,3,
1,2,1,2,1,2,1,2,1,2,1,2,1,2,1,2,1,2,1,2,1,2,1,2,1,2,1,2,1,2,1,2,1,2,1,2,1,2,1,2,1,2,1,2,1,2,1,2,1,2,1,2,1,2,1,2,1,2,1,2,1,2,1,2,1,2,1,2,1,11,109,110,48,49,48,49,33,13,12,103,111,112,113,114,113,114,113,114,113,114,113,114,113,114,113,114,111,117,167,168,113,114,113,114,113,114,113,114,113,114,113,114,113,114,113,114,113,114,113,114,113,114,113,114,113,114,111,114,111,114,111,121,12,13,199,189,189,189,189,213,186,13,12,13,12,13,12,13,21,2,1,2,1,2,1,2,1,2,1,2,1,2,1,2,1,2,1,2,1,2,1,2,1,2,1,2,1,2,1,2,1,6,21,2,1,2,1,2,1,6,46,47,48,49,33,13,7,2,1,11,46,47,48,49,48,49,48,49,91,92,101,102,48,49,48,49,48,49,48,49,33,13,146,147,137,137,137,137,137,137,137,137,137,137,137,137,137,137,137,137,137,137,137,137,137,137,137,137,137,137,137,137,137,137,133,134,133,134,135,13,209,210,12,132,136,137,137,137,137,137,137,137,137,137,137,137,137,137,137,137,137,137,137,137,137,137,137,137,137,137,137,137,137,137,137,137,137,137,137,137,137,137,137,137,137,137,137,137,137,137,137,137,137,137,154,182,12,30,33,13,146,147,154,182,7,2,1,2,1,2,1,2,1,2,1,2,1,2,1,2,1,2,1,2,1,2,1,2,1,2,1,2,1,2,1,2,1,2,1,2,1,19,21,2,1,2,1,2,1,2,1,2,1,2,1,2,1,2,1,2,1,2,1,2,1,2,1,2,1,2,1,2,1,2,1,2,1,2,1,2,1,2,1,2,1,2,1,2,1,2,1,2,1,2,1,2,1,2,1,2,1,2,1,2,1,2,1,2,1,2,1,2,1,2,1,2,1,2,1,2,1,2,1,2,1,2,1,2,1,2,1,2,1,2,1,2,1,2,1,27,28,29,12,13,12,13,7,2,1,2,1,2,1,2,1,2,1,2,1,2,1,2,1,2,1,2,1,2,1,2,1,2,1,2,1,2,1,2,1,2,1,2,1,2,1,2,1,2,1,2,1,2,
3,4,3,4,3,4,3,4,3,4,3,4,3,4,3,4,3,4,3,4,3,4,3,4,3,4,3,4,3,4,3,4,3,4,3,4,3,4,3,4,3,4,3,4,3,4,3,4,3,4,3,4,3,4,3,4,3,4,3,4,3,4,3,4,3,4,3,4,3,15,16,115,61,62,61,62,40,41,105,106,107,106,107,106,107,106,107,106,107,106,107,106,107,106,107,106,107,120,155,160,116,106,107,106,107,106,107,106,107,106,107,106,107,106,107,106,107,106,107,106,107,106,107,106,107,106,118,119,118,119,123,17,16,17,200,189,189,189,189,189,190,191,16,17,16,17,16,17,16,26,24,25,22,23,5,3,4,3,4,3,4,3,4,3,4,3,4,3,4,3,4,3,4,3,4,3,4,3,4,4,8,9,16,26,22,23,24,25,8,9,59,60,61,62,40,41,10,3,4,15,59,60,61,62,61,62,61,62,61,62,61,62,61,62,61,62,61,62,61,62,40,41,16,146,147,137,137,137,137,137,137,137,137,137,137,137,137,137,137,137,137,137,137,137,137,137,137,137,137,137,137,137,137,137,137,137,137,137,137,135,211,17,132,136,137,137,137,137,137,137,137,137,137,137,137,137,137,137,137,137,137,137,137,137,137,137,137,137,137,137,137,137,137,137,137,137,137,137,137,137,137,137,137,137,137,137,137,137,137,137,137,137,137,154,182,17,36,37,40,41,16,146,182,17,10,3,4,3,4,3,4,3,4,3,4,3,4,3,4,3,4,3,4,3,4,3,4,3,4,3,4,3,4,3,4,3,4,3,4,3,4,20,16,26,5,3,4,3,4,3,4,3,4,3,4,3,4,3,4,3,4,3,4,3,4,3,4,3,4,3,4,3,4,3,4,3,4,3,4,3,4,3,4,3,4,3,4,3,4,3,4,3,4,3,4,3,4,3,4,3,4,3,4,3,4,3,4,3,4,3,4,3,4,3,4,3,4,3,4,3,4,3,4,3,4,3,4,3,4,3,4,3,4,3,4,3,4,3,4,3,34,28,16,17,16,17,10,3,4,3,4,3,4,3,4,3,4,3,4,3,4,3,4,3,4,3,4,3,4,3,4,3,4,3,4,3,4,3,4,3,4,3,4,3,4,3,4,3,4,3,4,3,
1,2,1,2,1,2,1,2,1,2,1,2,1,2,1,2,1,2,1,2,1,2,1,2,1,2,1,2,1,2,1,2,1,2,1,2,1,2,1,2,1,2,1,2,1,2,1,2,1,2,1,2,1,2,1,2,1,2,1,2,1,2,1,2,1,2,1,2,1,27,28,29,109,110,50,51,52,53,113,114,113,114,113,114,113,114,113,114,113,114,113,114,113,114,113,114,111,117,167,168,113,114,113,114,113,114,113,114,113,114,113,114,113,114,113,114,113,114,113,114,113,114,113,114,111,121,12,13,12,13,12,13,12,183,192,189,189,189,189,189,189,213,184,185,186,13,12,13,12,13,12,30,33,13,21,2,1,2,1,2,1,2,1,2,1,2,1,2,1,2,1,2,1,2,1,2,1,2,1,6,12,30,31,32,31,32,31,32,31,32,48,49,48,49,66,67,7,2,1,19,46,47,48,49,48,49,48,49,48,49,48,49,48,49,48,49,48,49,48,49,48,49,33,13,146,147,137,137,137,137,137,137,137,137,137,137,137,137,137,137,137,137,137,137,137,137,137,137,137,137,137,137,137,137,137,137,137,137,137,137,133,134,136,137,137,137,137,137,137,137,137,137,137,137,137,137,137,137,137,137,137,137,137,137,137,137,137,137,137,137,137,137,137,137,137,137,137,137,137,137,137,137,137,137,137,137,137,137,137,137,137,137,137,140,12,30,48,49,52,53,12,13,54,55,56,2,1,2,1,2,1,2,1,2,1,2,1,2,1,2,1,2,1,2,1,2,1,2,1,2,1,2,1,2,1,2,1,2,1,2,1,11,12,13,21,2,1,2,1,2,1,2,1,2,1,2,1,2,1,2,1,2,1,2,1,2,1,2,1,2,1,2,1,2,1,2,1,2,1,2,1,2,1,2,1,2,1,2,1,2,1,2,1,2,1,2,1,2,1,2,1,2,1,2,1,2,1,2,1,2,1,2,1,2,1,2,1,2,1,2,1,2,1,2,1,2,1,2,1,2,1,2,1,2,1,2,1,2,1,2,1,27,28,29,54,55,56,2,1,2,1,2,1,2,1,2,1,2,1,2,1,2,1,2,1,2,1,2,1,2,1,2,1,2,1,2,1,2,1,2,1,2,1,2,1,2,1,2,1,2,1,2,
3,4,3,4,3,4,3,4,3,4,3,4,3,4,3,4,3,4,3,4,3,4,3,4,3,4,3,4,3,4,3,4,3,4,3,4,3,4,3,4,3,4,3,4,3,4,3,4,3,4,3,4,3,4,3,4,3,4,3,4,3,4,3,4,3,4,3,4,3,4,34,28,16,115,63,64,65,17,116,106,107,106,107,106,107,106,107,106,107,106,107,106,107,106,107,106,107,120,155,160,116,106,107,106,107,106,107,106,107,106,107,106,107,106,107,106,107,106,107,106,107,106,107,106,123,17,16,17,16,17,16,17,187,188,189,189,189,189,189,189,189,189,189,189,190,191,16,17,16,17,36,37,40,41,16,26,24,25,22,23,24,25,22,23,24,25,22,23,24,25,22,23,24,25,22,23,24,25,8,9,36,37,38,39,38,39,38,39,38,39,61,62,61,62,70,71,10,3,4,20,59,60,61,62,61,62,72,73,74,75,76,62,61,62,61,62,61,62,61,62,61,62,40,41,16,146,148,149,148,149,147,137,137,137,137,137,137,137,137,137,137,137,137,137,137,137,137,137,137,137,137,137,137,137,137,137,137,137,137,137,137,137,137,137,137,137,137,137,137,137,137,137,137,137,137,137,137,137,137,137,137,137,137,137,137,137,137,137,137,137,137,137,137,137,137,137,137,137,137,137,137,137,137,137,137,137,137,137,137,137,137,137,137,141,36,37,61,62,65,17,17,35,55,57,3,4,3,4,3,4,3,4,3,4,3,4,3,4,3,4,3,4,3,4,3,4,3,4,3,4,3,4,3,4,3,4,3,4,3,4,3,15,35,17,16,26,5,3,4,3,4,3,4,3,4,3,4,3,4,3,4,3,4,3,4,3,4,3,4,3,4,3,4,3,4,3,4,3,4,3,4,3,4,3,4,3,4,3,4,3,4,3,4,3,4,3,4,3,4,3,4,3,4,3,4,3,4,3,4,3,4,3,4,3,4,3,4,3,4,3,4,3,4,3,4,3,4,3,4,3,4,3,4,3,4,3,4,3,4,3,4,3,34,28,55,57,3,4,3,4,3,4,3,4,3,4,3,4,3,4,3,4,3,4,3,4,3,4,3,4,3,4,3,4,3,4,3,4,3,4,3,4,3,4,3,4,3,4,3,4,3,4,
1,2,1,2,1,2,1,2,1,2,1,2,1,2,1,2,1,2,1,2,1,2,1,2,1,2,1,2,1,2,1,2,1,2,1,2,1,2,1,2,1,2,1,2,1,2,1,2,1,2,1,2,1,2,1,2,1,2,1,2,1,2,1,2,1,2,1,2,1,2,1,27,28,29,12,103,111,112,113,114,113,114,113,114,113,114,113,114,113,114,113,114,113,114,113,114,111,121,167,168,113,114,113,114,113,114,113,114,113,114,113,114,113,114,113,114,113,114,113,114,113,114,111,121,12,13,12,183,184,185,184,185,192,189,189,189,189,189,189,189,189,189,189,189,189,213,186,13,12,13,46,47,48,49,31,32,31,32,31,32,31,32,31,32,31,32,31,32,31,32,31,32,31,32,31,32,31,32,31,32,48,49,48,49,48,49,48,49,48,49,48,49,48,49,66,67,14,2,1,11,46,47,48,49,77,78,79,80,81,82,83,49,48,49,48,49,48,49,48,49,48,49,48,49,31,32,31,32,33,13,138,137,137,137,137,137,137,137,137,137,137,137,137,137,137,137,137,137,137,137,137,137,137,137,137,137,137,137,137,137,137,137,137,137,137,137,137,137,137,137,137,137,137,137,137,137,137,137,137,137,137,137,137,137,137,137,137,137,137,137,137,137,137,137,137,137,137,137,137,137,137,137,137,137,137,137,137,137,137,137,137,137,137,140,46,47,66,67,54,55,44,45,56,2,1,2,1,2,1,2,1,2,1,2,1,2,1,2,1,2,1,2,1,2,1,2,1,2,1,2,1,2,1,2,1,2,1,2,1,2,1,27,28,29,12,13,14,2,1,2,1,2,1,2,1,2,1,2,1,2,1,2,1,2,1,2,1,2,1,2,1,2,1,2,1,2,1,2,1,2,1,2,1,2,1,2,1,2,1,2,1,2,1,2,1,2,1,2,1,2,1,2,1,2,1,2,1,2,1,2,1,2,1,2,1,2,1,2,1,2,1,2,1,2,1,2,1,2,1,2,1,2,1,2,1,2,1,2,1,2,1,2,1,27,56,2,1,2,1,2,1,2,1,2,1,2,1,2,1,2,1,2,1,2,1,2,1,2,1,2,1,2,1,2,1,2,1,2,1,2,1,2,1,2,1,2,1,2,1,2,1,2,
3,4,3,4,3,4,3,4,3,4,3,4,3,4,3,4,3,4,3,4,3,4,3,4,3,4,3,4,3,4,3,4,3,4,3,4,3,4,3,4,3,4,3,4,3,4,3,4,3,4,3,4,3,4,3,4,3,4,3,4,3,4,3,4,3,4,3,4,3,4,3,4,34,28,105,106,107,106,107,106,107,106,107,106,107,106,107,106,107,106,107,106,107,106,107,106,123,17,155,160,116,106,107,106,107,106,107,106,107,106,107,106,107,106,107,106,107,106,107,106,107,106,123,17,16,17,187,188,189,189,189,189,189,189,189,189,189,189,189,189,189,189,189,189,189,189,190,191,16,17,59,60,61,62,38,39,38,39,38,39,38,39,38,39,38,39,38,39,38,39,38,39,38,39,38,39,38,39,38,39,61,62,61,62,61,62,61,62,61,62,61,62,61,62,70,71,18,3,4,15,59,60,61,62,84,85,86,87,88,89,90,62,61,62,61,62,61,62,61,62,61,62,61,62,38,39,38,39,40,41,139,137,137,137,137,137,137,137,137,137,137,137,137,137,137,137,137,137,137,137,137,137,137,137,137,137,137,137,137,137,137,137,137,137,137,137,137,137,137,137,137,137,137,137,137,137,137,137,137,137,137,137,137,137,137,137,137,137,137,137,137,137,137,137,137,137,137,137,137,137,137,137,137,137,137,137,137,137,137,137,137,137,137,141,59,60,70,71,55,57,58,57,3,4,3,4,3,4,3,4,3,4,3,4,3,4,3,4,3,4,3,4,3,4,3,4,3,4,3,4,3,4,3,4,3,4,3,4,3,4,3,4,34,28,16,17,18,3,4,3,4,3,4,3,4,3,4,3,4,3,4,3,4,3,4,3,4,3,4,3,4,3,4,3,4,3,4,3,4,3,4,3,4,3,4,3,4,3,4,3,4,3,4,3,4,3,4,3,4,3,4,3,4,3,4,3,4,3,4,3,4,3,4,3,4,3,4,3,4,3,4,3,4,3,4,3,4,3,4,3,4,3,4,3,4,3,4,3,4,3,4,3,4,3,4,3,4,3,4,3,4,3,4,3,4,3,4,3,4,3,4,3,4,3,4,3,4,3,4,3,4,3,4,3,4,3,4,3,4,3,4,3,4,3,4,3,4,3,4,3,4,3,
1,2,1,2,1,2,1,2,1,2,1,2,1,2,1,2,1,2,1,2,1,2,1,2,1,2,1,2,1,2,1,2,1,2,1,2,1,2,1,2,1,2,1,2,1,2,1,2,1,2,1,2,1,2,1,2,1,2,1,2,1,2,1,2,1,2,1,2,1,2,1,2,1,19,113,114,113,114,113,114,113,114,113,114,113,114,113,114,113,114,113,114,113,114,111,121,55,150,181,168,113,114,113,114,113,114,113,114,113,114,113,114,113,114,113,114,113,114,113,114,113,114,104,13,12,13,199,189,189,189,189,189,189,189,189,189,189,189,189,189,189,189,189,189,189,189,189,193,12,13,46,47,48,49,48,49,48,49,48,49,48,49,48,49,48,49,48,49,48,49,48,49,48,49,48,49,48,49,48,49,48,49,48,49,48,49,48,49,48,49,48,49,48,49,66,67,21,2,1,6,46,47,48,49,91,92,93,94,95,96,48,49,48,49,48,49,48,49,48,49,48,49,48,49,48,49,48,49,52,53,138,137,137,137,137,137,137,137,137,137,137,137,137,137,137,137,137,137,137,137,137,137,137,137,137,137,137,137,137,137,137,137,137,137,137,137,137,137,137,137,137,137,137,137,137,137,137,137,137,137,137,137,137,137,137,137,137,137,137,137,137,137,137,137,137,137,137,137,137,137,137,137,137,137,137,137,137,137,137,137,137,137,154,182,46,47,66,67,14,2,1,2,1,2,1,2,1,2,1,2,1,2,1,2,1,2,1,2,1,2,1,2,1,2,1,2,1,2,1,2,1,2,1,2,1,2,1,2,1,2,1,2,1,19,12,13,7,2,1,2,1,2,1,2,1,2,1,2,1,2,1,2,1,2,1,2,1,2,1,2,1,2,1,2,1,2,1,2,1,2,1,2,1,2,1,2,1,2,1,2,1,2,1,2,1,2,1,2,1,2,1,2,1,2,1,2,1,2,1,2,1,2,1,2,1,2,1,2,1,2,1,2,1,2,1,2,1,2,1,2,1,2,1,2,1,2,1,2,1,2,1,2,1,2,1,2,1,2,1,2,1,2,1,2,1,2,1,2,1,2,1,2,1,2,1,2,1,2,1,2,1,2,1,2,1,2,1,2,1,2,1,2,1,2,1,2,1,2,1,2,1,2,
3,4,3,4,3,4,3,4,3,4,3,4,3,4,3,4,3,4,3,4,3,4,3,4,3,4,3,4,3,4,3,4,3,4,3,4,3,4,3,4,3,4,3,4,3,4,3,4,3,4,3,4,3,4,3,4,3,4,3,4,3,4,3,4,3,4,3,4,3,4,3,4,3,20,116,106,107,106,107,106,107,106,107,106,107,106,107,106,107,106,107,106,107,106,123,17,155,156,157,6,116,106,107,106,107,106,107,106,107,106,107,106,107,106,107,106,107,106,107,106,107,106,107,108,16,17,200,189,189,189,189,189,189,189,189,189,189,189,189,189,189,189,189,189,189,189,189,194,16,17,59,60,61,62,61,62,61,62,61,62,61,62,61,62,61,62,61,62,61,62,61,62,61,62,61,62,61,62,61,62,61,62,61,62,61,62,61,62,61,62,61,62,61,62,70,71,16,26,8,9,59,60,61,62,61,62,97,98,99,100,61,62,61,62,61,62,61,62,61,62,61,62,61,62,61,62,61,62,65,17,139,137,137,137,137,137,137,137,137,137,137,137,137,137,137,137,137,137,137,137,137,137,137,137,137,137,137,137,137,137,137,137,137,137,137,137,137,137,137,137,137,137,137,137,137,137,137,137,137,137,137,137,137,137,137,137,137,137,137,137,137,137,137,137,137,137,137,137,137,137,137,137,137,137,137,137,137,137,137,137,137,154,182,17,59,60,70,71,18,3,4,3,4,3,4,3,4,3,4,3,4,3,4,3,4,3,4,3,4,3,4,3,4,3,4,3,4,3,4,3,4,3,4,3,4,3,4,3,4,3,4,3,4,20,16,17,10,3,4,3,4,3,4,3,4,3,4,3,4,3,4,3,4,3,4,3,4,3,4,3,4,3,4,3,4,3,4,3,4,3,4,3,4,3,4,3,4,3,4,3,4,3,4,3,4,3,4,3,4,3,4,3,4,3,4,3,4,3,4,3,4,3,4,3,4,3,4,3,4,3,4,3,4,3,4,3,4,3,4,3,4,3,4,3,4,3,4,3,4,3,4,3,4,3,4,3,4,3,4,3,4,3,4,3,4,3,4,3,4,3,4,3,4,3,4,3,4,3,4,3,4,3,4,3,4,3,4,3,4,3,4,3,4,3,4,3,4,3,4,3,4,3,
1,2,1,2,1,2,1,2,1,2,1,2,1,2,1,2,1,2,1,2,1,2,1,2,1,2,1,2,1,2,1,2,1,2,1,2,1,2,1,2,1,2,1,2,1,2,1,2,1,2,1,2,1,2,1,2,1,2,1,2,1,2,1,2,1,2,1,2,1,2,1,2,1,19,113,114,113,114,113,114,113,114,113,114,113,114,113,114,113,114,113,114,111,117,55,150,181,168,12,103,113,114,113,114,113,114,113,114,113,114,113,114,113,114,113,114,113,114,113,114,113,114,111,117,12,13,199,189,189,189,189,189,189,189,189,189,189,189,189,189,189,189,189,189,189,189,195,13,12,13,46,47,48,49,48,49,48,49,48,49,48,49,48,49,48,49,48,49,48,49,48,49,48,49,48,49,48,49,48,49,48,49,48,49,48,49,48,49,48,49,48,49,48,49,48,49,33,13,12,30,48,49,48,49,48,49,91,92,101,102,48,49,48,49,48,49,48,49,48,49,50,51,50,51,50,51,52,53,12,13,138,137,137,137,137,137,137,137,137,137,137,137,137,137,137,137,137,137,137,137,137,137,137,137,137,137,137,137,137,137,137,137,137,137,137,137,137,137,137,137,137,137,137,137,137,137,137,137,137,137,137,137,137,137,137,137,137,137,137,137,137,137,137,137,137,137,137,137,137,137,137,137,137,137,137,137,137,137,137,137,154,182,12,13,46,47,66,67,7,2,1,2,1,2,1,2,1,2,1,2,1,2,1,2,1,2,1,2,1,2,1,2,1,2,1,2,1,2,1,2,1,2,1,2,1,2,1,2,1,2,1,2,1,11,12,13,14,2,1,2,1,2,1,2,1,2,1,2,1,2,1,2,1,2,1,2,1,2,1,2,1,2,1,2,1,2,1,2,1,2,1,2,1,2,1,2,1,2,1,2,1,2,1,2,1,2,1,2,1,2,1,2,1,2,1,2,1,2,1,2,1,2,1,2,1,2,1,2,1,2,1,2,1,2,1,2,1,2,1,2,1,2,1,2,1,2,1,2,1,2,1,2,1,2,1,2,1,2,1,2,1,2,1,2,1,2,1,2,1,2,1,2,1,2,1,2,1,2,1,2,1,2,1,2,1,2,1,2,1,2,1,2,1,2,1,2,1,2,1,2,1,2,
3,4,3,4,3,4,3,4,3,4,3,4,3,4,3,4,3,4,3,4,3,4,3,4,3,4,3,4,3,4,3,4,3,4,3,4,3,4,3,4,3,4,3,4,3,4,3,4,3,4,3,4,3,4,3,4,3,4,3,4,3,4,3,4,3,4,3,4,3,4,3,4,3,20,116,106,107,106,107,106,107,106,107,106,107,106,107,106,107,106,107,106,107,120,155,156,157,6,105,106,107,106,107,106,107,106,107,106,107,106,107,106,107,106,107,106,107,106,107,106,107,106,107,120,16,17,200,189,189,189,189,189,189,189,189,189,189,189,189,189,189,189,189,189,189,196,16,17,16,17,59,60,61,62,72,73,74,75,76,62,61,62,61,62,61,62,61,62,61,62,61,62,61,62,61,62,61,62,61,62,61,62,61,62,61,62,61,62,61,62,61,62,61,62,61,62,40,41,36,37,61,62,61,62,61,62,61,62,61,62,61,62,61,62,61,62,61,62,61,62,63,64,63,64,63,64,65,17,16,17,139,137,137,137,137,137,137,137,137,137,137,137,137,137,137,137,137,137,137,137,137,137,137,137,137,137,137,137,137,137,137,137,137,137,137,137,137,137,137,137,137,137,137,137,137,137,137,137,137,137,137,137,137,137,137,137,137,137,137,137,137,137,137,137,137,137,137,137,137,137,137,137,137,137,137,137,137,137,137,154,182,17,16,17,59,60,70,71,10,3,4,3,4,3,4,3,4,3,4,3,4,3,4,3,4,3,4,3,4,3,4,3,4,3,4,3,4,3,4,3,4,3,4,3,4,3,4,3,4,3,4,3,4,15,16,17,18,3,4,3,4,3,4,3,4,3,4,3,4,3,4,3,4,3,4,3,4,3,4,3,4,3,4,3,4,3,4,3,4,3,4,3,4,3,4,3,4,3,4,3,4,3,4,3,4,3,4,3,4,3,4,3,4,3,4,3,4,3,4,3,4,3,4,3,4,3,4,3,4,3,4,3,4,3,4,3,4,3,4,3,4,3,4,3,4,3,4,3,4,3,4,3,4,3,4,3,4,4,5,3,4,3,4,3,4,3,4,3,4,3,4,3,4,3,4,3,4,3,4,3,4,3,4,3,4,3,4,3,4,3,4,3,4,3,4,3,4,3,4,3,4,3,
1,2,1,2,1,2,1,2,1,2,1,2,1,2,1,2,1,2,1,2,1,2,1,2,1,2,1,2,1,2,1,2,1,2,1,2,1,2,1,2,1,2,1,2,1,2,1,2,1,2,1,2,1,2,1,2,1,2,1,2,1,2,1,2,1,2,1,2,1,2,1,2,1,11,113,114,113,114,113,114,113,114,113,114,113,114,113,114,113,114,113,114,111,117,167,168,12,103,113,114,113,114,113,114,113,114,113,114,113,114,113,114,113,114,113,114,113,114,113,114,113,114,111,117,12,183,192,189,189,189,189,189,189,189,189,189,189,189,189,189,189,189,189,189,195,13,12,13,12,13,46,47,77,78,79,80,81,82,83,49,48,49,48,49,48,49,48,49,48,49,48,49,48,49,48,49,48,49,48,49,48,49,48,49,48,49,48,49,48,49,48,49,48,49,48,49,48,49,48,49,48,49,48,49,48,49,48,49,48,49,48,49,48,49,48,49,48,49,52,53,12,13,12,13,12,13,12,13,12,132,136,137,137,137,137,137,137,137,137,137,137,137,137,137,137,137,137,137,137,137,137,137,137,137,137,137,137,137,137,137,137,137,137,137,137,137,137,137,137,137,137,137,137,137,137,137,137,137,137,137,137,137,137,137,137,137,137,137,137,137,137,137,137,137,137,137,137,137,137,137,137,137,137,137,137,137,137,137,154,182,12,30,31,32,48,49,66,67,14,2,1,2,1,2,1,2,1,2,1,2,1,2,1,2,1,2,1,2,1,2,1,2,1,2,1,2,1,2,1,2,1,2,1,2,1,2,1,2,1,2,1,2,1,6,12,13,7,2,1,2,1,2,1,2,1,2,1,2,1,2,1,2,1,2,1,2,1,2,1,2,1,2,1,2,1,2,1,2,1,2,1,2,1,2,1,2,1,2,1,2,1,2,1,2,1,2,1,2,1,2,1,2,1,2,1,2,1,2,1,2,1,2,1,2,1,2,1,2,1,2,1,2,1,2,1,2,1,2,1,2,1,2,1,2,1,2,1,2,1,2,1,2,1,2,1,2,1,6,21,2,1,2,1,2,1,2,1,2,1,2,1,2,1,2,1,2,1,2,1,2,1,2,1,2,1,2,1,2,1,2,1,2,1,2,1,2,1,2,1,2,1,2,
3,4,3,4,3,4,3,4,3,4,3,4,3,4,3,4,3,4,3,4,3,4,3,4,3,4,3,4,3,4,3,4,3,4,3,4,3,4,3,4,3,4,3,4,3,4,3,4,3,4,3,4,3,4,3,4,3,4,3,4,3,4,3,4,3,4,3,4,3,4,3,4,3,15,116,106,107,106,107,106,107,106,107,106,107,106,107,106,107,106,107,106,107,120,155,160,105,106,107,106,107,106,107,106,107,106,107,106,107,106,107,106,107,106,107,106,107,106,107,106,107,106,107,120,187,188,189,189,189,189,189,189,189,189,189,189,189,189,189,189,189,196,197,198,16,17,16,17,16,17,59,60,84,85,86,87,88,89,90,62,61,62,61,62,61,62,61,62,61,62,61,62,61,62,61,62,61,62,61,62,61,62,61,62,61,62,61,62,61,62,61,62,61,62,61,62,61,62,61,62,61,62,61,62,61,62,61,62,61,62,61,62,61,62,61,62,61,62,65,17,16,17,16,17,16,17,16,17,132,136,137,137,137,137,137,137,137,137,137,137,137,137,137,137,137,137,137,137,137,137,137,137,137,137,137,137,137,137,137,137,137,137,137,137,137,137,137,137,137,137,137,137,137,137,137,137,137,137,137,137,137,137,137,137,137,137,137,137,137,137,137,137,137,137,137,137,137,137,137,137,137,137,137,137,137,154,148,149,182,17,36,37,38,39,61,62,70,71,18,3,4,3,4,3,4,3,4,3,4,3,4,3,4,3,4,3,4,3,4,3,4,3,4,3,4,3,4,4,24,25,5,3,4,3,4,3,4,3,4,3,4,4,8,9,17,35,10,3,4,3,4,3,4,3,4,3,4,3,4,3,4,3,4,3,4,3,4,3,4,3,4,3,4,3,4,3,4,3,4,3,4,3,4,3,4,3,4,3,4,3,4,3,4,3,4,3,4,3,4,3,4,3,4,3,4,3,4,3,4,3,4,3,4,3,4,3,4,3,4,3,4,3,4,3,4,3,4,3,4,3,4,3,4,3,4,3,4,3,4,3,4,3,4,3,4,4,8,9,16,26,5,3,4,3,4,3,4,3,4,3,4,3,4,3,4,3,4,3,4,3,4,3,4,3,4,3,4,3,4,3,4,3,4,3,4,3,4,3,4,3,4,3,
1,2,1,2,1,2,1,2,1,2,1,2,1,2,1,2,1,2,1,2,1,2,1,2,1,2,1,2,1,2,1,2,1,2,1,2,1,2,1,2,1,2,1,2,1,2,1,2,1,2,1,2,1,2,1,2,1,2,1,2,1,2,1,2,1,2,1,2,1,2,1,2,1,19,113,114,113,114,113,114,113,114,113,114,113,114,113,114,111,114,111,114,111,121,167,168,113,114,113,114,113,114,113,114,113,114,113,114,113,114,113,114,113,114,113,114,113,114,111,114,111,114,111,121,199,189,189,189,189,189,189,189,189,189,189,189,189,189,189,189,195,13,12,13,12,13,12,13,12,30,48,49,91,92,93,94,95,96,48,49,48,49,48,49,48,49,48,49,48,49,48,49,48,49,48,49,48,49,48,49,48,49,48,49,48,49,48,49,48,49,48,49,48,49,48,49,48,49,48,49,48,49,48,49,48,49,48,49,48,49,48,49,48,49,48,49,66,67,12,13,12,13,12,13,12,132,133,134,136,137,137,137,137,137,137,137,137,137,137,137,137,137,137,137,137,137,137,137,137,137,137,137,137,137,137,137,137,137,137,137,137,137,137,137,137,137,137,137,137,137,137,137,137,137,137,137,137,137,137,137,137,137,137,137,137,137,137,137,137,137,137,137,137,137,137,137,137,137,137,137,137,137,137,137,137,137,135,13,12,13,46,47,48,49,48,49,66,67,7,2,1,2,1,2,1,2,1,2,1,2,1,2,1,2,1,2,1,2,1,2,1,2,1,2,1,2,1,27,28,29,21,2,1,2,1,2,1,2,1,2,1,6,12,13,54,55,56,2,1,2,1,2,1,2,1,2,1,2,1,2,1,2,1,2,1,2,1,2,1,2,1,2,1,2,1,2,1,2,1,2,1,2,1,2,1,2,1,2,1,2,1,2,1,2,1,2,1,2,1,2,1,2,1,2,1,2,1,2,1,2,1,2,1,2,1,2,1,2,1,2,1,2,1,2,1,2,1,2,1,2,1,2,1,2,1,2,1,2,1,2,1,2,1,2,1,6,12,13,12,13,14,2,1,2,1,2,1,2,1,2,1,2,1,2,1,2,1,2,1,2,1,2,1,2,1,2,1,2,1,2,1,2,1,2,1,2,1,2,1,2,1,2,
3,4,3,4,3,4,3,4,3,4,3,4,3,4,3,4,3,4,3,4,3,4,3,4,3,4,3,4,3,4,3,4,3,4,3,4,3,4,3,4,3,4,3,4,3,4,3,4,3,4,3,4,3,4,3,4,3,4,3,4,3,4,3,4,3,4,3,4,3,4,3,4,3,20,116,106,107,106,107,106,107,106,107,106,107,106,107,106,118,119,118,119,123,17,155,160,116,106,107,106,107,106,107,106,107,106,107,106,107,106,107,106,107,106,107,106,107,106,118,119,118,119,123,17,200,189,189,189,189,189,189,189,189,189,189,189,189,189,189,196,16,17,16,17,16,17,16,17,36,37,61,62,61,62,97,98,99,100,61,62,61,62,61,62,61,62,61,62,72,73,74,75,76,62,61,62,61,62,61,62,61,62,61,62,61,62,61,62,61,62,61,62,61,62,61,62,61,62,61,62,61,62,72,73,74,75,76,62,61,62,61,62,61,62,61,62,70,71,16,17,16,17,16,17,132,136,137,137,137,137,137,137,137,137,137,137,137,137,137,137,137,137,137,137,137,137,137,137,137,137,137,137,137,137,137,137,137,137,137,137,137,137,137,137,137,137,137,137,137,137,137,137,137,137,137,137,137,137,137,137,137,137,137,137,137,137,137,137,137,137,137,137,137,137,137,137,137,137,137,137,137,137,137,137,137,137,137,135,16,17,59,60,61,62,61,62,70,71,10,3,4,3,4,3,4,3,4,3,4,3,4,3,4,3,4,3,4,3,4,3,4,3,4,3,4,3,4,3,34,28,16,26,22,23,5,3,4,3,4,4,8,9,16,17,55,57,3,4,3,4,3,4,3,4,3,4,3,4,3,4,3,4,3,4,3,4,3,4,3,4,3,4,3,4,3,4,3,4,3,4,3,4,3,4,3,4,3,4,3,4,3,4,3,4,3,4,3,4,3,4,3,4,3,4,3,4,3,4,3,4,3,4,3,4,3,4,3,4,3,4,3,4,3,4,3,4,3,4,3,4,3,4,3,4,3,4,3,4,3,4,3,4,3,4,8,9,16,17,16,17,18,3,4,3,4,3,4,3,4,3,4,3,4,3,4,3,4,3,4,3,4,3,4,3,4,3,4,3,4,3,4,3,4,3,4,3,4,3,4,3,4,3,
1,2,1,2,1,2,1,2,1,2,1,2,1,2,1,2,1,2,1,2,1,2,1,2,1,2,1,2,1,2,1,2,1,2,1,2,1,2,1,2,1,2,1,2,1,2,1,2,1,2,1,2,1,2,1,2,1,2,1,2,1,2,1,2,1,2,1,2,1,2,1,2,1,11,122,114,113,114,113,114,113,114,113,114,113,114,111,121,55,150,151,150,151,150,181,168,113,114,113,114,113,114,113,114,113,114,113,114,113,114,113,114,113,114,113,114,111,121,12,13,12,13,12,13,199,189,189,189,189,189,189,189,189,189,189,189,189,189,189,193,12,13,12,30,31,32,31,32,48,49,48,49,48,49,91,92,101,102,48,49,48,49,48,49,48,49,77,78,79,80,81,82,83,49,48,49,48,49,48,49,48,49,48,49,48,49,48,49,48,49,48,49,48,49,48,49,48,49,48,49,77,78,79,80,81,82,83,49,48,49,48,49,48,49,48,49,66,67,12,13,12,13,12,13,146,147,137,137,137,137,137,137,137,137,137,137,137,137,137,137,137,137,137,137,137,137,137,137,137,137,137,137,137,137,137,137,137,137,137,137,137,137,137,137,137,137,137,137,137,137,137,137,137,137,137,137,137,137,137,137,137,137,137,137,137,137,137,137,137,137,137,137,137,137,137,137,137,137,137,137,137,137,137,137,137,137,137,140,12,13,46,47,48,49,48,49,66,67,14,2,1,2,1,2,1,2,1,2,1,2,1,2,1,2,1,2,1,2,1,2,1,2,1,2,1,2,1,2,1,19,12,13,12,13,21,2,1,2,1,6,12,13,54,55,56,2,1,2,1,2,1,2,1,2,1,2,1,2,1,2,1,2,1,2,1,2,1,2,1,2,1,2,1,2,1,2,1,2,1,2,1,2,1,2,1,2,1,2,1,2,1,2,1,2,1,2,1,2,1,2,1,2,1,2,1,2,1,2,1,2,1,2,1,2,1,2,1,2,1,2,1,2,1,2,1,2,1,2,1,2,1,2,1,2,1,2,1,2,1,2,1,2,1,6,12,13,12,13,12,13,7,2,1,2,1,2,1,2,1,2,1,2,1,2,1,2,1,2,1,2,1,2,1,2,1,2,1,2,1,2,1,2,1,2,1,2,1,2,1,2,1,2,
3,4,3,4,3,4,3,4,3,4,3,4,3,4,3,4,3,4,3,4,3,4,3,4,3,4,3,4,3,4,3,4,3,4,3,4,3,4,3,4,3,4,3,4,3,4,3,4,3,4,3,4,3,4,3,4,3,4,3,4,3,4,3,4,3,4,3,4,3,4,3,4,3,15,16,124,107,106,107,106,107,106,107,106,107,106,123,17,155,156,157,158,157,158,157,6,116,106,107,106,107,106,107,106,107,106,107,106,107,106,107,106,107,106,107,106,123,17,16,17,16,17,16,17,200,189,189,189,189,189,189,189,189,189,189,189,189,189,189,194,16,17,36,37,38,39,38,39,61,62,61,62,61,62,61,62,61,62,61,62,61,62,61,62,61,62,84,85,86,87,88,89,90,62,61,62,61,62,61,62,61,62,61,62,61,62,72,73,74,75,76,62,61,62,61,62,61,62,61,62,84,85,86,87,88,89,90,62,61,62,61,62,61,62,61,62,70,71,16,17,16,17,16,17,16,146,148,149,148,149,148,149,148,149,147,137,137,137,137,137,137,137,137,137,137,137,137,137,137,137,137,137,137,137,137,137,137,137,137,137,137,137,137,137,137,137,137,137,137,137,137,137,137,137,137,137,137,137,137,137,137,137,137,137,137,137,137,137,137,137,137,137,137,137,137,137,137,137,137,137,137,137,137,137,137,137,137,141,16,17,59,60,61,62,61,62,70,71,18,3,4,3,4,3,4,3,4,3,4,3,4,3,4,3,4,3,4,3,4,3,4,3,4,3,4,3,4,3,4,20,35,17,16,17,16,26,24,25,8,9,16,17,55,57,3,4,3,4,3,4,3,4,3,4,3,4,3,4,3,4,3,4,3,4,3,4,3,4,3,4,3,4,3,4,3,4,3,4,3,4,3,4,3,4,3,4,3,4,3,4,3,4,3,4,3,4,3,4,3,4,3,4,3,4,3,4,3,4,3,4,3,4,3,4,3,4,3,4,3,4,3,4,3,4,3,4,3,4,3,4,3,4,3,4,3,4,3,4,3,4,3,4,8,9,16,17,16,17,16,17,10,3,4,3,4,3,4,3,4,3,4,3,4,3,4,3,4,3,4,3,4,3,4,3,4,3,4,3,4,3,4,3,4,3,4,3,4,3,4,3,4,3,
1,2,1,2,1,2,1,2,1,2,1,2,1,2,1,2,1,2,1,2,1,2,1,2,1,2,1,2,1,2,1,2,1,2,1,2,1,2,1,2,1,2,1,2,1,2,1,2,1,2,1,2,1,2,1,2,1,2,1,2,1,2,1,2,1,2,1,2,1,2,1,2,1,27,28,29,122,114,113,114,113,114,113,114,111,117,12,13,167,168,12,13,12,13,12,13,122,114,111,114,111,114,111,114,111,114,111,114,111,114,111,114,111,114,111,121,12,13,12,13,12,13,12,13,201,202,189,189,189,189,189,189,189,189,189,189,189,189,195,13,12,30,48,49,48,49,48,49,48,49,48,49,48,49,48,49,48,49,48,49,48,49,48,49,48,49,91,92,93,94,95,96,48,49,48,49,48,49,48,49,48,49,48,49,77,78,79,80,81,82,83,49,48,49,48,49,48,49,48,49,91,92,93,94,95,96,48,49,48,49,48,49,48,49,48,49,66,67,12,13,12,13,12,30,31,32,31,32,31,32,33,13,12,13,146,147,137,137,137,137,137,137,137,137,137,137,137,137,137,137,137,137,137,137,137,137,137,137,137,137,137,137,137,137,137,137,137,137,137,137,137,137,137,137,137,137,137,137,137,137,137,137,137,137,137,137,137,137,137,137,137,137,137,137,137,137,137,137,137,137,137,137,137,137,137,137,154,182,12,30,48,49,48,49,48,49,66,67,7,2,1,2,1,2,1,2,1,2,1,2,1,2,1,2,1,2,1,2,1,2,1,2,1,2,1,2,1,2,1,27,28,29,12,13,12,13,12,13,12,13,12,13,14,2,1,2,1,2,1,2,1,2,1,2,1,2,1,2,1,2,1,2,1,2,1,2,1,2,1,2,1,2,1,2,1,2,1,2,1,2,1,2,1,2,1,2,1,2,1,2,1,2,1,2,1,2,1,2,1,2,1,2,1,2,1,2,1,2,1,2,1,2,1,2,1,2,1,2,1,2,1,2,1,2,1,2,1,2,1,2,1,2,1,2,1,2,1,2,1,2,1,6,12,13,12,13,12,13,12,13,21,2,1,2,1,2,1,2,1,2,1,2,1,2,1,2,1,2,1,2,1,2,1,2,1,2,1,2,1,2,1,2,1,2,1,2,1,2,1,2,1,2,
3,4,3,4,3,4,3,4,3,4,3,4,3,4,3,4,3,4,3,4,3,4,3,4,3,4,3,4,3,4,3,4,3,4,3,4,3,4,3,4,3,4,3,4,3,4,3,4,3,4,3,4,3,4,3,4,3,4,3,4,3,4,3,4,3,4,3,4,3,4,3,4,3,4,34,28,16,124,107,106,107,106,107,106,107,120,16,17,155,160,16,17,16,17,16,17,16,124,118,119,118,119,118,119,118,119,118,119,118,119,118,119,118,119,123,17,16,17,16,17,16,17,16,17,16,203,204,189,189,189,189,189,189,189,189,189,189,196,16,17,36,37,61,62,61,62,61,62,61,62,61,62,72,73,74,75,76,62,61,62,61,62,61,62,61,62,61,62,97,98,99,100,61,62,61,62,72,73,74,75,76,62,61,62,84,85,86,87,88,89,90,62,61,62,61,62,61,62,61,62,61,62,97,98,99,100,61,62,61,62,61,62,61,62,61,62,70,71,16,17,16,17,36,37,38,39,38,39,38,39,40,41,16,17,16,146,147,137,137,137,137,137,137,137,137,137,137,137,137,137,137,137,137,137,137,137,137,137,137,137,137,137,137,137,137,137,137,137,137,137,137,137,137,137,137,137,137,137,137,137,137,137,137,137,137,137,137,137,137,137,137,137,137,137,137,137,137,137,137,137,137,137,137,137,137,154,182,17,36,37,61,62,61,62,61,62,70,71,10,3,4,3,4,3,4,3,4,3,4,3,4,3,4,3,4,3,4,3,4,3,4,3,4,3,4,3,4,3,4,3,34,28,16,17,16,17,16,17,16,17,17,35,18,3,4,3,4,3,4,3,4,3,4,3,4,3,4,3,4,3,4,3,4,3,4,3,4,3,4,3,4,3,4,3,4,3,4,3,4,3,4,3,4,3,4,3,4,3,4,3,4,3,4,3,4,3,4,3,4,3,4,3,4,3,4,3,4,3,4,3,4,3,4,3,4,3,4,3,4,3,4,3,4,3,4,3,4,3,4,3,4,3,4,3,4,3,4,3,4,4,8,9,35,17,16,17,17,35,16,17,16,26,5,3,4,3,4,3,4,3,4,3,4,3,4,3,4,3,4,3,4,3,4,3,4,3,4,3,4,3,4,3,4,3,4,3,4,3,4,3,4,3,
1,2,1,2,1,2,1,2,1,2,1,2,1,2,1,2,1,2,1,2,1,2,1,2,1,2,1,2,1,2,1,2,1,2,1,2,1,2,1,2,1,2,1,2,1,2,1,2,1,2,1,2,1,2,1,2,1,2,1,2,1,2,1,2,1,2,1,2,1,2,1,2,1,2,1,27,28,29,122,114,113,114,113,114,111,117,12,13,152,153,12,13,12,13,12,13,12,13,12,13,12,13,12,13,12,13,12,13,12,13,12,13,12,13,12,183,184,185,184,185,186,13,12,13,12,13,201,202,189,189,189,189,189,189,189,189,189,193,12,13,46,47,48,49,48,49,48,49,48,49,77,78,79,80,81,82,83,49,48,49,48,49,48,49,48,49,48,49,91,92,101,102,48,49,77,78,79,80,81,82,83,49,48,49,91,92,93,94,95,96,48,49,48,49,48,49,48,49,48,49,48,49,91,92,101,102,48,49,48,49,48,49,48,49,48,49,66,67,12,13,12,13,46,47,48,49,48,49,48,49,48,49,31,32,33,13,138,137,137,137,137,137,137,137,137,137,137,137,137,137,137,137,137,137,137,137,137,137,137,137,137,137,137,137,137,137,137,137,137,137,137,137,137,137,137,137,137,137,137,137,137,137,137,137,137,137,137,137,137,137,137,137,137,137,137,137,137,137,137,137,137,137,137,137,137,137,135,13,46,47,48,49,48,49,48,49,66,67,21,2,1,2,1,2,1,2,1,2,1,2,1,2,1,2,1,2,1,2,1,2,1,2,1,2,1,2,1,2,1,2,1,19,12,13,12,13,12,13,12,13,54,55,56,2,1,2,1,2,1,2,1,2,1,2,1,2,1,2,1,2,1,2,1,2,1,2,1,2,1,2,1,2,1,2,1,2,1,2,1,2,1,2,1,2,1,2,1,2,1,2,1,2,1,2,1,2,1,2,1,2,1,2,1,2,1,2,1,2,1,2,1,2,1,2,1,2,1,2,1,2,1,2,1,2,1,2,1,2,1,2,1,2,1,2,1,2,1,2,1,27,42,43,44,45,28,29,54,55,28,29,12,13,14,2,1,2,1,2,1,2,1,2,1,2,1,2,1,2,1,2,1,2,1,2,1,2,1,2,1,2,1,2,1,2,1,2,1,2,1,2,1,2,
3,4,3,4,3,4,3,4,3,4,3,4,3,4,3,4,3,4,3,4,3,4,3,4,3,4,3,4,3,4,3,4,3,4,3,4,3,4,3,4,3,4,3,4,3,4,3,4,3,4,3,4,3,4,3,4,3,4,3,4,3,4,3,4,3,4,3,4,3,4,3,4,3,4,3,4,34,28,16,124,107,106,107,106,107,120,16,17,161,162,16,17,16,17,35,17,16,17,16,17,16,17,16,17,16,17,16,17,16,17,16,17,16,17,187,188,189,189,189,189,190,191,16,17,16,17,16,203,197,198,204,189,189,189,189,189,189,194,16,17,59,60,61,62,61,62,61,62,61,62,84,85,86,87,88,89,90,62,61,62,61,62,61,62,61,62,61,62,61,62,61,62,61,62,84,85,86,87,88,89,90,62,61,62,61,62,97,98,99,100,61,62,61,62,72,73,74,75,76,62,61,62,61,62,61,62,61,62,61,62,61,62,61,62,61,62,70,71,16,17,16,17,59,60,61,62,61,62,61,62,61,62,38,39,40,41,139,137,137,137,137,137,137,137,137,137,137,137,137,137,137,137,137,137,137,137,137,137,137,137,137,137,137,137,137,137,137,137,137,137,137,137,137,137,137,137,137,137,137,137,137,137,137,137,137,137,137,137,137,137,137,137,137,137,137,137,137,137,137,137,137,137,137,137,137,137,137,135,59,60,61,62,61,62,61,62,70,71,16,26,24,25,22,23,24,25,5,3,4,3,4,3,4,3,4,3,4,3,4,3,4,3,4,3,4,3,4,3,4,3,4,20,16,17,16,17,16,17,16,17,55,57,3,4,3,4,3,4,3,4,3,4,3,4,3,4,3,4,3,4,3,4,3,4,3,4,3,4,3,4,3,4,3,4,3,4,3,4,3,4,3,4,3,4,3,4,3,4,3,4,3,4,3,4,3,4,3,4,3,4,3,4,3,4,3,4,3,4,3,4,3,4,3,4,3,4,3,4,3,4,3,4,3,4,3,4,3,4,3,4,3,4,3,4,3,4,3,4,3,4,3,57,58,57,34,28,55,57,34,28,17,35,18,3,4,3,4,3,4,3,4,3,4,3,4,3,4,3,4,3,4,3,4,3,4,3,4,3,4,3,4,3,4,3,4,3,4,3,4,3,4,3,
1,2,1,2,1,2,1,2,1,2,1,2,1,2,1,2,1,2,1,2,1,2,1,2,1,2,1,2,1,2,1,2,1,2,1,2,1,2,1,2,1,2,1,2,1,2,1,2,1,2,1,2,1,2,1,2,1,2,1,2,1,2,1,2,1,2,1,2,1,2,1,2,1,2,1,2,1,6,12,13,122,114,111,114,111,121,12,13,167,168,12,13,54,55,44,45,68,69,42,43,28,29,12,13,12,13,12,13,12,13,12,13,12,13,199,189,189,189,189,189,189,213,184,185,186,13,12,13,12,13,201,202,189,189,189,189,189,193,12,13,46,47,48,49,48,49,48,49,48,49,91,92,93,94,95,96,48,49,48,49,48,49,48,49,48,49,48,49,48,49,48,49,48,49,91,92,93,94,95,96,48,49,48,49,48,49,91,92,101,102,48,49,77,78,79,80,81,82,83,49,48,49,48,49,48,49,48,49,48,49,48,49,48,49,48,49,66,67,12,13,12,30,48,49,48,49,48,49,48,49,48,49,48,49,66,67,146,147,137,137,137,137,137,137,137,137,137,137,137,137,137,137,137,137,137,137,137,137,137,137,137,137,137,137,137,137,137,137,137,137,137,137,137,137,137,137,137,137,137,137,137,137,137,137,137,137,137,137,137,137,137,137,137,137,137,137,137,137,137,137,137,137,137,137,137,137,137,140,46,47,48,49,48,49,48,49,48,49,31,32,31,32,31,32,33,13,21,2,1,2,1,2,1,2,1,2,1,2,1,2,1,2,1,2,1,2,1,2,1,2,1,11,12,13,12,13,12,13,54,55,56,2,1,2,1,2,1,2,1,2,1,2,1,2,1,2,1,2,1,2,1,2,1,2,1,2,1,2,1,2,1,2,1,2,1,2,1,2,1,2,1,2,1,2,1,2,1,2,1,2,1,2,1,2,1,2,1,2,1,2,1,2,1,2,1,2,1,2,1,2,1,2,1,2,1,2,1,2,1,2,1,2,1,2,1,2,1,2,1,2,1,2,1,2,1,2,1,2,1,2,1,2,1,2,1,27,56,2,1,27,28,29,7,2,1,2,1,2,1,2,1,2,1,2,1,2,1,2,1,2,1,2,1,2,1,2,1,2,1,2,1,2,1,2,1,2,1,2,1,2,1,2,
3,4,3,4,3,4,3,4,3,4,3,4,3,4,3,4,3,4,3,4,3,4,3,4,3,4,3,4,3,4,3,4,3,4,3,4,3,4,3,4,3,4,3,4,3,4,3,4,3,4,3,4,3,4,3,4,3,4,3,4,3,4,3,4,3,4,3,4,3,4,3,4,3,4,3,4,8,9,16,17,16,124,118,119,123,17,16,17,155,160,16,17,55,57,58,57,3,4,3,57,34,28,16,17,16,17,16,17,16,17,16,17,16,17,200,189,189,189,189,189,189,189,189,189,190,191,16,17,16,17,16,203,197,198,204,189,189,194,16,17,59,60,61,62,61,62,61,62,61,62,61,62,97,98,99,100,61,62,61,62,61,62,61,62,61,62,61,62,61,62,61,62,61,62,61,62,97,98,99,100,61,62,61,62,61,62,61,62,61,62,61,62,84,85,86,87,88,89,90,62,61,62,61,62,61,62,61,62,61,62,61,62,61,62,61,62,70,71,16,17,36,37,61,62,61,62,72,73,74,75,76,62,61,62,70,71,16,146,147,137,137,137,137,137,137,137,137,137,137,137,137,137,137,137,137,137,137,137,137,137,137,137,137,137,137,137,137,137,137,137,137,137,137,137,137,137,137,137,137,137,137,137,137,137,137,137,137,137,137,137,137,137,137,137,137,137,137,137,137,137,137,137,137,137,137,137,137,141,59,60,61,62,61,62,61,62,61,62,38,39,38,39,38,39,40,41,16,26,5,3,4,3,4,3,4,3,4,3,4,3,4,3,4,3,4,3,4,3,4,3,4,15,16,17,16,17,16,17,55,57,3,4,3,4,3,4,3,4,3,4,3,4,3,4,3,4,3,4,3,4,3,4,3,4,3,4,3,4,3,4,3,4,3,4,3,4,3,4,3,4,3,4,3,4,3,4,3,4,3,4,3,4,3,4,3,4,3,4,3,4,3,4,3,4,3,4,3,4,3,4,3,4,3,4,3,4,3,4,3,4,3,4,3,4,3,4,3,4,3,4,3,4,3,4,3,4,3,4,3,4,3,4,3,4,3,4,3,4,3,4,34,28,10,3,4,3,4,4,5,3,4,3,4,3,4,3,4,3,4,3,4,3,4,3,4,3,4,3,4,3,4,3,4,3,4,3,4,3,4,3,4,3,
1,2,1,2,1,2,1,2,1,2,1,2,1,2,1,2,1,2,1,2,1,2,1,2,1,2,1,2,1,2,1,2,1,2,1,2,1,2,1,2,1,2,1,2,1,2,1,2,1,2,1,2,1,2,1,2,1,2,1,2,1,2,1,2,1,2,1,2,1,2,1,2,1,2,1,6,12,13,12,13,12,183,184,185,184,185,186,13,167,159,151,150,56,2,1,2,1,2,1,2,1,27,42,43,44,45,68,69,44,45,28,29,12,13,201,202,189,189,189,189,189,189,189,189,189,193,12,13,12,13,12,13,12,13,201,202,195,13,12,13,46,47,48,49,48,49,48,49,48,49,48,49,91,92,101,102,48,49,48,49,48,49,48,49,48,49,48,49,48,49,48,49,48,49,48,49,91,92,101,102,48,49,48,49,48,49,48,49,48,49,48,49,91,92,93,94,95,96,48,49,48,49,48,49,48,49,48,49,48,49,48,49,48,49,48,49,66,67,12,13,46,47,48,49,77,78,79,80,81,82,83,49,48,49,48,49,33,13,146,147,137,137,137,137,137,137,137,137,137,137,137,137,137,137,137,137,137,137,137,137,137,137,137,137,137,137,137,137,137,137,137,137,137,137,137,137,137,137,137,137,137,137,137,137,137,137,137,137,137,137,137,137,137,137,137,137,137,137,137,137,137,137,137,137,137,137,154,182,46,47,48,49,48,49,48,49,48,49,48,49,48,49,48,49,48,49,33,13,7,2,1,2,1,2,1,2,1,2,1,2,1,2,1,2,1,2,1,2,1,2,1,6,12,13,12,13,12,13,14,2,1,2,1,2,1,2,1,2,1,2,1,2,1,2,1,2,1,2,1,2,1,2,1,2,1,2,1,2,1,2,1,2,1,2,1,2,1,2,1,2,1,2,1,2,1,2,1,2,1,2,1,2,1,2,1,2,1,2,1,2,1,2,1,2,1,2,1,2,1,2,1,2,1,2,1,2,1,2,1,2,1,2,1,2,1,2,1,2,1,2,1,2,1,2,1,2,1,2,1,2,1,2,1,2,1,2,1,2,1,2,1,27,56,2,1,2,1,6,14,2,1,2,1,2,1,2,1,2,1,2,1,2,1,2,1,2,1,2,1,2,1,2,1,2,1,2,1,2,1,2,1,2,
3,4,3,4,3,4,3,4,3,4,3,4,3,4,3,4,3,4,3,4,3,4,3,4,3,4,3,4,3,4,3,4,3,4,3,4,3,4,3,4,3,4,3,4,3,4,3,4,3,4,3,4,3,4,3,4,3,4,3,4,3,4,3,4,3,4,3,4,3,4,3,4,22,23,8,9,16,17,16,17,187,188,189,189,189,189,190,191,21,158,157,158,5,3,4,3,4,3,4,3,4,3,4,57,58,57,3,4,58,57,34,28,35,17,16,203,204,189,189,189,189,189,189,189,189,194,16,17,16,17,16,17,16,17,16,203,16,17,16,17,59,60,61,62,61,62,61,62,61,62,61,62,61,62,61,62,61,62,61,62,61,62,61,62,61,62,61,62,61,62,61,62,61,62,61,62,61,62,61,62,61,62,61,62,61,62,61,62,61,62,61,62,61,62,97,98,99,100,61,62,61,62,61,62,61,62,61,62,61,62,61,62,61,62,61,62,70,71,16,17,59,60,61,62,84,85,86,87,88,89,90,62,61,62,61,62,40,41,16,146,147,137,137,137,137,137,137,137,137,137,137,137,137,137,137,137,137,137,137,137,137,137,137,137,137,137,137,137,137,137,137,137,137,137,137,137,137,137,137,137,137,137,137,137,137,137,137,137,137,137,137,137,137,137,137,137,137,137,137,137,137,154,148,149,148,149,182,17,59,60,61,62,61,62,61,62,61,62,61,62,61,62,61,62,61,62,40,41,10,3,4,3,4,3,4,3,4,3,4,3,4,3,4,3,4,3,4,3,4,4,8,9,16,17,16,17,17,35,18,3,4,3,4,3,4,3,4,3,4,3,4,3,4,3,4,3,4,3,4,3,4,3,4,3,4,3,4,3,4,3,4,3,4,3,4,3,4,3,4,3,4,3,4,3,4,3,4,3,4,3,4,3,4,3,4,3,4,3,4,3,4,3,4,3,4,3,4,3,4,3,4,3,4,3,4,3,4,3,4,3,4,3,4,3,4,3,4,3,4,3,4,3,4,3,4,3,4,3,4,3,4,3,4,3,4,3,4,3,4,3,4,3,4,3,4,4,8,9,18,3,4,3,4,3,4,3,4,3,4,3,4,3,4,3,4,3,4,3,4,3,4,3,4,3,4,3,4,3,4,3,4,3,
1,2,1,2,1,2,1,2,1,2,1,2,1,2,1,2,1,2,1,2,1,2,1,2,1,2,1,2,1,2,1,2,1,2,1,2,1,2,1,2,1,2,1,2,1,2,1,2,1,2,1,2,1,2,1,2,1,2,1,2,1,2,1,2,1,2,1,2,1,2,1,6,12,183,184,185,184,185,184,185,192,189,189,189,189,189,189,193,12,13,12,13,21,2,1,2,1,2,1,2,1,2,1,2,1,2,1,2,1,2,1,27,28,29,12,13,199,189,189,189,189,189,189,189,189,213,186,13,12,13,12,13,12,13,12,13,12,13,12,13,46,47,48,49,48,49,48,49,48,49,48,49,48,49,48,49,48,49,48,49,48,49,48,49,48,49,48,49,48,49,48,49,48,49,48,49,48,49,48,49,48,49,48,49,48,49,48,49,48,49,48,49,48,49,91,92,101,102,48,49,48,49,48,49,48,49,48,49,48,49,48,49,48,49,48,49,66,67,12,13,46,47,48,49,91,92,93,94,95,96,48,49,48,49,48,49,48,49,33,13,146,147,137,137,137,137,137,137,137,137,137,137,137,137,137,137,137,137,137,137,137,137,137,137,137,137,137,137,137,137,137,137,137,137,137,137,137,137,137,137,137,137,137,137,137,137,137,137,137,137,137,137,137,137,137,137,137,137,137,137,154,182,12,13,12,13,12,30,48,49,48,49,48,49,48,49,48,49,48,49,48,49,48,49,48,49,66,67,14,2,1,2,1,2,1,2,1,2,1,2,1,2,1,2,1,2,1,2,1,6,12,13,12,13,12,13,54,55,56,2,1,2,1,2,1,2,1,2,1,2,1,2,1,2,1,2,1,2,1,2,1,2,1,2,1,2,1,2,1,2,1,2,1,2,1,2,1,2,1,2,1,2,1,2,1,2,1,2,1,2,1,2,1,2,1,2,1,2,1,2,1,2,1,2,1,2,1,2,1,2,1,2,1,2,1,2,1,2,1,2,1,2,1,2,1,2,1,2,1,2,1,2,1,2,1,2,1,2,1,2,1,2,1,2,1,2,1,2,1,2,1,2,1,2,1,6,12,13,7,2,1,2,1,2,1,2,1,2,1,2,1,2,1,2,1,2,1,2,1,2,1,2,1,2,1,2,1,2,1,2,1,2,
3,4,3,4,3,4,3,4,3,4,3,4,3,4,3,4,3,4,3,4,3,4,3,4,3,4,3,4,3,4,3,4,3,4,3,4,3,4,3,4,3,4,3,4,3,4,3,4,3,4,3,4,3,4,3,4,3,4,3,4,3,4,3,4,3,4,3,4,3,4,8,9,187,188,189,189,189,189,189,189,189,189,189,189,189,189,189,194,16,17,16,17,16,26,5,3,4,3,4,3,4,3,4,3,4,3,4,3,4,3,4,3,34,28,16,17,200,189,189,189,189,189,189,189,189,189,190,191,16,17,16,17,16,17,16,17,16,17,16,17,59,60,61,62,61,62,61,62,61,62,72,73,74,75,76,62,61,62,61,62,61,62,61,62,61,62,61,62,61,62,61,62,61,62,61,62,61,62,61,62,61,62,61,62,61,62,61,62,61,62,61,62,61,62,61,62,61,62,61,62,61,62,61,62,61,62,61,62,61,62,61,62,128,62,61,62,70,71,16,17,59,60,61,62,61,62,97,98,99,100,61,62,61,62,61,62,61,62,40,41,16,146,148,149,148,149,148,149,147,137,137,137,137,137,137,137,137,137,137,137,137,137,137,137,137,137,137,137,137,137,137,137,137,137,137,137,137,137,137,137,137,137,137,137,137,137,137,137,137,137,137,137,137,137,137,137,137,154,148,149,182,17,16,17,16,17,36,37,61,62,61,62,61,62,61,62,61,62,61,62,61,62,61,62,61,62,70,71,18,3,4,3,4,3,4,3,4,3,4,3,4,3,4,3,4,3,4,4,8,9,16,17,16,17,16,17,55,57,3,4,3,4,3,4,3,4,3,4,3,4,3,4,3,4,3,4,3,4,3,4,3,4,3,4,3,4,3,4,3,4,3,4,3,4,3,4,3,4,3,4,3,4,3,4,3,4,3,4,3,4,3,4,3,4,3,4,3,4,3,4,3,4,3,4,3,4,3,4,3,4,3,4,3,4,3,4,3,4,3,4,3,4,3,4,3,4,3,4,3,4,3,4,3,4,3,4,3,4,3,4,3,4,3,4,3,4,3,4,3,4,3,4,3,4,8,9,17,35,10,3,4,3,4,3,4,3,4,3,4,3,4,3,4,3,4,3,4,3,4,3,4,3,4,3,4,3,4,3,4,3,4,3,
1,2,1,2,1,2,1,2,1,2,1,2,1,2,1,2,1,2,1,2,1,2,1,2,1,2,1,2,1,2,1,2,1,2,1,2,1,2,1,2,1,2,1,2,1,2,1,2,1,2,1,2,1,2,1,2,1,2,1,2,1,2,1,2,1,2,1,2,1,19,12,183,192,189,189,189,189,189,189,189,189,189,189,189,189,189,195,13,12,13,12,13,12,13,21,2,1,2,1,2,1,2,1,2,1,2,1,2,1,2,1,2,1,11,12,13,201,202,189,189,189,189,189,189,189,189,189,213,184,185,186,13,12,13,12,13,12,13,12,30,48,49,48,49,48,49,48,49,77,78,79,80,81,82,83,49,48,49,48,49,48,49,48,49,48,49,48,49,48,49,48,49,48,49,48,49,48,49,48,49,48,49,48,49,48,49,50,51,48,49,48,49,48,49,48,49,48,49,48,49,48,49,48,49,48,49,48,49,48,49,48,49,129,130,48,49,52,53,12,13,46,47,48,49,48,49,91,92,101,102,48,49,48,49,48,49,48,49,48,49,31,32,33,13,12,30,33,13,146,147,137,137,137,137,137,137,137,137,137,137,137,137,137,137,137,137,137,137,137,137,137,137,137,137,137,137,137,137,137,137,137,137,137,137,137,137,137,137,137,137,137,137,137,137,137,137,137,140,12,13,12,30,31,32,31,32,48,49,48,49,48,49,50,51,50,51,48,49,48,49,48,49,48,49,48,49,66,67,21,2,1,2,1,2,1,2,1,2,1,2,1,2,1,2,1,2,1,11,12,13,12,13,12,13,54,55,56,2,1,2,1,2,1,2,1,2,1,2,1,2,1,2,1,2,1,2,1,2,1,2,1,2,1,2,1,2,1,2,1,2,1,2,1,2,1,2,1,2,1,2,1,2,1,2,1,2,1,2,1,2,1,2,1,2,1,2,1,2,1,2,1,2,1,2,1,2,1,2,1,2,1,2,1,2,1,2,1,2,1,2,1,2,1,2,1,2,1,2,1,2,1,2,1,2,1,2,1,2,1,2,1,2,1,2,1,2,1,2,1,2,1,2,1,27,28,29,54,55,56,2,1,2,1,2,1,2,1,2,1,2,1,2,1,2,1,2,1,2,1,2,1,2,1,2,1,2,1,2,1,2,1,2,
3,4,3,4,3,4,3,4,3,4,3,4,3,4,3,4,3,4,3,4,3,4,3,4,3,4,3,4,3,4,3,4,3,4,3,4,3,4,3,4,3,4,3,4,3,4,3,4,3,4,3,4,3,4,3,4,3,4,3,4,3,4,3,4,3,4,3,4,3,20,187,188,189,189,189,189,189,189,189,189,189,189,189,189,189,196,16,17,35,17,16,17,16,17,16,26,5,3,4,3,4,3,4,3,4,3,4,3,4,3,4,3,4,15,35,17,16,203,204,189,189,189,189,189,189,189,189,189,189,189,190,191,16,17,16,17,16,17,36,37,61,62,61,62,61,62,61,62,84,85,86,87,88,89,90,62,61,62,61,62,61,62,61,62,61,62,61,62,61,62,61,62,61,62,61,62,61,62,61,62,61,62,61,62,61,62,63,64,61,62,61,62,61,62,61,62,61,62,61,62,61,62,61,62,61,62,61,62,61,62,61,62,128,62,61,62,65,17,16,17,59,60,61,62,61,62,61,62,61,62,61,62,61,62,61,62,61,62,61,62,38,39,40,41,36,37,40,41,16,146,147,137,137,137,137,137,137,137,137,137,137,137,137,137,137,137,137,137,137,137,137,137,137,137,137,137,137,137,137,137,137,137,137,137,137,137,137,137,137,137,137,137,137,137,137,137,137,141,16,17,36,37,38,39,38,39,61,62,61,62,61,62,63,64,63,64,61,62,61,62,61,62,61,62,61,62,70,71,16,26,5,3,4,3,4,3,4,4,24,25,22,23,5,3,4,3,4,15,16,17,16,17,16,17,55,57,3,4,3,4,3,4,3,4,3,4,3,4,3,4,3,4,3,4,3,4,3,4,3,4,3,4,3,4,3,4,3,4,3,4,3,4,3,4,3,4,3,4,3,4,3,4,3,4,3,4,3,4,3,4,3,4,3,4,3,4,3,4,3,4,3,4,3,4,3,4,3,4,3,4,3,4,3,4,3,4,3,4,3,4,3,4,3,4,3,4,3,4,3,4,3,4,3,4,3,4,3,4,3,4,3,4,3,4,3,4,3,4,3,4,3,4,3,4,34,28,55,57,3,4,3,4,3,4,3,4,3,4,3,4,3,4,3,4,3,4,3,4,3,4,3,4,3,4,3,4,3,4,3,4,3,4,
1,2,1,2,1,2,1,2,1,2,1,2,1,2,1,2,1,2,1,2,1,2,1,2,1,2,1,2,1,2,1,2,1,2,1,2,1,2,1,2,1,2,1,2,1,2,1,2,1,2,1,2,1,2,1,2,1,2,1,2,1,2,1,2,1,2,1,2,1,11,199,189,189,189,189,189,189,189,189,189,189,189,189,189,195,13,54,55,28,29,12,13,12,13,12,13,7,2,1,2,1,2,1,2,1,2,1,2,1,2,1,2,1,27,28,29,12,13,201,202,189,189,189,189,189,189,189,189,189,189,195,13,12,13,12,13,12,30,48,49,48,49,48,49,48,49,48,49,91,92,93,94,95,96,48,49,48,49,48,49,48,49,48,49,48,49,48,49,48,49,48,49,48,49,48,49,48,49,48,49,48,49,48,49,52,53,12,13,109,110,48,49,48,49,50,51,50,51,50,51,50,51,50,51,50,49,48,51,50,51,50,51,129,130,52,53,12,13,12,13,109,110,48,49,48,49,48,49,48,49,48,49,48,49,48,49,48,49,48,49,48,49,48,49,48,49,48,49,33,13,146,147,137,137,137,137,137,137,137,137,137,137,137,137,137,137,137,137,137,137,137,137,137,137,137,137,137,137,137,137,137,137,137,137,137,137,137,137,137,137,137,137,137,137,137,137,137,140,12,13,46,47,48,49,48,49,48,49,48,49,52,53,54,55,28,29,109,110,50,51,50,51,50,51,48,49,48,49,33,13,21,2,1,2,1,2,1,6,12,13,12,13,21,2,1,2,1,6,12,30,33,13,54,55,56,2,1,2,1,2,1,2,1,2,1,2,1,2,1,2,1,2,1,2,1,2,1,2,1,2,1,2,1,2,1,2,1,2,1,2,1,2,1,2,1,2,1,2,1,2,1,2,1,2,1,2,1,2,1,2,1,2,1,2,1,2,1,2,1,2,1,2,1,2,1,2,1,2,1,2,1,2,1,2,1,2,1,2,1,2,1,2,1,2,1,2,1,2,1,2,1,2,1,2,1,2,1,2,1,2,1,2,1,2,1,2,1,2,1,2,1,2,1,2,1,27,56,2,1,2,1,2,1,2,1,2,1,2,1,2,1,2,1,2,1,2,1,2,1,2,1,2,1,2,1,2,1,2,1,2,1,2,
3,4,3,4,3,4,3,4,3,4,3,4,3,4,3,4,3,4,3,4,3,4,3,4,3,4,3,4,3,4,3,4,3,4,3,4,3,4,3,4,3,4,3,4,3,4,3,4,3,4,3,4,3,4,3,4,3,4,3,4,3,4,3,4,3,4,3,4,3,15,200,189,189,189,189,189,189,189,189,189,189,196,197,198,16,17,55,57,34,28,35,17,16,17,17,35,10,3,4,3,4,3,4,3,4,3,4,3,4,3,4,3,4,3,34,28,16,17,16,203,204,189,189,196,197,198,197,198,197,198,16,17,16,17,16,17,36,37,61,62,61,62,61,62,61,62,61,62,61,62,97,98,99,100,61,62,61,62,61,62,61,62,61,62,61,62,61,62,61,62,61,62,61,62,61,62,61,62,61,62,61,62,61,62,65,17,16,17,16,115,61,62,61,62,63,64,63,64,63,64,63,64,63,64,61,62,38,62,38,62,38,62,131,64,65,17,16,17,16,17,16,115,61,62,61,62,61,62,61,62,61,62,61,62,61,62,61,62,61,62,61,62,61,62,61,62,61,62,40,41,16,146,147,137,137,137,137,137,137,137,137,137,137,137,137,137,137,137,137,137,137,137,137,137,137,137,137,137,137,137,137,137,137,137,137,137,137,137,137,137,137,137,137,137,137,137,137,141,16,17,59,60,61,62,61,62,61,62,61,62,65,17,55,57,34,28,16,115,63,64,63,64,63,64,61,62,61,62,40,41,16,26,24,25,22,23,8,9,16,17,16,17,16,26,24,25,8,9,36,37,40,41,55,57,3,4,3,4,3,4,3,4,3,4,3,4,3,4,3,4,3,4,3,4,3,4,3,4,3,4,3,4,3,4,3,4,3,4,3,4,3,4,3,4,3,4,3,4,3,4,3,4,3,4,3,4,3,4,3,4,3,4,3,4,3,4,3,4,3,4,3,4,3,4,3,4,3,4,3,4,3,4,3,4,3,4,3,4,3,4,3,4,3,4,3,4,3,4,3,4,3,4,3,4,3,4,3,4,3,4,3,4,3,4,3,4,3,4,3,4,3,4,3,4,3,4,3,4,3,4,3,4,3,4,3,4,3,4,3,4,3,4,3,4,3,4,3,4,3,4,3,4,3,4,3,4,3,4,3,4,3,4,
1,2,1,2,1,2,1,2,1,2,1,2,1,2,1,2,1,2,1,2,1,2,1,2,1,2,1,2,1,2,1,2,1,2,1,2,1,2,1,2,1,2,1,2,1,2,1,2,1,2,1,2,1,2,1,2,1,2,1,2,1,2,1,2,1,2,1,2,1,6,199,189,189,189,189,189,189,189,189,189,195,13,54,55,44,45,56,2,1,27,28,29,12,13,54,55,56,2,1,2,1,2,1,2,1,2,1,2,1,2,1,2,1,2,1,27,28,29,12,13,201,202,195,13,12,13,12,13,12,13,12,13,12,13,12,13,46,47,48,49,48,49,48,49,48,49,48,49,48,49,91,92,101,102,48,49,48,49,48,49,48,49,48,49,48,49,48,49,48,49,48,49,48,49,48,49,50,51,142,143,50,51,52,53,12,183,184,185,186,13,109,110,52,53,12,13,12,13,12,13,12,13,212,211,46,49,48,49,48,49,48,53,12,13,12,13,12,13,12,13,12,30,48,49,48,49,48,49,48,49,48,49,48,49,48,49,48,49,48,49,48,49,48,49,48,49,48,49,48,49,33,13,138,137,137,137,137,137,137,137,137,137,137,137,137,137,137,137,137,137,137,137,137,137,137,137,137,137,137,137,137,137,137,137,137,137,137,137,137,137,137,137,137,137,137,137,137,137,135,13,46,47,48,49,48,49,48,49,52,53,54,55,56,2,1,27,28,29,12,13,54,55,28,29,109,110,50,51,48,49,31,32,31,32,31,32,31,32,31,32,31,32,31,32,31,32,31,32,48,49,66,67,7,2,1,2,1,2,1,2,1,2,1,2,1,2,1,2,1,2,1,2,1,2,1,2,1,2,1,2,1,2,1,2,1,2,1,2,1,2,1,2,1,2,1,2,1,2,1,2,1,2,1,2,1,2,1,2,1,2,1,2,1,2,1,2,1,2,1,2,1,2,1,2,1,2,1,2,1,2,1,2,1,2,1,2,1,2,1,2,1,2,1,2,1,2,1,2,1,2,1,2,1,2,1,2,1,2,1,2,1,2,1,2,1,2,1,2,1,2,1,2,1,2,1,2,1,2,1,2,1,2,1,2,1,2,1,2,1,2,1,2,1,2,1,2,1,2,1,2,1,2,1,2,1,2,1,2,1,2,1,2,
3,4,3,4,3,4,3,4,3,4,3,4,3,4,3,4,3,4,3,4,3,4,3,4,3,4,3,4,3,4,3,4,3,4,3,4,3,4,3,4,3,4,3,4,3,4,3,4,3,4,3,4,3,4,3,4,3,4,3,4,3,4,3,4,3,4,3,4,8,9,200,189,189,189,189,189,189,196,197,198,16,17,55,57,58,57,3,4,3,4,34,28,16,17,55,57,3,4,3,4,3,4,3,4,3,4,3,4,3,4,3,4,3,4,3,4,34,28,16,17,16,203,16,17,16,17,16,17,16,17,16,17,16,17,16,17,59,60,61,62,61,62,61,62,61,62,61,62,61,62,61,62,61,62,61,62,61,62,61,62,61,62,61,62,61,62,61,62,61,62,61,62,61,62,61,62,63,64,144,145,63,64,65,17,187,188,189,189,190,191,16,115,65,17,16,17,16,17,16,17,16,17,211,209,59,60,38,62,49,60,65,17,16,13,16,17,16,17,16,17,36,37,61,62,61,62,61,62,61,62,61,62,61,62,61,62,61,62,61,62,61,62,61,62,61,62,61,62,61,62,40,41,139,137,137,137,137,137,137,137,137,137,137,137,137,137,137,137,137,137,137,137,137,137,137,137,137,137,137,137,137,137,137,137,137,137,137,137,137,137,137,137,137,137,137,137,137,137,137,135,59,60,61,62,61,62,61,62,65,17,55,57,3,4,3,4,34,28,35,17,55,57,34,28,16,115,63,64,61,62,38,39,38,39,38,39,38,39,38,39,38,39,38,39,38,39,38,39,61,62,70,71,10,3,4,3,4,3,4,3,4,3,4,3,4,3,4,3,4,3,4,3,4,3,4,3,4,3,4,3,4,3,4,3,4,3,4,3,4,3,4,3,4,3,4,3,4,3,4,3,4,3,4,3,4,3,4,3,4,3,4,3,4,3,4,3,4,3,4,3,4,3,4,3,4,3,4,3,4,3,4,3,4,3,4,3,4,3,4,3,4,3,4,3,4,3,4,3,4,3,4,3,4,3,4,3,4,3,4,3,4,3,4,3,4,3,4,3,4,3,4,3,4,3,4,3,4,3,4,3,4,3,4,3,4,3,4,3,4,3,4,3,4,3,4,3,4,3,4,3,4,3,4,3,4,3,4,3,4,3,4,3,
1,2,1,2,1,2,1,2,1,2,1,2,1,2,1,2,1,2,1,2,1,2,1,2,1,2,1,2,1,2,1,2,1,2,1,2,1,2,1,2,1,2,1,2,1,2,1,2,1,2,1,2,1,2,1,2,1,2,1,2,1,2,1,2,1,2,1,6,12,183,192,189,189,189,189,189,195,13,54,55,42,43,56,2,1,2,1,2,1,2,1,19,12,13,14,2,1,2,1,2,1,2,1,2,1,2,1,2,1,2,1,2,1,2,1,2,1,11,12,13,12,13,12,13,12,13,12,13,12,13,12,13,12,13,12,30,48,49,48,49,48,49,48,49,48,49,48,49,48,49,48,49,48,49,48,49,48,49,48,49,48,49,48,49,48,49,48,49,48,49,48,49,48,49,52,53,12,183,184,185,184,185,184,185,192,189,189,189,189,213,184,185,184,185,186,13,12,13,12,13,12,30,31,32,48,49,48,49,48,49,31,13,13,13,13,13,12,30,31,32,48,49,48,49,48,49,48,49,48,49,48,49,48,49,48,49,48,49,48,49,48,49,48,49,48,49,48,49,48,49,66,67,146,147,137,137,137,137,137,137,137,137,137,137,137,137,137,137,137,137,137,137,137,137,137,137,137,137,137,137,137,137,137,137,137,137,137,137,137,137,137,137,137,137,137,137,137,137,137,140,46,47,48,49,48,49,48,49,33,13,21,2,1,2,1,2,1,27,42,43,56,2,1,27,68,69,28,29,46,47,48,49,48,49,48,49,48,49,48,49,48,49,48,49,48,49,48,49,48,49,66,67,21,2,1,2,1,2,1,2,1,2,1,2,1,2,1,2,1,2,1,2,1,2,1,2,1,2,1,2,1,2,1,2,1,2,1,2,1,2,1,2,1,2,1,2,1,2,1,2,1,2,1,2,1,2,1,2,1,2,1,2,1,2,1,2,1,2,1,2,1,2,1,2,1,2,1,2,1,2,1,2,1,2,1,2,1,2,1,2,1,2,1,2,1,2,1,2,1,2,1,2,1,2,1,2,1,2,1,2,1,2,1,2,1,2,1,2,1,2,1,2,1,2,1,2,1,2,1,2,1,2,1,2,1,2,1,2,1,2,1,2,1,2,1,2,1,2,1,2,1,2,1,2,1,2,1,2,1,2,1,2,
3,4,3,4,3,4,3,4,3,4,3,4,3,4,3,4,3,4,3,4,3,4,3,4,3,4,3,4,3,4,3,4,3,4,3,4,3,4,3,4,3,4,3,4,3,4,3,4,3,4,3,4,3,4,3,4,3,4,3,4,3,4,3,4,3,4,8,9,187,188,189,189,189,196,197,198,16,17,55,57,3,57,3,4,3,4,3,4,3,4,3,20,16,17,18,3,4,3,4,3,4,3,4,3,4,3,4,3,4,3,4,3,4,3,4,3,4,15,35,17,16,17,16,17,16,17,16,17,16,17,16,17,16,17,36,37,61,62,61,62,61,62,61,62,61,62,72,73,74,75,76,62,61,62,61,62,61,62,61,62,61,62,61,62,61,62,61,62,61,62,61,62,61,62,65,17,187,188,189,189,189,189,189,189,189,189,189,189,189,189,189,189,189,189,190,191,16,17,16,17,36,37,38,62,38,62,38,62,49,48,49,31,13,13,13,13,36,37,38,39,61,62,61,62,61,62,61,62,61,62,61,62,61,62,61,62,61,62,61,62,61,62,61,62,61,62,61,62,61,62,70,71,16,146,147,137,137,137,137,137,137,137,137,137,137,137,137,137,137,137,137,137,137,137,137,137,137,137,137,137,137,137,137,137,137,137,137,137,137,137,137,137,137,137,137,137,137,137,137,141,59,60,61,62,61,62,61,62,40,41,16,26,5,3,4,3,4,3,4,57,3,4,3,4,3,4,34,28,59,60,61,62,61,62,61,62,61,62,61,62,61,62,61,62,61,62,61,62,61,62,70,71,16,26,5,3,4,3,4,3,4,3,4,3,4,3,4,3,4,3,4,3,4,3,4,3,4,3,4,3,4,3,4,3,4,3,4,3,4,3,4,3,4,3,4,3,4,3,4,3,4,3,4,3,4,3,4,3,4,3,4,3,4,3,4,3,4,3,4,3,4,3,4,3,4,3,4,3,4,3,4,3,4,3,4,3,4,3,4,3,4,3,4,3,4,3,4,3,4,3,4,3,4,3,4,3,4,3,4,3,4,3,4,3,4,3,4,3,4,3,4,3,4,3,4,3,4,4,24,25,5,3,4,3,4,3,4,3,4,3,4,3,4,3,4,3,4,3,4,3,4,3,4,3,4,3,4,3,4,3,4,3,
1,2,1,2,1,2,1,2,1,2,1,2,1,2,1,2,1,2,1,2,1,2,1,2,1,2,1,2,1,2,1,2,1,2,1,2,1,2,1,2,1,2,1,2,1,2,1,2,1,2,1,2,1,2,1,2,1,2,1,2,1,2,1,2,1,6,12,13,201,202,189,189,195,13,54,55,44,45,56,2,1,2,1,2,1,2,1,2,1,2,1,19,12,13,21,2,1,2,1,2,1,2,1,2,1,2,1,2,1,2,1,2,1,2,1,2,1,27,28,29,12,13,12,13,12,13,12,13,12,13,12,13,12,30,48,49,48,49,48,49,48,49,48,49,77,78,79,80,81,82,83,49,48,49,48,49,48,49,48,49,48,49,48,49,48,49,48,49,48,49,48,49,48,49,33,13,201,202,189,189,189,189,189,189,189,189,189,189,189,189,189,189,189,189,195,13,12,30,31,32,48,49,48,49,48,49,48,49,48,49,48,49,31,32,31,36,48,49,48,49,48,49,48,49,48,49,48,49,48,49,48,49,48,49,48,49,52,53,109,110,48,49,48,49,48,49,48,49,48,49,48,49,33,13,146,147,137,137,137,137,137,137,137,137,137,137,137,137,137,137,137,137,137,137,137,137,137,137,137,137,137,137,137,137,137,137,137,137,137,137,137,137,137,137,137,137,137,137,154,182,46,47,48,49,48,49,48,49,66,67,12,13,21,2,1,2,1,2,1,2,1,2,1,2,1,2,1,11,46,47,48,49,48,49,48,49,48,49,48,49,48,49,48,49,48,49,48,49,48,49,48,49,33,13,21,2,1,2,1,2,1,2,1,2,1,2,1,2,1,2,1,2,1,2,1,2,1,2,1,2,1,2,1,2,1,2,1,2,1,2,1,2,1,2,1,2,1,2,1,2,1,2,1,2,1,2,1,2,1,2,1,2,1,2,1,2,1,2,1,2,1,2,1,2,1,2,1,2,1,2,1,2,1,2,1,2,1,2,1,2,1,2,1,2,1,2,1,2,1,2,1,2,1,2,1,2,1,2,1,2,1,2,1,2,1,2,1,2,1,2,1,2,1,2,1,2,1,6,12,13,21,2,1,2,1,2,1,2,1,2,1,2,1,2,1,2,1,2,1,2,1,2,1,2,1,2,1,2,1,2,1,2,
3,4,3,4,3,4,3,4,3,4,3,4,3,4,3,4,3,4,3,4,3,4,3,4,3,4,3,4,3,4,3,4,3,4,3,4,3,4,3,4,3,4,3,4,3,4,3,4,3,4,3,4,3,4,3,4,3,4,3,4,3,4,3,4,8,9,16,17,16,203,197,198,16,17,55,57,58,57,3,4,3,4,3,4,3,4,3,4,3,4,3,20,16,17,16,26,22,23,5,3,4,3,4,3,4,3,4,3,4,3,4,3,4,3,4,3,4,3,34,28,35,17,16,17,16,17,16,17,16,17,16,17,36,37,61,62,61,62,61,62,61,62,61,62,84,85,86,87,88,89,90,62,61,62,61,62,61,62,61,62,61,62,61,62,61,62,61,62,61,62,61,62,61,62,40,41,16,203,197,198,197,198,197,198,197,198,204,189,189,189,189,189,189,196,16,17,36,37,38,39,61,62,61,62,61,62,61,62,61,62,49,48,38,62,38,62,61,62,61,62,61,62,61,62,72,73,74,75,76,62,61,62,61,62,61,62,65,17,16,115,61,62,61,62,61,62,61,62,61,62,61,62,40,41,16,146,148,149,148,149,148,149,147,137,137,137,137,137,137,137,137,137,137,137,137,137,137,137,137,137,137,137,137,137,137,137,137,137,137,137,137,137,137,137,137,137,137,154,182,17,59,60,61,62,61,62,61,62,70,71,17,35,16,26,5,3,4,3,4,3,4,3,4,3,4,3,4,15,59,60,61,62,61,62,61,62,61,62,61,62,61,62,61,62,61,62,61,62,61,62,61,62,40,41,16,26,5,3,4,3,4,3,4,3,4,3,4,3,4,3,4,3,4,3,4,3,4,3,4,3,4,3,4,3,4,3,4,3,4,3,4,3,4,3,4,3,4,3,4,3,4,3,4,3,4,3,4,3,4,3,4,3,4,3,4,3,4,3,4,3,4,3,4,3,4,3,4,3,4,3,4,3,4,3,4,3,4,3,4,3,4,3,4,3,4,3,4,3,4,3,4,3,4,3,4,3,4,3,4,3,4,3,4,3,4,3,4,3,4,3,4,3,4,3,4,4,8,9,16,17,16,26,5,3,4,3,4,3,4,3,4,3,4,3,4,3,4,3,4,3,4,3,4,3,4,3,4,3,4,3,4,3,
1,2,1,2,1,2,1,2,1,2,1,2,1,2,1,2,1,2,1,2,1,2,1,2,1,2,1,2,1,2,1,2,1,2,1,2,1,2,1,2,1,2,1,2,1,2,1,2,1,2,1,2,1,2,1,2,1,2,1,2,1,2,1,6,12,13,12,13,12,13,54,55,42,43,56,2,1,2,1,2,1,2,1,2,1,2,1,2,1,2,1,11,12,13,12,13,12,13,21,2,1,2,1,2,1,2,1,2,1,2,1,2,1,2,1,2,1,2,1,27,42,43,44,45,28,29,12,13,12,13,12,30,48,49,48,49,48,49,48,49,48,49,48,49,91,92,93,94,95,96,48,49,48,49,48,49,48,49,48,49,48,49,48,49,48,49,48,49,48,49,48,49,48,49,48,49,31,32,33,13,12,30,31,32,33,13,201,202,189,189,189,189,189,193,12,13,46,47,48,49,48,49,48,49,48,49,48,49,48,49,48,49,48,49,48,49,48,49,48,49,48,49,77,78,79,80,81,82,83,49,48,49,48,49,66,67,54,55,28,29,109,110,48,49,48,49,48,49,52,53,109,110,48,49,31,32,31,32,31,32,33,13,146,147,137,137,137,137,137,137,137,137,137,137,137,137,137,137,137,137,137,137,137,137,137,137,137,137,137,137,137,137,137,137,137,137,154,182,12,30,48,49,48,49,48,49,48,49,66,67,54,55,44,45,56,2,1,2,1,2,1,2,1,2,1,2,1,19,109,110,50,51,48,49,48,49,48,49,48,49,50,51,50,51,50,51,50,51,50,51,48,49,66,67,12,13,14,2,1,2,1,2,1,2,1,2,1,2,1,2,1,2,1,2,1,2,1,2,1,2,1,2,1,2,1,2,1,2,1,2,1,2,1,2,1,2,1,2,1,2,1,2,1,2,1,2,1,2,1,2,1,2,1,2,1,2,1,2,1,2,1,2,1,2,1,2,1,2,1,2,1,2,1,2,1,2,1,2,1,2,1,2,1,2,1,2,1,2,1,2,1,2,1,2,1,2,1,2,1,2,1,2,1,2,1,2,1,2,1,2,1,2,1,2,1,6,12,13,12,13,54,55,56,2,1,2,1,2,1,2,1,2,1,2,1,2,1,2,1,2,1,2,1,2,1,2,1,2,1,2,1,2,
3,4,3,4,3,4,3,4,3,4,3,4,3,4,3,4,3,4,3,4,3,4,3,4,3,4,3,4,3,4,3,4,3,4,3,4,3,4,3,4,3,4,3,4,3,4,3,4,3,4,3,4,3,4,3,4,3,4,3,4,3,4,8,9,16,17,16,17,17,35,55,57,3,57,3,4,3,4,3,4,3,4,3,4,3,4,3,4,3,4,3,15,35,17,16,17,16,17,16,26,22,23,24,25,24,25,5,3,4,3,4,3,4,3,4,3,4,3,4,3,4,57,58,57,34,28,35,17,16,17,36,37,61,62,61,62,61,62,61,62,61,62,61,62,61,62,97,98,99,100,61,62,61,62,61,62,61,62,61,62,61,62,61,62,61,62,61,62,61,62,61,62,61,62,61,62,38,39,40,41,36,37,38,39,40,41,16,203,204,189,189,189,189,194,16,17,59,60,61,62,61,62,61,62,61,62,61,62,61,62,61,62,61,62,61,62,61,62,61,62,61,62,84,85,86,87,88,89,90,62,61,62,61,62,70,71,55,57,34,28,16,115,61,62,61,62,61,62,65,17,16,115,61,62,38,39,38,39,38,39,40,41,16,146,147,137,137,137,137,137,137,137,137,137,137,154,148,149,148,149,147,137,137,137,137,137,137,137,137,154,148,149,148,149,148,149,182,17,36,37,61,62,61,62,61,62,61,62,70,71,55,57,58,57,3,4,3,4,3,4,3,4,3,4,3,4,3,20,16,115,63,64,61,62,61,62,61,62,61,62,63,64,63,64,63,64,63,64,63,64,61,62,70,71,17,35,18,3,4,3,4,3,4,3,4,3,4,3,4,3,4,3,4,3,4,3,4,3,4,3,4,3,4,3,4,3,4,3,4,3,4,3,4,3,4,3,4,3,4,3,4,3,4,3,4,3,4,3,4,3,4,3,4,3,4,3,4,3,4,3,4,3,4,3,4,3,4,3,4,3,4,3,4,3,4,3,4,3,4,3,4,3,4,3,4,3,4,3,4,3,4,3,4,3,4,3,4,3,4,3,4,3,4,3,4,3,4,3,4,3,4,3,4,4,8,9,16,17,16,17,55,57,3,4,3,4,3,4,3,4,3,4,3,4,3,4,3,4,3,4,3,4,3,4,3,4,3,4,3,4,3,4,
1,2,1,2,1,2,1,2,1,2,1,2,1,2,1,2,1,2,1,2,1,2,1,2,1,2,1,2,1,2,1,2,1,2,1,2,1,2,1,2,1,2,1,2,1,2,1,2,1,2,1,2,1,2,1,2,1,2,1,2,1,6,12,13,12,13,54,55,44,45,56,2,1,2,1,2,1,2,1,2,1,2,1,2,1,2,1,2,1,2,1,27,28,29,12,13,12,13,12,13,12,13,12,13,54,55,56,2,1,2,1,2,1,2,1,2,1,2,1,2,1,2,1,2,1,27,42,43,28,29,109,110,48,49,48,49,48,49,48,49,48,49,48,49,48,49,91,92,101,102,48,49,48,49,48,49,48,49,48,49,48,49,48,49,48,49,48,49,48,49,48,49,48,49,48,49,48,49,48,49,48,49,48,49,48,49,33,13,201,202,189,189,195,13,12,30,48,49,48,49,48,49,48,49,48,49,48,49,48,49,48,49,48,49,48,49,48,49,48,49,48,49,91,92,93,94,95,96,48,49,48,49,48,49,52,53,14,2,1,27,28,29,109,110,50,51,52,53,54,55,28,29,109,110,48,49,48,49,48,49,48,49,33,13,146,147,137,137,137,137,137,137,137,137,154,182,12,30,33,13,146,147,137,137,137,137,137,137,154,182,12,30,31,32,31,32,31,32,48,49,48,49,48,49,48,49,48,49,52,53,14,2,1,2,1,2,1,2,1,2,1,2,1,2,1,2,1,27,28,29,12,13,109,110,48,49,48,49,66,67,54,55,42,43,44,45,68,69,28,29,46,47,66,67,54,55,56,2,1,2,1,2,1,2,1,2,1,2,1,2,1,2,1,2,1,2,1,2,1,2,1,2,1,2,1,2,1,2,1,2,1,2,1,2,1,2,1,2,1,2,1,2,1,2,1,2,1,2,1,2,1,2,1,2,1,2,1,2,1,2,1,2,1,2,1,2,1,2,1,2,1,2,1,2,1,2,1,2,1,2,1,2,1,2,1,2,1,2,1,2,1,2,1,2,1,2,1,2,1,2,1,2,1,2,1,2,1,2,1,2,1,2,1,27,28,29,12,13,54,55,56,2,1,2,1,2,1,2,1,2,1,2,1,2,1,2,1,2,1,2,1,2,1,2,1,2,1,2,1,2,1,2,
3,4,3,4,3,4,3,4,3,4,3,4,3,4,3,4,3,4,3,4,3,4,3,4,3,4,3,4,3,4,3,4,3,4,3,4,3,4,3,4,3,4,3,4,3,4,3,4,3,4,3,4,3,4,3,4,3,4,3,4,8,9,16,17,17,35,55,57,58,57,3,4,3,4,3,4,3,4,3,4,3,4,3,4,3,4,3,4,3,4,3,4,34,28,35,17,16,17,16,17,16,17,17,35,55,57,3,4,3,4,3,4,3,4,3,4,3,4,3,4,3,4,3,4,3,4,3,57,34,28,16,115,61,62,61,62,61,62,61,62,61,62,61,62,61,62,61,62,61,62,61,62,61,62,72,73,74,75,76,62,61,62,61,62,61,62,61,62,61,62,61,62,61,62,61,62,61,62,61,62,61,62,61,62,61,62,40,41,16,203,197,198,16,17,36,37,61,62,61,62,61,62,61,62,61,62,61,62,61,62,61,62,61,62,61,62,61,62,61,62,61,62,61,62,97,98,99,100,61,62,61,62,61,62,65,17,18,3,4,3,34,28,16,115,63,64,65,17,55,57,34,28,16,115,61,62,61,62,61,62,61,62,40,41,16,146,148,149,148,149,148,149,148,149,182,17,36,37,40,41,16,146,148,149,148,149,148,149,182,17,36,37,38,39,38,39,38,39,61,62,61,62,61,62,61,62,61,62,65,17,18,3,4,3,4,3,4,3,4,3,4,3,4,3,4,3,4,3,34,28,35,17,16,115,61,62,61,62,70,71,55,57,3,57,58,57,3,4,34,28,59,60,70,71,55,57,3,4,3,4,3,4,3,4,3,4,3,4,3,4,3,4,3,4,3,4,3,4,3,4,3,4,3,4,3,4,3,4,3,4,3,4,3,4,3,4,3,4,3,4,3,4,3,4,3,4,3,4,3,4,3,4,3,4,3,4,3,4,3,4,3,4,3,4,3,4,3,4,3,4,3,4,3,4,3,4,3,4,3,4,3,4,3,4,3,4,3,4,3,4,3,4,3,4,3,4,3,4,3,4,3,4,3,4,3,4,3,4,3,4,3,4,3,4,34,28,16,17,55,57,3,4,3,4,3,4,3,4,3,4,3,4,3,4,3,4,3,4,3,4,3,4,3,4,3,4,3,4,3,4,3,4,
1,2,1,2,1,2,1,2,1,2,1,2,1,2,1,2,1,2,1,2,1,2,1,2,1,2,1,2,1,2,1,2,1,2,1,2,1,2,1,2,1,2,1,2,1,2,1,2,1,2,1,2,1,2,1,2,1,2,1,6,12,13,54,55,44,45,56,2,1,2,1,2,1,2,1,2,1,2,1,2,1,2,1,2,1,2,1,2,1,2,1,2,1,27,42,43,44,45,68,69,44,45,68,69,56,2,1,2,1,2,1,2,1,2,1,2,1,2,1,2,1,2,1,2,1,2,1,2,1,27,28,29,109,110,48,49,48,49,48,49,48,49,48,49,48,49,48,49,48,49,48,49,77,78,79,80,81,82,83,49,48,49,48,49,48,49,48,49,48,49,48,49,48,49,48,49,48,49,48,49,48,49,48,49,48,49,48,49,31,32,31,32,31,32,48,49,48,49,48,49,48,49,48,49,48,49,48,49,48,49,48,49,48,49,48,49,48,49,48,49,48,49,48,49,91,92,101,102,48,49,50,51,52,53,54,55,56,2,1,2,1,27,42,43,44,45,68,69,56,2,1,27,28,29,109,110,48,49,48,49,48,49,48,49,31,32,31,32,31,32,31,32,31,32,31,32,48,49,48,49,31,32,31,32,31,32,31,32,31,32,48,49,48,49,48,49,48,49,48,49,48,49,50,51,50,51,52,53,54,55,56,2,1,2,1,2,1,2,1,2,1,2,1,2,1,2,1,2,1,27,44,45,28,29,46,47,48,49,66,67,14,2,1,2,1,2,1,2,1,19,46,47,66,67,21,2,1,2,1,2,1,2,1,2,1,2,1,2,1,2,1,2,1,2,1,2,1,2,1,2,1,2,1,2,1,2,1,2,1,2,1,2,1,2,1,2,1,2,1,2,1,2,1,2,1,2,1,2,1,2,1,2,1,2,1,2,1,2,1,2,1,2,1,2,1,2,1,2,1,2,1,2,1,2,1,2,1,2,1,2,1,2,1,2,1,2,1,2,1,2,1,2,1,2,1,2,1,2,1,2,1,2,1,2,1,2,1,2,1,2,1,2,1,2,1,27,42,43,56,2,1,2,1,2,1,2,1,2,1,2,1,2,1,2,1,2,1,2,1,2,1,2,1,2,1,2,1,2,1,2,1,2,
3,4,3,4,3,4,3,4,3,4,3,4,3,4,3,4,3,4,3,4,3,4,3,4,3,4,3,4,3,4,3,4,3,4,3,4,3,4,3,4,3,4,3,4,3,4,3,4,3,4,3,4,3,4,3,4,3,4,8,9,17,35,55,57,58,57,3,4,3,4,3,4,3,4,3,4,3,4,3,4,3,4,3,4,3,4,3,4,3,4,3,4,3,4,3,57,58,57,3,4,58,57,3,4,3,4,3,4,3,4,3,4,3,4,3,4,3,4,3,4,3,4,3,4,3,4,3,4,3,4,34,28,16,115,61,62,61,62,61,62,61,62,61,62,61,62,61,62,61,62,61,62,84,85,86,87,88,89,90,62,61,62,61,62,61,62,61,62,61,62,61,62,61,62,61,62,61,62,61,62,61,62,61,62,61,62,61,62,38,39,38,39,38,39,61,62,61,62,61,62,61,62,61,62,61,62,61,62,61,62,61,62,61,62,61,62,61,62,61,62,61,62,61,62,61,62,61,62,61,62,63,64,65,17,55,57,3,4,3,4,3,4,3,57,58,57,3,4,3,4,3,4,34,28,16,115,61,62,61,62,61,62,61,62,38,39,38,39,38,39,38,39,38,39,38,39,61,62,61,62,38,39,38,39,38,39,38,39,38,39,61,62,61,62,61,62,61,62,61,62,61,62,63,64,63,64,65,17,55,57,3,4,3,4,3,4,3,4,3,4,3,4,3,4,3,4,3,4,3,4,58,57,34,28,59,60,61,62,70,71,18,3,4,3,4,3,4,3,4,20,59,60,70,71,16,26,5,3,4,3,4,3,4,3,4,3,4,3,4,3,4,3,4,3,4,3,4,3,4,3,4,3,4,3,4,3,4,3,4,3,4,3,4,3,4,3,4,3,4,3,4,3,4,3,4,3,4,3,4,3,4,3,4,3,4,3,4,3,4,3,4,3,4,3,4,3,4,3,4,3,4,3,4,3,4,3,4,3,4,3,4,3,4,3,4,3,4,3,4,3,4,3,4,3,4,3,4,3,4,3,4,3,4,3,4,3,4,3,4,3,4,3,4,3,4,3,4,57,3,4,3,4,3,4,5,3,4,3,4,3,4,3,4,3,4,3,4,3,4,3,4,3,4,3,4,3,4,3,4,3,4,3,
1,2,1,2,1,2,1,2,1,2,1,2,1,2,1,2,1,2,1,2,1,2,1,2,1,2,1,2,1,2,1,2,1,2,1,2,1,2,1,2,1,2,1,2,1,2,1,2,1,2,1,2,1,2,1,2,1,27,42,43,44,45,56,2,1,2,1,2,1,2,1,2,1,2,1,2,1,2,1,2,1,2,1,2,1,2,1,2,1,2,1,2,1,2,1,2,1,2,1,2,1,2,1,2,1,2,1,2,1,2,1,2,1,2,1,2,1,2,1,2,1,2,1,2,1,2,1,2,1,2,1,27,28,29,109,110,50,51,50,51,50,51,48,49,48,49,48,49,48,49,48,49,91,92,93,94,95,96,48,49,48,49,48,49,48,49,48,49,48,49,48,49,48,49,48,49,48,49,48,49,48,49,48,49,48,49,48,49,48,49,48,49,48,49,48,49,48,49,48,49,48,49,48,49,48,49,48,49,48,49,48,49,48,49,48,49,48,49,48,49,48,49,48,49,48,49,48,49,66,67,54,55,44,45,56,2,1,2,1,2,1,2,1,2,1,2,1,2,1,2,1,2,1,27,28,29,109,110,48,49,48,49,50,51,50,51,48,49,48,49,48,49,48,49,48,49,48,49,48,49,48,49,48,49,48,49,48,49,48,49,48,49,48,49,48,49,48,49,48,49,52,53,54,55,44,45,68,69,56,2,1,2,1,2,1,2,1,2,1,2,1,2,1,2,1,2,1,2,1,2,1,2,1,19,46,47,48,49,66,67,7,2,1,2,1,2,1,2,1,11,109,110,52,53,12,13,21,2,1,2,1,2,1,2,1,2,1,2,1,2,1,2,1,2,1,2,1,2,1,2,1,2,1,2,1,2,1,2,1,2,1,2,1,2,1,2,1,2,1,2,1,2,1,2,1,2,1,2,1,2,1,2,1,2,1,2,1,2,1,2,1,2,1,2,1,2,1,2,1,2,1,2,1,2,1,2,1,2,1,2,1,2,1,2,1,2,1,2,1,2,1,2,1,2,1,2,1,2,1,2,1,2,1,2,1,2,1,2,1,2,1,2,1,2,1,2,1,2,1,2,1,2,1,6,14,2,1,2,1,2,1,2,1,2,1,2,1,2,1,2,1,2,1,2,1,2,1,2,1,2,1,2,
3,4,3,4,3,4,3,4,3,4,3,4,3,4,3,4,3,4,3,4,3,4,3,4,3,4,3,4,3,4,3,4,3,4,3,4,3,4,3,4,3,4,3,4,3,4,3,4,3,4,3,4,3,4,3,4,3,4,3,57,58,57,3,4,3,4,3,4,3,4,3,4,3,4,3,4,3,4,3,4,3,4,3,4,3,4,3,4,3,4,3,4,3,4,3,4,3,4,3,4,3,4,3,4,3,4,3,4,3,4,3,4,3,4,3,4,3,4,3,4,3,4,3,4,3,4,3,4,3,4,3,4,34,28,16,115,63,64,63,64,63,64,61,62,61,62,61,62,61,62,61,62,61,62,97,98,99,100,61,62,61,62,61,62,61,62,61,62,61,62,61,62,61,62,61,62,61,62,61,62,61,62,61,62,61,62,61,62,61,62,61,62,61,62,61,62,61,62,61,62,61,62,61,62,61,62,61,62,61,62,61,62,61,62,72,73,74,75,76,62,61,62,61,62,61,62,61,62,70,71,55,57,58,57,3,4,3,4,3,4,3,4,3,4,3,4,3,4,3,4,3,4,3,4,34,28,16,115,61,62,61,62,63,64,63,64,61,62,61,62,61,62,61,62,61,62,61,62,61,62,61,62,61,62,61,62,61,62,61,62,61,62,61,62,61,62,61,62,61,62,65,17,55,57,58,57,3,4,3,4,3,4,3,4,3,4,3,4,3,4,3,4,3,4,3,4,3,4,3,4,3,4,3,20,59,60,61,62,70,71,10,3,4,3,4,3,4,3,4,15,16,115,65,17,16,17,16,26,5,3,4,3,4,3,4,3,4,3,4,3,4,3,4,3,4,3,4,3,4,3,4,3,4,3,4,3,4,3,4,3,4,3,4,3,4,3,4,3,4,3,4,3,4,3,4,3,4,3,4,3,4,3,4,3,4,3,4,3,4,3,4,3,4,3,4,3,4,4,5,3,4,3,4,3,4,4,5,3,4,3,4,3,4,3,4,3,4,3,4,3,4,3,4,3,4,3,4,3,4,3,4,3,4,3,4,3,4,3,4,3,4,3,4,3,4,3,4,3,4,3,4,4,8,9,18,3,4,3,4,3,4,3,4,3,4,3,4,3,4,3,4,3,4,3,4,3,4,3,4,3,4,3,
1,2,1,2,1,2,1,2,1,2,1,2,1,2,1,2,1,2,1,2,1,2,1,2,1,2,1,2,1,2,1,2,1,2,1,2,1,2,1,2,1,2,1,2,1,2,1,2,1,2,1,2,1,2,1,2,1,2,1,2,1,2,1,2,1,2,1,2,1,2,1,2,1,2,1,2,1,2,1,2,1,2,1,2,1,2,1,2,1,2,1,2,1,2,1,2,1,2,1,2,1,2,1,2,1,2,1,2,1,2,1,2,1,2,1,2,1,2,1,2,1,2,1,2,1,2,1,2,1,2,1,2,1,27,42,43,44,45,68,69,28,29,109,110,48,49,48,49,48,49,48,49,48,49,91,92,101,102,48,49,48,49,48,49,48,49,48,49,48,49,48,49,48,49,48,49,48,49,48,49,48,49,48,49,48,49,48,49,48,49,48,49,48,49,48,49,48,49,48,49,48,49,48,49,48,49,48,49,48,49,48,49,77,78,79,80,81,82,83,49,48,49,48,49,48,49,48,49,66,67,21,2,1,2,1,2,1,2,1,2,1,2,1,2,1,2,1,2,1,2,1,2,1,2,1,6,12,30,48,49,66,67,54,55,28,29,109,110,50,51,50,51,50,51,50,51,50,51,50,51,50,51,50,51,48,49,48,49,48,49,48,49,48,49,48,49,48,49,52,53,54,55,56,2,1,2,1,2,1,2,1,2,1,2,1,2,1,2,1,2,1,2,1,2,1,2,1,2,1,2,1,2,1,6,46,47,48,49,66,67,14,2,1,2,1,2,1,2,1,27,28,29,12,13,12,13,12,13,21,2,1,2,1,2,1,2,1,2,1,2,1,2,1,2,1,2,1,2,1,2,1,2,1,2,1,2,1,2,1,2,1,2,1,2,1,2,1,2,1,2,1,2,1,2,1,2,1,2,1,2,1,2,1,2,1,2,1,2,1,2,1,2,1,2,1,2,1,19,21,2,1,2,1,2,1,6,14,2,1,2,1,2,1,2,1,2,1,2,1,2,1,2,1,2,1,2,1,2,1,2,1,2,1,2,1,2,1,2,1,2,1,2,1,2,1,2,1,2,1,2,1,6,12,13,7,2,1,2,1,2,1,2,1,2,1,2,1,2,1,2,1,2,1,2,1,2,1,2,1,2,1,2,
3,4,3,4,3,4,3,4,3,4,3,4,3,4,3,4,3,4,3,4,3,4,3,4,3,4,3,4,3,4,3,4,3,4,3,4,3,4,3,4,3,4,3,4,3,4,3,4,3,4,3,4,3,4,3,4,3,4,3,4,3,4,3,4,3,4,3,4,3,4,3,4,3,4,3,4,3,4,3,4,3,4,3,4,3,4,3,4,3,4,3,4,3,4,3,4,3,4,3,4,3,4,3,4,3,4,3,4,3,4,3,4,3,4,3,4,3,4,3,4,3,4,3,4,3,4,3,4,3,4,3,4,3,4,3,57,58,57,3,4,34,28,16,115,61,62,61,62,61,62,61,62,61,62,61,62,61,62,61,62,61,62,72,73,74,75,76,62,61,62,61,62,61,62,61,62,61,62,61,62,61,62,61,62,61,62,61,62,61,62,61,62,61,62,61,62,61,62,61,62,61,62,61,62,61,62,61,62,61,62,61,62,84,85,86,87,88,89,90,62,61,62,61,62,61,62,61,62,70,71,16,26,3,4,3,4,3,4,3,4,3,4,3,4,3,4,3,4,3,4,3,4,3,4,8,9,36,37,61,62,70,71,55,57,34,28,16,115,63,64,63,64,63,64,63,64,63,64,63,64,63,64,63,64,61,62,61,62,61,62,61,62,61,62,61,62,61,62,65,17,55,57,3,4,3,4,3,4,3,4,3,4,3,4,3,4,3,4,3,4,3,4,3,4,3,4,3,4,3,4,3,4,8,9,59,60,61,62,70,71,18,3,4,3,4,3,4,3,4,3,34,28,35,17,16,17,16,17,16,26,24,25,22,23,24,25,22,23,24,25,22,23,22,23,5,3,4,3,4,3,4,3,4,3,4,3,4,3,4,3,4,3,4,3,4,3,4,3,4,3,4,3,4,3,4,3,4,3,4,3,4,3,4,3,4,3,4,3,4,3,4,3,4,3,4,3,4,20,16,26,22,23,24,25,8,9,18,3,4,3,4,3,4,3,4,3,4,3,4,3,4,3,4,3,4,3,4,3,4,3,4,3,4,3,4,3,4,3,4,3,4,3,4,3,4,3,4,3,4,4,8,9,16,17,10,3,4,3,4,3,4,3,4,3,4,3,4,3,4,3,4,3,4,3,4,3,4,3,4,3,4,3,
1,2,1,2,1,2,1,2,1,2,1,2,1,2,1,2,1,2,1,2,1,2,1,2,1,2,1,2,1,2,1,2,1,2,1,2,1,2,1,2,1,2,1,2,1,2,1,2,1,2,1,2,1,2,1,2,1,2,1,2,1,2,1,2,1,2,1,2,1,2,1,2,1,2,1,2,1,2,1,2,1,2,1,2,1,2,1,2,1,2,1,2,1,2,1,2,1,2,1,2,1,2,1,2,1,2,1,2,1,2,1,2,1,2,1,2,1,2,1,2,1,2,1,2,1,2,1,2,1,2,1,2,1,2,1,2,1,2,1,2,1,19,12,13,46,47,48,49,48,49,48,49,48,49,48,49,48,49,48,49,77,78,79,80,81,82,83,49,48,49,48,49,48,49,48,49,48,49,48,49,48,49,50,51,50,51,50,51,50,51,48,49,48,49,48,49,48,49,48,49,48,49,48,49,48,49,48,49,48,49,48,49,91,92,93,94,95,96,48,49,48,49,48,49,48,49,48,49,48,49,33,13,21,2,1,2,1,2,1,2,1,2,1,2,1,2,1,2,1,2,1,2,1,27,28,29,109,110,50,51,52,53,14,2,1,27,42,43,44,45,68,69,42,43,44,45,68,69,44,45,68,69,28,29,109,110,48,49,48,49,48,49,50,51,50,51,52,53,54,55,56,2,1,2,1,2,1,2,1,2,1,2,1,2,1,2,1,2,1,2,1,2,1,2,1,2,1,2,1,2,1,6,12,30,48,49,48,49,52,53,7,2,1,2,1,2,1,2,1,2,1,27,42,43,44,45,28,29,12,13,12,13,12,13,12,13,12,13,12,13,12,13,12,13,21,2,1,2,1,2,1,2,1,2,1,2,1,2,1,2,1,2,1,2,1,2,1,2,1,2,1,2,1,2,1,2,1,2,1,2,1,2,1,2,1,2,1,2,1,2,1,2,1,2,1,2,1,6,12,30,31,32,31,32,33,13,21,2,1,2,1,2,1,2,1,2,1,2,1,2,1,2,1,2,1,2,1,2,1,2,1,2,1,2,1,2,1,2,1,2,1,2,1,2,1,2,1,2,1,11,12,13,12,13,14,2,1,2,1,2,1,2,1,2,1,2,1,2,1,2,1,2,1,2,1,2,1,2,1,2,1,2,
3,4,3,4,3,4,3,4,3,4,3,4,3,4,3,4,3,4,3,4,3,4,3,4,3,4,3,4,3,4,3,4,3,4,3,4,3,4,3,4,3,4,3,4,3,4,3,4,3,4,3,4,3,4,3,4,3,4,3,4,3,4,3,4,3,4,3,4,3,4,3,4,3,4,3,4,3,4,3,4,3,4,3,4,3,4,3,4,3,4,3,4,3,4,3,4,3,4,3,4,3,4,3,4,3,4,3,4,3,4,3,4,3,4,3,4,3,4,3,4,3,4,3,4,3,4,3,4,3,4,3,4,3,4,3,4,3,4,3,4,3,20,35,17,59,60,61,62,61,62,61,62,61,62,61,62,61,62,61,62,84,85,86,87,88,89,90,62,61,62,61,62,61,62,61,62,61,62,61,62,61,62,63,64,63,64,63,64,63,64,61,62,61,62,61,62,61,62,61,62,61,62,61,62,61,62,61,62,61,62,61,62,61,62,97,98,99,100,61,62,61,62,61,62,61,62,61,62,61,62,40,41,16,26,5,3,4,3,4,3,4,3,4,3,4,3,4,3,4,3,4,3,4,3,34,28,16,115,63,64,65,17,18,3,4,3,4,57,58,57,3,4,3,57,58,57,3,4,58,57,3,4,34,28,16,115,61,62,61,62,61,62,63,64,63,64,65,17,55,57,3,4,3,4,3,4,3,4,3,4,3,4,3,4,3,4,3,4,3,4,3,4,3,4,24,25,22,23,24,25,8,9,36,37,61,62,61,62,65,17,10,3,4,3,4,3,4,3,4,3,4,3,4,57,58,57,34,28,16,17,16,17,16,17,16,17,16,17,16,17,16,17,16,17,16,26,5,3,4,3,4,3,4,3,4,3,4,3,4,3,4,3,4,3,4,3,4,3,4,3,4,3,4,3,4,3,4,3,4,3,4,3,4,3,4,3,4,3,4,3,4,3,4,3,4,4,8,9,36,37,38,39,38,39,40,41,16,26,5,3,4,3,4,3,4,3,4,3,4,3,4,3,4,3,4,3,4,3,4,3,4,3,4,3,4,3,4,3,4,3,4,3,4,3,4,3,4,3,4,15,16,17,16,17,18,3,4,3,4,3,4,3,4,3,4,3,4,3,4,3,4,3,4,3,4,3,4,3,4,3,4,3,
1,2,1,2,1,2,1,2,1,2,1,2,1,2,1,2,1,2,1,2,1,2,1,2,1,2,1,2,1,2,1,2,1,2,1,2,1,2,1,2,1,2,1,2,1,2,1,2,1,2,1,2,1,2,1,2,1,2,1,2,1,2,1,2,1,2,1,2,1,2,1,2,1,2,1,2,1,2,1,2,1,2,1,2,1,2,1,2,1,2,1,2,1,2,1,2,1,2,1,2,1,2,1,2,1,2,1,2,1,2,1,2,1,2,1,2,1,2,1,2,1,2,1,2,1,2,1,2,1,2,1,2,1,2,1,2,1,2,1,2,1,27,28,29,109,110,48,49,48,49,48,49,48,49,48,49,48,49,48,49,91,92,93,94,95,96,48,49,48,49,48,49,48,49,48,49,48,49,48,49,66,67,55,150,151,150,151,150,151,28,46,47,48,49,48,49,48,49,48,49,48,49,48,49,48,49,48,49,48,49,48,49,48,49,91,92,101,102,48,49,48,49,48,49,48,49,48,49,48,49,48,49,33,13,14,2,1,2,1,2,1,2,1,2,1,2,1,2,1,2,1,2,1,2,1,27,42,43,44,45,68,69,56,2,1,2,1,2,1,2,1,2,1,2,1,2,1,2,1,2,1,2,1,27,28,29,46,47,48,49,52,53,54,55,44,45,68,69,56,2,1,2,1,2,1,2,1,2,1,2,1,2,1,2,1,2,1,2,1,2,1,2,1,11,12,13,12,30,31,32,31,32,48,49,48,49,66,67,12,13,7,2,1,2,1,2,1,2,1,2,1,2,1,2,1,2,1,19,12,13,12,13,12,13,54,55,42,43,44,45,68,69,68,69,28,29,21,2,1,2,1,2,1,2,1,2,1,2,1,2,1,2,1,2,1,2,1,2,1,2,1,2,1,2,1,2,1,2,1,2,1,2,1,2,1,2,1,2,1,2,1,2,1,2,1,6,12,30,48,49,48,49,48,49,52,53,12,13,21,2,1,2,1,2,1,2,1,2,1,2,1,2,1,2,1,2,1,2,1,2,1,2,1,2,1,2,1,2,1,2,1,2,1,2,1,2,1,2,1,19,12,13,12,13,7,2,1,2,1,2,1,2,1,2,1,2,1,2,1,2,1,2,1,2,1,2,1,2,1,2,1,2,
3,4,3,4,3,4,3,4,3,4,3,4,3,4,3,4,3,4,3,4,3,4,3,4,3,4,3,4,3,4,3,4,3,4,3,4,3,4,3,4,3,4,3,4,3,4,3,4,3,4,3,4,3,4,3,4,3,4,3,4,3,4,3,4,3,4,3,4,3,4,3,4,3,4,3,4,3,4,3,4,3,4,3,4,3,4,3,4,3,4,3,4,3,4,3,4,3,4,3,4,3,4,3,4,3,4,3,4,3,4,3,4,3,4,3,4,3,4,3,4,3,4,3,4,3,4,3,4,3,4,3,4,3,4,3,4,3,4,3,4,3,4,34,28,16,115,61,62,61,62,61,62,61,62,61,62,61,62,61,62,61,62,97,98,99,100,61,62,61,62,61,62,61,62,61,62,61,62,61,62,70,71,155,159,159,159,159,159,159,160,59,60,61,62,61,62,61,62,61,62,61,62,61,62,61,62,61,62,61,62,61,62,61,62,61,62,61,62,61,62,61,62,61,62,61,62,61,62,61,62,61,62,40,41,18,3,4,3,4,3,4,3,4,3,4,3,4,3,4,3,4,3,4,3,4,3,4,57,58,57,3,4,3,4,3,4,3,4,3,4,3,4,3,4,3,4,3,4,3,4,3,4,3,4,34,28,59,60,61,62,65,17,55,57,58,57,3,4,3,4,3,4,3,4,3,4,3,4,3,4,3,4,3,4,3,4,3,4,3,4,3,4,3,15,16,17,36,37,38,39,38,39,61,62,61,62,70,71,16,17,10,3,4,3,4,3,4,3,4,3,4,3,4,3,4,3,4,20,16,17,16,17,16,17,55,57,3,57,58,57,3,4,3,4,34,28,16,26,5,3,4,3,4,3,4,3,4,3,4,3,4,3,4,3,4,3,4,3,4,3,4,3,4,3,4,3,4,3,4,3,4,3,4,3,4,3,4,3,4,3,4,3,4,4,8,9,36,37,61,62,61,62,61,62,65,17,16,17,16,26,5,3,4,3,4,3,4,3,4,3,4,3,4,3,4,3,4,3,4,3,4,3,4,3,4,3,4,3,4,3,4,3,4,3,4,3,4,3,4,20,35,17,16,17,10,3,4,3,4,3,4,3,4,3,4,3,4,3,4,3,4,3,4,3,4,3,4,3,4,3,4,3,
1,2,1,2,1,2,1,2,1,2,1,2,1,2,1,2,1,2,1,2,1,2,1,2,1,2,1,2,1,2,1,2,1,2,1,2,1,2,1,2,1,2,1,2,1,2,1,2,1,2,1,2,1,2,1,2,1,2,1,2,1,2,1,2,1,2,1,2,1,2,1,2,1,2,1,2,1,2,1,2,1,2,1,2,1,2,1,2,1,2,1,2,1,2,1,2,1,2,1,2,1,2,1,2,1,2,1,2,1,2,1,2,1,2,1,2,1,2,1,2,1,2,1,2,1,2,1,2,1,2,1,2,1,2,1,2,1,2,1,2,1,2,1,6,12,30,48,49,48,49,48,49,48,49,48,49,48,49,48,49,48,49,91,92,101,102,48,49,48,49,48,49,48,49,48,49,48,49,48,49,66,67,167,159,159,159,159,159,159,168,46,47,48,49,48,49,48,49,48,49,48,49,48,49,48,49,48,49,48,49,48,49,48,49,48,49,48,49,48,49,48,49,48,49,48,49,48,49,48,49,48,49,66,67,21,2,1,2,1,2,1,2,1,2,1,2,1,2,1,2,1,2,1,2,1,2,1,2,1,2,1,2,1,2,1,2,1,2,1,2,1,2,1,2,1,2,1,2,1,2,1,2,1,2,1,11,46,47,66,67,54,55,56,2,1,2,1,2,1,2,1,2,1,2,1,2,1,2,1,2,1,2,1,2,1,2,1,2,1,2,1,2,1,19,12,13,46,47,48,49,48,49,48,49,50,51,52,53,54,55,56,2,1,2,1,2,1,2,1,2,1,2,1,2,1,2,1,11,12,13,12,13,12,13,21,2,1,2,1,2,1,2,1,2,1,27,68,69,56,2,1,2,1,2,1,2,1,2,1,2,1,2,1,2,1,2,1,2,1,2,1,2,1,2,1,2,1,2,1,2,1,2,1,2,1,2,1,2,1,2,1,2,1,8,12,30,48,49,48,49,50,51,52,53,12,103,111,112,104,13,14,2,1,2,1,2,1,2,1,2,1,2,1,2,1,2,1,2,1,2,1,2,1,2,1,2,1,2,1,2,1,2,1,2,1,2,1,2,1,27,28,29,54,55,56,2,1,2,1,2,1,2,1,2,1,2,1,2,1,2,1,2,1,2,1,2,1,2,1,2,1,2,
3,4,3,4,3,4,3,4,3,4,3,4,3,4,3,4,3,4,3,4,3,4,3,4,3,4,3,4,3,4,3,4,3,4,3,4,3,4,3,4,3,4,3,4,3,4,3,4,3,4,3,4,3,4,3,4,3,4,3,4,3,4,3,4,3,4,3,4,3,4,3,4,3,4,3,4,3,4,3,4,3,4,3,4,3,4,3,4,3,4,3,4,3,4,3,4,3,4,3,4,3,4,3,4,3,4,3,4,3,4,3,4,3,4,3,4,3,4,3,4,3,4,3,4,3,4,3,4,3,4,3,4,3,4,3,4,3,4,3,4,3,4,8,9,36,37,61,62,61,62,61,62,61,62,61,62,61,62,61,62,61,62,61,62,61,62,61,62,61,62,61,62,61,62,61,62,61,62,61,62,70,71,155,159,159,159,159,159,159,160,59,60,61,62,61,62,61,62,61,62,61,62,61,62,61,62,61,62,61,62,61,62,61,62,61,62,61,62,61,62,61,62,61,62,61,62,61,62,61,62,61,62,70,71,16,26,5,3,4,3,4,3,4,3,4,3,4,3,4,3,4,3,4,3,4,3,4,3,4,3,4,3,4,3,4,3,4,3,4,3,4,3,4,3,4,3,4,3,4,3,4,3,4,3,4,15,59,60,70,71,55,57,3,4,3,4,3,4,3,4,3,4,3,4,3,4,3,4,3,4,3,4,3,4,3,4,3,4,3,4,3,4,3,20,16,17,59,60,61,62,61,62,61,62,63,64,65,17,55,57,3,4,3,4,3,4,3,4,3,4,3,4,3,4,3,4,3,15,35,17,16,17,16,17,16,26,5,3,4,3,4,3,4,3,4,3,4,3,4,3,4,3,4,3,4,3,4,3,4,3,4,3,4,3,4,3,4,3,4,3,4,3,4,3,4,3,4,3,4,3,4,3,4,3,4,3,4,3,4,3,4,3,11,12,36,37,61,62,61,62,63,64,65,17,105,106,107,106,107,108,18,127,3,4,3,4,3,4,3,4,3,4,3,4,3,4,3,4,3,4,3,4,3,4,3,4,3,4,3,4,3,4,3,4,3,4,3,4,3,4,34,28,55,57,3,4,3,4,3,4,3,4,3,4,3,4,3,4,3,4,3,4,3,4,3,4,3,4,3,4,3,4,
1,2,1,2,1,2,1,2,1,2,1,2,1,2,1,2,1,2,1,2,1,2,1,2,1,2,1,2,1,2,1,2,1,2,1,2,1,2,1,2,1,2,1,2,1,2,1,2,1,2,1,2,1,2,1,2,1,2,1,2,1,2,1,2,1,2,1,2,1,2,1,2,1,2,1,2,1,2,1,2,1,2,1,2,1,2,1,2,1,2,1,2,1,2,1,2,1,2,1,2,1,2,1,2,1,2,1,2,1,2,1,2,1,2,1,2,1,2,1,2,1,2,1,2,1,2,1,2,1,2,1,2,1,2,1,2,1,2,1,2,1,11,12,13,46,47,48,49,48,49,48,49,48,49,48,49,48,49,48,49,48,49,48,49,48,49,48,49,48,49,48,49,48,49,48,49,48,49,48,49,66,67,167,159,159,159,159,159,159,168,46,47,48,49,48,49,48,49,48,49,48,49,48,49,48,49,48,49,48,49,48,49,48,49,48,49,48,49,48,49,48,49,48,49,48,49,48,49,48,49,48,49,48,49,33,13,14,2,1,2,1,2,1,2,1,2,1,2,1,2,1,2,1,2,1,2,1,2,1,2,1,2,1,2,1,2,1,2,1,2,1,2,1,2,1,2,1,2,1,2,1,2,1,2,1,19,109,110,52,53,21,2,1,2,1,2,1,2,1,2,1,2,1,2,1,2,1,2,1,2,1,2,1,2,1,2,1,2,1,2,1,2,1,11,12,30,48,49,48,49,48,49,52,53,54,55,68,69,56,2,1,2,1,2,1,2,1,2,1,2,1,2,1,2,1,2,1,27,28,29,12,13,12,13,12,13,21,2,1,2,1,2,1,2,1,2,1,2,1,2,1,2,1,2,1,2,1,2,1,2,1,2,1,2,1,2,1,2,1,2,1,2,1,2,1,2,1,2,1,2,1,2,1,2,1,2,1,2,1,2,1,2,15,12,109,110,50,51,52,53,212,211,12,13,113,114,113,114,111,117,14,2,1,2,1,2,1,2,1,2,1,2,1,2,1,2,1,2,1,2,1,2,1,2,1,2,1,2,1,2,1,2,1,2,1,2,1,2,1,2,1,27,56,2,1,2,1,2,1,2,1,2,1,2,1,2,1,2,1,2,1,2,1,2,1,2,1,2,1,2,1,2,
3,4,3,4,3,4,3,4,3,4,3,4,3,4,3,4,3,4,3,4,3,4,3,4,3,4,3,4,3,4,3,4,3,4,3,4,3,4,3,4,3,4,3,4,3,4,3,4,3,4,3,4,3,4,3,4,3,4,3,4,3,4,3,4,3,4,3,4,3,4,3,4,3,4,3,4,3,4,3,4,3,4,3,4,3,4,3,4,3,4,3,4,3,4,3,4,3,4,3,4,3,4,3,4,3,4,3,4,3,4,3,4,3,4,3,4,3,4,3,4,3,4,3,4,3,4,3,4,3,4,3,4,3,4,3,4,3,4,3,4,3,15,35,17,59,60,61,62,61,62,61,62,61,62,61,62,61,62,61,62,61,62,61,62,61,62,61,62,61,62,61,62,61,62,61,62,61,62,61,62,70,71,21,158,159,156,157,158,157,6,59,60,61,62,72,73,74,75,76,62,61,62,61,62,61,62,61,62,61,62,61,62,61,62,61,62,61,62,61,62,61,62,61,62,61,62,61,62,61,62,61,62,61,62,40,41,18,3,4,3,4,3,4,3,4,3,4,3,4,3,4,3,4,3,4,3,4,3,4,3,4,3,4,3,4,3,4,3,4,3,4,3,4,3,4,3,4,3,4,3,4,3,4,3,4,20,16,115,65,17,16,26,5,3,4,3,4,3,4,3,4,3,4,3,4,3,4,3,4,3,4,3,4,3,4,3,4,3,4,3,4,3,4,15,36,37,61,62,61,62,61,62,65,17,55,57,3,4,3,4,3,4,3,4,3,4,3,4,3,4,3,4,3,4,3,4,3,4,34,28,16,17,16,17,16,17,16,26,24,25,22,23,24,25,22,23,24,25,22,23,5,3,4,3,4,3,4,3,4,3,4,3,4,3,4,3,4,3,4,3,4,3,4,3,4,3,4,3,4,3,4,3,4,3,4,3,4,3,4,3,4,3,19,12,16,115,63,64,65,17,211,209,16,17,116,106,107,106,107,120,18,127,3,4,3,4,3,4,3,4,3,4,3,4,3,4,3,4,3,4,3,4,3,4,3,4,3,4,3,4,3,4,3,4,3,4,3,4,3,4,3,4,3,4,3,4,3,4,3,4,3,4,3,4,3,4,3,4,3,4,3,4,3,4,3,4,3,4,3,4,3,4,
1,2,1,2,1,2,1,2,1,2,1,2,1,2,1,2,1,2,1,2,1,2,1,2,1,2,1,2,1,2,1,2,1,2,1,2,1,2,1,2,1,2,1,2,1,2,1,2,1,2,1,2,1,2,1,2,1,2,1,2,1,2,1,2,1,2,1,2,1,2,1,2,1,2,1,2,1,2,1,2,1,2,1,2,1,2,1,2,1,2,1,2,1,2,1,2,1,2,1,2,1,2,1,2,1,2,1,2,1,2,1,2,1,2,1,2,1,2,1,2,1,2,1,2,1,2,1,2,1,2,1,2,1,2,1,2,1,2,1,2,1,6,12,30,48,49,48,49,48,49,48,49,48,49,48,49,48,49,48,49,48,49,48,49,48,49,48,49,48,49,48,49,48,49,48,49,48,49,48,49,48,49,33,13,167,168,12,30,31,32,48,49,77,78,79,80,81,82,83,49,48,49,48,49,48,49,48,49,48,49,48,49,48,49,48,49,48,49,48,49,48,49,48,49,48,49,48,49,48,49,48,49,50,51,52,53,7,2,1,2,1,2,1,2,1,2,1,2,1,2,1,2,1,2,1,2,1,2,1,2,1,2,1,2,1,2,1,2,1,2,1,2,1,2,1,2,1,2,1,2,1,2,1,2,1,27,28,29,12,13,12,13,7,2,1,2,1,2,1,2,1,2,1,2,1,2,1,2,1,2,1,2,1,2,1,2,1,2,1,2,1,2,1,6,46,47,48,49,48,49,52,53,54,55,56,2,1,2,1,2,1,2,1,2,1,2,1,2,1,2,1,2,1,2,1,2,1,2,1,19,12,13,12,183,186,13,12,13,12,13,12,13,12,13,12,13,12,13,54,55,56,2,1,2,1,2,1,2,1,2,1,2,1,2,1,2,1,2,1,2,1,2,1,2,1,2,1,2,1,2,1,2,1,2,1,2,1,2,1,2,1,2,58,42,28,13,12,12,12,13,12,13,12,13,122,114,111,114,111,121,14,2,125,2,1,2,1,2,125,2,1,2,1,2,1,2,1,2,1,2,1,2,1,2,1,2,1,2,1,2,1,2,1,2,1,2,1,2,1,2,1,2,1,2,1,2,1,2,1,2,1,2,1,2,1,2,1,2,1,2,1,2,1,2,1,2,1,2,1,2,1,2,
3,4,3,4,3,4,3,4,3,4,3,4,3,4,3,4,3,4,3,4,3,4,3,4,3,4,3,4,3,4,3,4,3,4,3,4,3,4,3,4,3,4,3,4,3,4,3,4,3,4,3,4,3,4,3,4,3,4,3,4,3,4,3,4,3,4,3,4,3,4,3,4,3,4,3,4,3,4,3,4,3,4,3,4,3,4,3,4,3,4,3,4,3,4,3,4,3,4,3,4,3,4,3,4,3,4,3,4,3,4,3,4,3,4,3,4,3,4,3,4,3,4,3,4,3,4,3,4,3,4,3,4,3,4,3,4,3,4,3,4,8,9,36,37,61,62,61,62,61,62,61,62,61,62,61,62,61,62,61,62,61,62,61,62,61,62,61,62,61,62,61,62,61,62,61,62,61,62,61,62,61,62,40,41,155,160,36,37,38,39,61,62,84,85,86,87,88,89,90,62,61,62,61,62,61,62,61,62,61,62,61,62,61,62,61,62,61,62,61,62,61,62,72,73,74,75,76,62,61,62,61,62,63,64,65,17,10,3,4,3,4,3,4,3,4,3,4,3,4,3,4,3,4,3,4,3,4,3,4,3,4,3,4,3,4,3,4,3,4,3,4,3,4,3,4,3,4,3,4,3,4,3,4,3,4,3,34,28,16,17,16,17,10,3,4,3,4,3,4,3,4,3,4,3,4,3,4,3,4,3,4,3,4,3,4,3,4,3,4,3,4,4,8,9,59,60,61,62,61,62,65,17,55,57,3,4,3,4,3,4,3,4,3,4,3,4,3,4,3,4,3,4,3,4,3,4,3,4,3,20,35,17,187,188,190,191,16,17,16,17,16,17,16,17,16,17,17,35,55,57,3,4,3,4,3,4,3,4,3,4,3,4,3,4,3,4,3,4,3,4,3,4,3,4,3,4,3,4,3,4,3,4,3,4,3,4,3,4,3,4,3,4,3,4,34,28,35,13,13,17,12,13,12,13,16,124,118,119,123,17,26,127,126,127,3,4,3,4,126,127,3,4,3,4,3,4,3,4,3,4,3,4,3,4,3,4,3,4,3,4,3,4,3,4,3,4,3,4,22,23,5,3,4,3,4,3,4,3,4,3,4,3,4,3,4,3,4,3,4,3,4,3,4,3,4,3,4,3,4,3,4,3,
1,2,1,2,1,2,1,2,1,2,1,2,1,2,1,2,1,2,1,2,1,2,1,2,1,2,1,2,1,2,1,2,1,2,1,2,1,2,1,2,1,2,1,2,1,2,1,2,1,2,1,2,1,2,1,2,1,2,1,2,1,2,1,2,1,2,1,2,1,2,1,2,1,2,1,2,1,2,1,2,1,2,1,2,1,2,1,2,1,2,1,2,1,2,1,2,1,2,1,2,1,2,1,2,1,2,1,2,1,2,1,2,1,2,1,2,1,2,1,2,1,2,1,2,1,2,1,2,1,2,1,2,1,2,1,2,1,2,1,6,12,30,48,49,48,49,48,49,48,49,48,49,48,49,48,49,48,49,50,51,50,51,142,143,50,51,50,51,48,49,48,49,48,49,48,49,48,49,48,49,48,49,66,67,167,168,46,47,48,49,48,49,91,92,93,94,95,96,48,49,48,49,48,49,48,49,48,49,48,49,48,49,48,49,48,49,48,49,48,49,77,78,79,80,81,82,83,49,48,49,52,53,12,13,12,13,14,2,1,2,1,2,1,2,1,2,1,2,1,2,1,2,1,2,1,2,1,2,1,2,1,2,1,2,1,2,1,2,1,2,1,2,1,2,1,2,1,2,1,2,1,2,1,2,1,2,1,11,12,13,12,13,14,2,1,2,1,2,1,2,1,2,1,2,1,2,1,2,1,2,1,2,1,2,1,2,1,2,1,2,1,6,12,30,48,49,50,51,52,53,54,55,56,2,1,2,1,2,1,2,1,2,1,2,1,2,1,2,1,2,1,2,1,2,1,2,1,2,1,27,28,29,201,202,195,13,54,55,42,43,44,45,68,69,68,69,44,45,56,2,1,2,1,2,1,2,1,2,1,2,1,2,1,2,1,2,1,2,1,2,1,2,1,2,1,2,1,2,1,2,1,2,1,2,1,2,1,2,1,2,1,2,1,2,1,27,28,35,13,13,16,13,16,16,16,30,31,32,33,13,13,26,125,2,125,2,1,2,1,2,1,2,1,2,1,2,1,2,1,2,1,2,1,2,1,2,1,2,1,2,1,2,1,2,1,2,1,6,12,13,21,2,1,2,1,2,1,2,1,2,1,2,1,2,1,2,1,2,1,2,1,2,1,2,1,2,1,2,1,2,1,2,
3,4,3,4,3,4,3,4,3,4,3,4,3,4,3,4,3,4,3,4,3,4,3,4,3,4,3,4,3,4,3,4,3,4,3,4,3,4,3,4,3,4,3,4,3,4,3,4,3,4,3,4,3,4,3,4,3,4,3,4,3,4,3,4,3,4,3,4,3,4,3,4,3,4,3,4,3,4,3,4,3,4,3,4,3,4,3,4,3,4,3,4,3,4,3,4,3,4,3,4,3,4,3,4,3,4,3,4,3,4,3,4,3,4,3,4,3,4,3,4,3,4,3,4,3,4,3,4,3,4,3,4,3,4,24,25,22,23,8,9,36,37,61,62,61,62,61,62,61,62,61,62,61,62,61,62,61,62,63,64,63,64,144,145,63,64,63,64,61,62,61,62,61,62,61,62,61,62,61,62,61,62,70,71,155,160,59,60,61,62,61,62,61,62,97,98,99,100,61,62,61,62,61,62,61,62,61,62,61,62,61,62,61,62,61,62,61,62,61,62,84,85,86,87,88,89,90,62,61,62,65,17,16,17,16,17,18,3,4,3,4,3,4,3,4,3,4,3,4,3,4,3,4,3,4,3,4,3,4,3,4,3,4,3,4,3,4,3,4,3,4,3,4,3,4,3,4,3,4,3,4,3,4,3,4,3,4,15,16,17,17,35,18,3,4,3,4,3,4,3,4,3,4,3,4,3,4,3,4,3,4,3,4,3,4,3,4,3,4,4,8,9,36,37,61,62,63,64,65,17,55,57,3,4,3,4,3,4,3,4,3,4,3,4,3,4,3,4,3,4,3,4,3,4,3,4,3,4,3,4,34,28,16,203,16,17,55,57,3,57,58,57,3,4,3,4,58,57,3,4,3,4,3,4,3,4,3,4,3,4,3,4,3,4,3,4,3,4,3,4,3,4,3,4,3,4,3,4,3,4,3,4,3,4,3,4,3,4,3,4,3,4,3,4,3,4,34,28,35,13,12,13,12,13,36,37,38,39,40,41,13,13,26,5,126,127,3,4,3,4,3,4,3,4,3,4,3,4,3,4,3,4,3,4,3,4,3,4,3,4,3,4,3,4,3,4,8,9,16,17,16,26,5,3,4,3,4,3,4,3,4,3,4,3,4,3,4,3,4,3,4,3,4,3,4,3,4,3,4,3,4,3,
1,2,1,2,1,2,1,2,1,2,1,2,1,2,1,2,1,2,1,2,1,2,1,2,1,2,1,2,1,2,1,2,1,2,1,2,1,2,1,2,1,2,1,2,1,2,1,2,1,2,1,2,1,2,1,2,1,2,1,2,1,2,1,2,1,2,1,2,1,2,1,2,1,2,1,2,1,2,1,2,1,2,1,2,1,2,1,2,1,2,1,2,1,2,1,2,1,2,1,2,1,2,1,2,1,2,1,2,1,2,1,2,1,2,1,2,1,2,1,2,1,2,1,2,1,2,1,2,1,2,1,2,1,6,12,30,31,32,31,32,48,49,48,49,48,49,48,49,48,49,48,49,48,49,48,49,52,53,12,13,12,13,12,183,184,185,186,13,109,110,48,49,48,49,48,49,48,49,48,49,48,49,66,67,167,168,46,47,48,49,48,49,48,49,91,92,101,102,48,49,48,49,48,49,48,49,48,49,48,49,48,49,48,49,48,49,48,49,48,49,91,92,93,94,95,96,48,49,66,67,12,13,12,13,12,13,7,2,1,2,1,2,1,2,1,2,1,2,1,2,1,2,1,2,1,2,1,2,1,2,1,2,1,2,1,2,1,2,1,2,1,2,1,2,1,2,1,2,1,2,1,2,1,2,1,2,1,19,12,13,54,55,56,2,1,2,1,2,1,2,1,2,1,2,1,2,1,2,1,2,1,2,1,2,1,2,1,2,1,6,12,13,109,110,52,53,54,55,44,45,56,2,1,2,1,2,1,2,1,2,1,2,1,2,1,2,1,2,1,2,1,2,1,2,1,2,1,2,1,2,1,27,42,43,44,45,56,2,1,2,1,2,1,2,1,2,1,2,1,2,1,2,1,2,1,2,1,2,1,2,1,2,1,2,1,2,1,2,1,2,1,2,1,2,1,2,1,2,1,2,1,2,1,2,1,2,1,2,1,2,1,2,1,2,1,2,1,27,42,35,16,13,16,13,109,110,142,143,52,53,13,13,55,56,1,2,1,2,1,2,125,2,1,2,125,2,1,2,1,2,1,2,1,2,1,2,1,2,1,2,1,2,1,2,1,27,28,29,12,13,12,13,14,2,1,2,1,2,1,2,1,2,1,2,1,2,1,2,1,2,1,2,1,2,1,2,1,2,1,2,1,2,
3,4,3,4,3,4,3,4,3,4,3,4,3,4,3,4,3,4,3,4,3,4,3,4,3,4,3,4,3,4,3,4,3,4,3,4,3,4,3,4,3,4,3,4,3,4,3,4,3,4,3,4,3,4,3,4,3,4,3,4,3,4,3,4,3,4,3,4,3,4,3,4,3,4,3,4,3,4,3,4,3,4,3,4,3,4,3,4,3,4,3,4,3,4,3,4,3,4,3,4,3,4,3,4,3,4,3,4,3,4,3,4,3,4,3,4,3,4,3,4,3,4,3,4,3,4,3,4,3,4,3,4,8,9,36,37,38,39,38,39,61,62,61,62,61,62,61,62,61,62,61,62,61,62,61,62,65,17,16,17,16,17,187,188,189,189,190,191,16,115,61,62,61,62,61,62,61,62,61,62,61,62,70,71,155,160,59,60,61,62,61,62,61,62,61,62,61,62,61,62,61,62,61,62,61,62,61,62,61,62,61,62,61,62,61,62,61,62,61,62,61,62,97,98,99,100,61,62,70,71,16,17,16,17,16,17,10,3,4,3,4,3,4,3,4,3,4,3,4,3,4,3,4,3,4,3,4,3,4,3,4,3,4,3,4,3,4,3,4,3,4,3,4,3,4,3,4,3,4,3,4,3,4,3,4,3,4,20,16,17,55,57,3,4,3,4,3,4,3,4,3,4,3,4,3,4,3,4,3,4,3,4,3,4,3,4,3,4,8,9,16,17,16,115,65,17,55,57,58,57,3,4,3,4,3,4,3,4,3,4,3,4,3,4,3,4,3,4,3,4,3,4,3,4,3,4,3,4,3,4,3,4,3,57,58,57,3,4,3,4,3,4,3,4,3,4,3,4,3,4,3,4,3,4,3,4,3,4,3,4,3,4,3,4,3,4,3,4,3,4,3,4,3,4,3,4,3,4,3,4,3,4,3,4,3,4,3,4,3,4,3,4,3,4,3,4,3,4,3,28,35,13,13,16,16,115,144,145,65,17,13,55,56,127,3,4,3,4,3,4,126,127,3,4,126,127,3,4,3,4,3,4,3,4,3,4,3,4,3,4,3,4,3,4,3,4,34,28,16,17,16,17,18,3,4,3,4,3,4,3,4,3,4,3,4,3,4,3,4,3,4,3,4,3,4,3,4,3,4,3,4,3,
1,2,1,2,1,2,1,2,1,2,1,2,1,2,1,2,1,2,1,2,1,2,1,2,1,2,1,2,1,2,1,2,1,2,1,2,1,2,1,2,1,2,1,2,1,2,1,2,1,2,1,2,1,2,1,2,1,2,1,2,1,2,1,2,1,2,1,2,1,2,1,2,1,2,1,2,1,2,1,2,1,2,1,2,1,2,1,2,1,2,1,2,1,2,1,2,1,2,1,2,1,2,1,2,1,2,1,2,1,2,1,2,1,2,1,2,1,2,1,2,1,2,1,2,1,2,1,2,1,2,1,19,12,13,46,47,48,49,48,49,48,49,48,49,48,49,48,49,48,49,48,49,48,49,66,67,12,13,12,183,184,185,192,189,189,189,189,193,12,30,48,49,48,49,48,49,48,49,48,49,48,49,52,53,167,168,46,47,48,49,48,49,48,49,48,49,48,49,48,49,48,49,48,49,48,49,48,49,48,49,48,49,48,49,48,49,48,49,48,49,48,49,91,92,101,102,48,49,66,67,12,13,12,13,12,13,14,2,1,2,1,2,1,2,1,2,1,2,1,2,1,2,1,2,1,2,1,2,1,2,1,2,1,2,1,2,1,2,1,2,1,2,1,2,1,2,1,2,1,2,1,2,1,2,1,2,1,11,54,55,56,2,1,2,1,2,1,2,1,2,1,2,1,2,1,2,1,2,1,2,1,2,1,2,1,2,1,6,12,13,12,13,12,13,54,55,56,2,1,2,1,2,1,2,1,2,1,2,1,2,1,2,1,2,1,2,1,2,1,2,1,2,1,2,1,2,1,2,1,2,1,2,1,2,1,2,1,2,1,2,1,2,1,2,1,2,1,2,1,2,1,2,1,2,1,2,1,2,1,2,1,2,1,2,1,2,1,2,1,2,1,2,1,2,1,2,1,2,1,2,1,2,1,2,1,2,1,2,1,2,1,2,1,2,1,2,1,2,125,2,28,35,13,13,13,13,13,13,13,13,55,56,125,2,1,2,1,2,1,2,1,2,1,2,1,2,1,2,125,2,1,2,1,2,1,2,1,2,1,2,1,2,1,2,1,2,1,19,12,13,12,13,7,2,1,2,1,2,1,2,1,2,1,2,1,2,1,2,1,2,1,2,1,2,1,2,1,2,1,2,1,2,
3,4,3,4,3,4,3,4,3,4,3,4,3,4,3,4,3,4,3,4,3,4,3,4,3,4,3,4,3,4,3,4,3,4,3,4,3,4,3,4,3,4,3,4,3,4,3,4,3,4,3,4,3,4,3,4,3,4,3,4,3,4,3,4,3,4,3,4,3,4,3,4,3,4,3,4,3,4,3,4,3,4,3,4,3,4,3,4,3,4,3,4,3,4,3,4,3,4,3,4,3,4,3,4,3,4,3,4,3,4,3,4,3,4,3,4,3,4,3,4,3,4,3,4,3,4,3,4,3,4,3,20,16,17,59,60,61,62,61,62,61,62,61,62,61,62,61,62,61,62,61,62,61,62,70,71,16,17,187,188,189,189,189,189,189,189,189,194,36,37,61,62,61,62,61,62,61,62,61,62,61,62,65,17,155,160,59,60,61,62,61,62,61,62,61,62,61,62,61,62,61,62,61,62,61,62,61,62,61,62,61,62,61,62,61,62,61,62,61,62,61,62,61,62,61,62,61,62,70,71,16,17,16,17,16,17,18,3,4,3,4,3,4,3,4,3,4,3,4,3,4,3,4,3,4,3,4,3,4,3,4,3,4,3,4,3,4,3,4,3,4,3,4,3,4,3,4,3,4,3,4,3,4,3,4,3,4,15,55,57,3,4,3,4,3,4,3,4,3,4,3,4,3,4,5,3,4,3,4,3,4,3,4,3,4,4,8,9,16,17,16,17,16,17,55,57,3,4,3,4,3,4,3,4,3,4,3,4,3,4,3,4,3,4,3,4,3,4,3,4,3,4,3,4,3,4,3,4,3,4,3,4,3,4,3,4,3,4,3,4,3,4,3,4,3,4,3,4,3,4,3,4,3,4,3,4,3,4,3,4,3,4,3,4,3,4,3,4,3,4,3,4,3,4,3,4,3,4,3,4,3,4,3,4,3,4,3,4,3,4,3,4,3,4,3,4,3,4,126,127,126,28,13,13,13,13,13,13,13,55,56,127,126,127,3,4,4,2,4,2,4,2,4,3,4,3,4,3,126,127,3,4,3,4,5,3,4,3,4,3,4,3,4,3,4,3,4,20,16,17,17,35,10,3,4,3,4,3,4,3,4,3,4,3,4,3,4,3,4,3,4,3,4,3,4,3,4,3,4,3,4,3,
1,2,1,2,1,2,1,2,1,2,1,2,1,2,1,2,1,2,1,2,1,2,1,2,1,2,1,2,1,2,1,2,1,2,1,2,1,2,1,2,1,2,1,2,1,2,1,2,1,2,1,2,1,2,1,2,1,2,1,2,1,2,1,2,1,2,1,2,1,2,1,2,1,2,1,2,1,2,1,2,1,2,1,2,1,2,1,2,1,2,1,2,1,2,1,2,1,2,1,2,1,2,1,2,1,2,1,2,1,2,1,2,1,2,1,2,1,2,1,2,1,2,1,2,1,2,1,2,1,2,1,11,12,13,46,47,48,49,48,49,48,49,48,49,48,49,48,49,48,49,48,49,48,49,66,67,12,183,192,189,189,189,189,189,189,189,189,193,46,47,48,49,48,49,48,49,48,49,48,49,52,53,55,150,181,168,109,110,48,49,48,49,48,49,48,49,48,49,48,49,48,49,48,49,48,49,48,49,48,49,48,49,48,49,48,49,48,49,48,49,48,49,48,49,48,49,48,49,66,67,12,13,12,13,12,13,7,2,1,2,1,2,1,2,1,2,1,2,1,2,1,2,1,2,1,2,1,2,1,2,1,2,1,2,1,2,1,2,1,2,1,2,1,2,1,2,1,2,1,2,1,2,1,2,1,2,1,27,56,2,1,2,1,2,1,2,1,2,1,2,1,2,1,19,21,2,1,2,1,2,1,2,1,2,1,6,12,13,12,13,54,55,44,45,56,2,1,2,1,2,1,2,1,2,1,2,1,2,1,2,1,2,1,2,1,2,1,2,1,2,1,2,1,2,1,2,1,2,1,2,1,2,1,2,1,2,1,2,1,2,1,2,1,2,1,2,1,2,1,2,1,2,1,2,1,2,1,2,1,2,1,2,1,2,1,2,1,2,1,2,1,2,1,2,1,2,1,2,1,2,1,2,1,2,1,2,1,2,1,2,1,2,1,2,1,2,1,2,1,2,125,2,44,45,42,44,45,68,45,56,125,2,1,2,1,2,1,2,1,2,1,2,1,2,1,2,125,2,1,2,1,2,1,6,21,2,1,2,1,2,1,2,1,2,1,2,1,27,28,29,54,55,56,2,1,2,1,2,1,2,1,2,1,2,1,2,1,2,1,2,1,2,1,2,1,2,1,2,1,2,1,2,
3,4,3,4,3,4,3,4,3,4,3,4,3,4,3,4,3,4,3,4,3,4,3,4,3,4,3,4,3,4,3,4,3,4,3,4,3,4,3,4,3,4,3,4,3,4,3,4,3,4,3,4,3,4,3,4,3,4,3,4,3,4,3,4,3,4,3,4,3,4,3,4,3,4,3,4,3,4,3,4,3,4,3,4,3,4,3,4,3,4,3,4,3,4,3,4,3,4,3,4,3,4,3,4,3,4,3,4,3,4,3,4,3,4,3,4,3,4,3,4,3,4,3,4,3,4,3,4,3,4,3,15,16,17,59,60,61,62,61,62,61,62,61,62,61,62,61,62,61,62,61,62,61,62,70,71,187,188,189,189,189,189,189,189,189,189,189,194,59,60,61,62,61,62,61,62,61,62,61,62,65,17,155,159,159,160,16,115,61,62,61,62,61,62,61,62,61,62,61,62,61,62,61,62,61,62,61,62,61,62,61,62,72,73,74,75,76,62,61,62,61,62,61,62,61,62,61,62,70,71,16,17,16,17,16,17,10,3,4,3,4,3,4,3,4,3,4,3,4,3,4,3,4,3,4,3,4,3,4,3,4,3,4,3,4,3,4,3,4,3,4,3,4,3,4,3,4,3,4,3,4,3,4,3,4,3,4,3,4,3,4,3,4,3,4,3,4,3,4,3,4,3,4,20,16,26,5,3,4,3,4,3,4,4,8,9,16,17,17,35,55,57,58,57,3,4,3,4,3,4,3,4,3,4,3,4,3,4,3,4,3,4,3,4,3,4,3,4,3,4,3,4,3,4,3,4,3,4,3,4,3,4,3,4,3,4,3,4,3,4,3,4,3,4,3,4,3,4,3,4,3,4,3,4,3,4,3,4,3,4,3,4,3,4,3,4,3,4,3,4,3,4,3,4,3,4,3,4,3,4,3,4,3,4,3,4,3,4,3,4,3,4,3,4,3,4,3,4,3,4,126,127,58,57,126,58,57,127,126,127,126,127,3,4,3,4,3,4,3,4,3,4,3,4,4,3,126,127,3,4,3,4,8,9,16,26,22,23,24,25,22,23,24,25,5,3,4,3,34,28,55,57,3,4,3,4,3,4,3,4,3,4,3,4,3,4,3,4,3,4,3,4,3,4,3,4,3,4,3,4,3,4,
1,2,1,2,1,2,1,2,1,2,1,2,1,2,1,2,1,2,1,2,1,2,1,2,1,2,1,2,1,2,1,2,1,2,1,2,1,2,1,2,1,2,1,2,1,2,1,2,1,2,1,2,1,2,1,2,1,2,1,2,1,2,1,2,1,2,1,2,1,2,1,2,1,2,1,2,1,2,1,2,1,2,1,2,1,2,1,2,1,2,1,2,1,2,1,2,1,2,1,2,1,2,1,2,1,2,1,2,1,2,1,2,1,2,1,2,1,2,1,2,1,2,1,2,1,2,1,2,1,2,1,19,12,13,46,47,48,49,48,49,48,49,48,49,48,49,48,49,48,49,48,49,48,49,52,53,199,189,189,189,189,189,189,189,189,189,195,13,46,47,48,49,48,49,48,49,48,49,66,67,55,150,181,159,159,159,151,28,46,47,48,49,48,49,48,49,48,49,48,49,48,49,48,49,48,49,48,49,48,49,77,78,79,80,81,82,83,49,48,49,48,49,48,49,48,49,48,49,66,67,12,13,12,13,12,13,21,2,1,2,1,2,1,2,1,2,1,2,1,2,1,2,1,2,1,2,1,2,1,2,1,2,1,2,1,2,1,2,1,2,1,2,1,2,1,2,1,2,1,2,1,2,1,2,1,2,1,2,1,2,1,2,1,2,1,2,1,2,1,2,1,2,1,11,12,13,21,2,1,2,1,2,1,6,12,13,12,13,54,55,56,2,1,2,1,2,1,2,1,2,1,2,1,2,1,2,1,2,1,2,1,2,1,2,1,2,1,2,1,2,1,2,1,2,1,2,1,2,1,2,1,2,1,2,1,2,1,2,1,2,1,2,1,2,1,2,1,2,1,2,1,2,1,2,1,2,1,2,1,2,1,2,1,2,1,2,1,2,1,2,1,2,1,2,1,2,1,2,1,2,1,2,1,2,1,2,1,2,1,2,1,2,1,2,1,2,1,2,1,2,1,2,1,2,1,2,1,2,125,2,125,2,125,2,125,2,1,2,1,2,1,2,1,2,1,2,1,2,1,2,1,6,12,13,12,13,12,13,12,13,12,13,12,13,21,2,1,2,1,27,56,2,1,2,1,2,1,2,1,2,1,2,1,2,1,2,1,2,1,2,1,2,1,2,1,2,1,2,1,2,1,2,
3,4,3,4,3,4,3,4,3,4,3,4,3,4,3,4,3,4,3,4,3,4,3,4,3,4,3,4,3,4,3,4,3,4,3,4,3,4,3,4,3,4,3,4,3,4,3,4,3,4,3,4,3,4,3,4,3,4,3,4,3,4,3,4,3,4,3,4,3,4,3,4,3,4,3,4,3,4,3,4,3,4,3,4,3,4,3,4,3,4,3,4,3,4,3,4,3,4,3,4,3,4,3,4,3,4,3,4,3,4,3,4,3,4,3,4,3,4,3,4,3,4,3,4,3,4,3,4,3,4,3,20,16,17,59,60,61,62,61,62,61,62,61,62,61,62,61,62,61,62,61,62,61,62,65,17,200,189,189,189,189,196,197,198,197,198,16,17,59,60,61,62,61,62,61,62,61,62,70,71,155,159,159,159,159,159,159,160,59,60,61,62,61,62,61,62,61,62,61,62,61,62,61,62,61,62,61,62,61,62,84,85,86,87,88,89,90,62,61,62,61,62,61,62,61,62,61,62,70,71,16,17,16,17,16,17,16,26,5,3,4,3,4,3,4,3,4,3,4,3,4,3,4,3,4,3,4,3,4,3,4,3,4,3,4,3,4,3,4,3,4,3,4,3,4,3,4,3,4,3,4,3,4,3,4,3,4,3,4,3,4,3,4,3,4,3,4,3,4,3,4,3,4,15,35,17,16,26,24,25,22,23,8,9,16,17,16,17,55,57,3,4,3,4,3,4,3,4,3,4,3,4,3,4,3,4,3,4,3,4,3,4,3,4,3,4,3,4,3,4,3,4,3,4,3,4,3,4,3,4,3,4,3,4,3,4,3,4,3,4,3,4,3,4,3,4,3,4,3,4,3,4,3,4,3,4,3,4,3,4,3,4,3,4,3,4,3,4,3,4,3,4,3,4,3,4,3,4,3,4,3,4,3,4,3,4,3,4,3,4,3,4,3,4,3,4,3,4,3,4,3,4,3,4,3,4,3,4,126,127,126,127,126,127,126,4,3,4,3,4,3,4,3,3,4,3,4,4,24,25,8,9,16,17,16,17,16,17,16,17,16,17,16,17,16,26,5,3,4,3,4,3,4,3,4,3,4,3,4,3,4,3,4,3,4,3,4,3,4,3,4,3,4,3,4,3,4,3,4,3,4,3,
1,2,1,2,1,2,1,2,1,2,1,2,1,2,1,2,1,2,1,2,1,2,1,2,1,2,1,2,1,2,1,2,1,2,1,2,1,2,1,2,1,2,1,2,1,2,1,2,1,2,1,2,1,2,1,2,1,2,1,2,1,2,1,2,1,2,1,2,1,2,1,2,1,2,1,2,1,2,1,2,1,2,1,2,1,2,1,2,1,2,1,2,1,2,1,2,1,2,1,2,1,2,1,2,1,2,1,2,1,2,1,2,1,2,1,2,1,2,1,2,1,2,1,2,1,2,1,2,1,2,1,6,12,30,48,49,48,49,48,49,48,49,48,49,48,49,48,49,48,49,48,49,52,53,12,13,201,202,189,189,195,13,12,30,31,32,31,32,48,49,48,49,48,49,48,49,48,49,66,67,167,159,159,159,159,159,159,168,46,47,48,49,48,49,48,49,48,49,48,49,48,49,48,49,48,49,48,49,48,49,91,92,93,94,95,96,48,49,48,49,48,49,48,49,48,49,48,49,48,49,33,13,12,13,12,13,12,13,14,2,1,2,1,2,1,2,1,2,1,2,1,2,1,2,1,2,1,2,1,2,1,2,1,2,1,2,1,2,1,2,1,2,1,2,1,2,1,2,1,2,1,2,1,2,1,2,1,2,1,2,1,2,1,2,1,2,1,2,1,2,1,2,1,27,28,29,12,13,12,13,12,13,12,13,12,13,54,55,56,2,1,2,1,2,1,2,1,2,1,2,1,2,1,2,1,2,1,2,1,2,1,2,1,2,1,2,1,2,1,2,1,2,1,2,1,2,1,2,1,2,1,2,1,2,1,2,1,2,1,2,1,2,1,2,1,2,1,2,1,2,1,2,1,2,1,2,1,2,1,2,1,2,1,2,1,2,1,2,1,2,1,2,1,2,1,2,1,2,1,2,1,2,1,2,1,2,1,2,1,2,1,2,1,2,1,2,1,2,1,2,1,2,1,2,125,2,1,2,1,2,125,2,125,2,1,2,1,2,1,2,1,2,1,2,1,2,1,6,12,103,111,112,104,13,12,13,54,55,42,43,44,45,68,69,44,45,56,2,1,2,1,2,1,2,1,2,1,2,1,2,1,2,1,2,1,2,1,2,1,2,1,2,1,2,1,2,1,2,1,2,1,2,
3,4,3,4,3,4,3,4,3,4,3,4,3,4,3,4,3,4,3,4,3,4,3,4,3,4,3,4,3,4,3,4,3,4,3,4,3,4,3,4,3,4,3,4,3,4,3,4,3,4,3,4,3,4,3,4,3,4,3,4,3,4,3,4,3,4,3,4,3,4,3,4,3,4,3,4,3,4,3,4,3,4,3,4,3,4,3,4,3,4,3,4,3,4,3,4,3,4,3,4,3,4,3,4,3,4,3,4,3,4,3,4,3,4,3,4,3,4,3,4,3,4,3,4,3,4,3,4,3,4,8,9,36,37,61,62,61,62,61,62,61,62,61,62,61,62,61,62,61,62,61,62,65,17,16,17,16,203,197,198,16,17,36,37,38,39,38,39,61,62,61,62,61,62,61,62,61,62,70,71,155,159,159,159,159,159,159,160,59,60,61,62,61,62,61,62,61,62,61,62,61,62,61,62,61,62,61,62,61,62,61,62,97,98,99,100,61,62,61,62,61,62,61,62,61,62,61,62,61,62,40,41,16,17,16,17,16,17,18,3,4,3,4,3,4,3,4,3,4,3,4,3,4,3,4,3,4,3,4,3,4,3,4,3,4,3,4,3,4,3,4,3,4,3,4,3,4,3,4,3,4,3,4,3,4,3,4,3,4,3,4,3,4,3,4,3,4,3,4,3,4,3,4,3,34,28,16,17,16,17,16,17,16,17,17,35,55,57,3,4,3,4,3,4,3,4,3,4,3,4,3,4,3,4,3,4,3,4,3,4,3,4,3,4,3,4,3,4,3,4,3,4,3,4,3,4,3,4,3,4,3,4,3,4,3,4,3,4,3,4,3,4,3,4,3,4,3,4,3,4,3,4,3,4,3,4,3,4,3,4,3,4,3,4,3,4,3,4,3,4,3,4,3,4,3,4,3,4,3,4,3,4,3,4,3,4,3,4,3,4,3,4,3,4,3,4,3,4,3,4,3,4,3,4,126,127,3,4,3,4,126,127,126,127,3,4,3,4,3,4,3,4,3,4,3,4,8,9,105,106,107,106,107,108,16,17,55,57,3,57,58,57,3,4,58,57,3,4,3,4,3,4,3,4,3,4,3,4,3,4,3,4,3,4,3,4,3,4,3,4,3,4,3,4,3,4,3,4,3,4,3,4,
1,2,1,2,1,2,1,2,1,2,1,2,1,2,1,2,1,2,1,2,1,2,1,2,1,2,1,2,1,2,1,2,1,2,1,2,1,2,1,2,1,2,1,2,1,2,1,2,1,2,1,2,1,2,1,2,1,2,1,2,1,2,1,2,1,2,1,2,1,2,1,2,1,2,1,2,1,2,1,2,1,2,1,2,1,2,1,2,1,2,1,2,1,2,1,2,1,2,1,2,1,2,1,2,1,2,1,2,1,2,1,2,1,2,1,2,1,2,1,2,1,2,1,2,1,2,1,2,1,6,12,30,48,49,48,49,48,49,48,49,48,49,48,49,48,49,48,49,48,49,66,67,12,13,12,13,12,13,12,30,31,32,48,49,48,49,48,49,48,49,48,49,48,49,48,49,48,49,66,67,205,206,205,206,205,206,205,206,46,47,48,49,48,49,48,49,48,49,48,49,48,49,48,49,48,49,48,49,48,49,48,49,91,92,101,102,48,49,48,49,48,49,48,49,48,49,48,49,48,49,48,49,33,13,12,13,12,13,21,2,1,2,1,2,1,2,1,2,1,2,1,2,1,2,1,2,1,2,1,2,1,2,1,2,1,2,1,2,1,2,1,2,1,2,1,2,1,2,1,2,1,2,1,2,1,2,1,2,1,2,1,2,1,2,1,2,1,2,1,2,1,2,1,2,1,27,28,29,12,13,54,55,42,43,44,45,56,2,1,2,1,2,1,2,1,2,1,2,1,2,1,2,1,2,1,2,1,2,1,2,1,2,1,2,1,2,1,2,1,2,1,2,1,2,1,2,1,2,1,2,1,2,1,2,1,2,1,2,1,2,1,2,1,2,1,2,1,2,1,2,1,2,1,2,1,2,1,2,1,2,1,2,1,2,1,2,1,2,1,2,1,2,1,2,1,2,1,2,1,2,1,2,1,2,1,2,1,2,1,2,1,2,1,2,1,2,1,2,1,2,1,2,1,2,1,2,1,2,1,2,1,2,125,2,1,2,125,2,1,2,1,2,1,2,1,6,12,103,113,114,111,114,111,121,12,13,7,2,1,2,1,2,1,2,1,2,1,2,1,2,1,2,1,2,1,2,1,2,1,2,1,2,1,2,1,2,1,2,1,2,1,2,1,2,1,2,1,2,1,2,1,2,
3,4,3,4,3,4,3,4,3,4,3,4,3,4,3,4,3,4,3,4,3,4,3,4,3,4,3,4,3,4,3,4,3,4,3,4,3,4,3,4,3,4,3,4,3,4,3,4,3,4,3,4,3,4,3,4,3,4,3,4,3,4,3,4,3,4,3,4,3,4,3,4,3,4,3,4,3,4,3,4,3,4,3,4,3,4,3,4,3,4,3,4,3,4,3,4,3,4,3,4,3,4,3,4,3,4,3,4,3,4,3,4,3,4,3,4,3,4,3,4,3,4,3,4,3,4,3,4,8,9,36,37,61,62,61,62,61,62,61,62,61,62,61,62,61,62,61,62,61,62,70,71,16,17,16,17,16,17,36,37,38,39,61,62,61,62,61,62,61,62,61,62,61,62,61,62,61,62,70,71,207,208,207,208,207,208,207,208,59,60,61,62,61,62,61,62,61,62,61,62,61,62,61,62,61,62,61,62,61,62,61,62,61,62,61,62,61,62,61,62,61,62,61,62,61,62,61,62,61,62,61,62,40,41,16,17,16,17,16,26,5,3,4,3,4,3,4,3,4,3,4,3,4,3,4,3,4,3,4,3,4,3,4,3,4,3,4,3,4,3,4,3,4,3,4,3,4,3,4,3,4,3,4,3,4,3,4,3,4,3,4,3,4,3,4,3,4,3,4,3,4,3,4,3,4,3,34,28,35,17,55,57,3,57,58,57,3,4,3,4,3,4,3,4,3,4,3,4,3,4,3,4,3,4,3,4,3,4,3,4,3,4,3,4,3,4,3,4,3,4,3,4,3,4,3,4,3,4,3,4,3,4,3,4,3,4,3,4,3,4,3,4,3,4,3,4,3,4,3,4,3,4,3,4,3,4,3,4,3,4,3,4,3,4,3,4,3,4,3,4,3,4,3,4,3,4,3,4,3,4,3,4,3,4,3,4,3,4,3,4,3,4,3,4,3,4,3,4,3,4,3,4,3,4,3,4,3,4,3,4,3,4,126,127,3,4,126,127,3,4,3,4,3,4,8,9,105,106,107,106,118,119,123,17,17,35,10,3,4,3,4,3,4,3,4,3,4,3,4,3,4,3,4,3,4,3,4,3,4,3,4,3,4,3,4,3,4,3,4,3,4,3,4,3,4,3,4,3,4,3,4,3,
1,2,1,2,1,2,1,2,1,2,1,2,1,2,1,2,1,2,1,2,1,2,1,2,1,2,1,2,1,2,1,2,1,2,1,2,1,2,1,2,1,2,1,2,1,2,1,2,1,2,1,2,1,2,1,2,1,2,1,2,1,2,1,2,1,2,1,2,1,2,1,2,1,2,1,2,1,2,1,2,1,2,1,2,1,2,1,2,1,2,1,2,1,2,1,2,1,2,1,2,1,2,1,2,1,2,1,2,1,2,1,2,1,2,1,2,1,2,1,2,1,2,1,2,1,2,1,11,12,13,46,47,48,49,48,49,48,49,48,49,48,49,48,49,48,49,48,49,48,49,66,67,12,13,12,13,12,13,46,47,48,49,48,49,48,49,48,49,48,49,50,51,50,51,50,51,50,51,52,53,205,206,205,206,205,206,205,206,109,110,50,51,50,51,50,51,48,49,48,49,48,49,48,49,48,49,48,49,48,49,48,49,48,49,48,49,48,49,48,49,48,49,48,49,48,49,48,49,48,49,48,49,48,49,33,13,12,13,54,55,56,2,1,2,1,2,1,2,1,2,1,2,1,2,1,2,1,2,1,2,1,2,1,2,1,2,1,2,1,2,1,2,1,2,1,2,1,2,1,2,1,2,1,2,1,2,1,2,1,2,1,2,1,2,1,2,1,2,1,2,1,2,1,2,1,2,1,27,68,69,56,2,1,2,1,2,1,2,1,2,1,2,1,2,1,2,1,2,1,2,1,2,1,2,1,2,1,2,1,2,1,2,1,2,1,2,1,2,1,2,1,2,1,2,1,2,1,2,1,2,1,2,1,2,1,2,1,2,1,2,1,2,1,2,1,2,1,2,1,2,1,2,1,2,1,2,1,2,1,2,1,2,1,2,1,2,1,2,1,2,1,2,1,2,1,2,1,2,1,2,1,2,1,2,1,2,1,2,1,2,1,2,1,2,1,2,1,2,1,2,1,2,1,2,1,2,1,2,125,2,1,2,125,2,1,2,125,2,125,2,125,2,1,6,12,13,122,114,111,121,12,13,12,13,54,55,56,2,1,2,1,2,1,2,1,2,1,2,1,2,1,2,1,2,1,2,1,2,1,2,1,2,1,2,1,2,1,2,1,2,1,2,1,2,1,2,1,2,1,2,1,2,
3,4,3,4,3,4,3,4,3,4,3,4,3,4,3,4,3,4,3,4,3,4,3,4,3,4,3,4,3,4,3,4,3,4,3,4,3,4,3,4,3,4,3,4,3,4,3,4,3,4,3,4,3,4,3,4,3,4,3,4,3,4,3,4,3,4,3,4,3,4,3,4,3,4,3,4,3,4,3,4,3,4,3,4,3,4,3,4,3,4,3,4,3,4,3,4,3,4,3,4,3,4,3,4,3,4,3,4,3,4,3,4,3,4,3,4,3,4,3,4,3,4,3,4,3,4,3,15,16,17,59,60,61,62,61,62,61,62,61,62,61,62,61,62,61,62,61,62,61,62,70,71,16,17,16,17,16,17,59,60,61,62,61,62,61,62,61,62,61,62,63,64,63,64,63,64,63,64,65,17,207,208,207,208,207,208,207,208,16,115,63,64,63,64,63,64,61,62,61,62,61,62,61,62,61,62,61,62,61,62,61,62,61,62,61,62,61,62,61,62,61,62,61,62,61,62,72,73,74,75,76,62,61,62,40,41,17,35,55,57,3,4,3,4,3,4,3,4,3,4,3,4,3,4,3,4,3,4,3,4,3,4,3,4,3,4,3,4,3,4,3,4,3,4,3,4,3,4,3,4,3,4,3,4,3,4,3,4,3,4,3,4,3,4,3,4,3,4,3,4,3,4,3,4,3,4,3,4,3,4,3,4,3,4,3,4,3,4,3,4,3,4,3,4,3,4,3,4,3,4,3,4,3,4,3,4,3,4,3,4,3,4,3,4,3,4,3,4,3,4,3,4,3,4,3,4,3,4,3,4,3,4,3,4,3,4,3,4,3,4,3,4,3,4,3,4,3,4,3,4,3,4,3,4,3,4,3,4,3,4,3,4,3,4,3,4,3,4,3,4,3,4,3,4,3,4,3,4,3,4,3,4,3,4,3,4,3,4,3,4,3,4,3,4,3,4,3,4,3,4,3,4,3,4,3,4,3,4,126,127,3,4,126,127,3,4,126,127,126,127,126,4,8,9,16,17,16,124,123,17,16,17,16,17,55,57,3,4,3,4,3,4,3,4,3,4,3,4,5,3,4,3,4,3,4,3,4,3,4,3,4,3,4,3,4,3,4,3,4,3,4,3,4,3,4,3,4,3,4,3,4,3,
1,2,1,2,1,2,1,2,1,2,1,2,1,2,1,2,1,2,1,2,1,2,1,2,1,2,1,2,1,2,1,2,1,2,1,2,1,2,1,2,1,2,1,2,1,2,1,2,1,2,1,2,1,2,1,2,1,2,1,2,1,2,1,2,1,2,1,2,1,2,1,2,1,2,1,2,1,2,1,2,1,2,1,2,1,2,1,2,1,2,1,2,1,2,1,2,1,2,1,2,1,2,1,2,1,2,1,2,1,2,1,2,1,2,1,2,1,2,1,2,1,2,1,2,1,2,1,19,12,13,46,47,48,49,48,49,48,49,48,49,48,49,48,49,48,49,48,49,48,49,66,67,12,13,12,13,12,13,46,47,48,49,48,49,48,49,48,49,52,53,12,103,111,112,104,13,55,150,151,150,205,206,205,206,205,206,205,206,151,28,12,103,111,112,104,13,109,110,48,49,48,49,48,49,48,49,48,49,48,49,48,49,48,49,48,49,48,49,48,49,48,49,48,49,77,78,79,80,81,82,83,49,48,49,66,67,54,55,56,2,1,2,1,2,1,2,1,2,1,2,1,2,1,2,1,2,1,2,1,2,1,2,1,2,1,2,1,2,1,2,1,2,1,2,1,2,1,2,1,2,1,2,1,2,1,2,1,2,1,2,1,2,1,2,1,2,1,2,1,2,1,2,1,2,1,2,1,2,1,2,1,2,1,2,1,2,1,2,1,2,1,2,1,2,1,2,1,2,1,2,1,2,1,2,1,2,1,2,1,2,1,2,1,2,1,2,1,2,1,2,1,2,1,2,1,2,1,2,1,2,1,2,1,2,1,2,1,2,1,2,1,2,1,2,1,2,1,2,1,2,1,2,1,2,1,2,1,2,1,2,1,2,1,2,1,2,1,2,1,2,1,2,1,2,1,2,1,2,1,2,1,2,1,2,1,2,1,2,1,2,1,2,1,2,1,2,1,2,1,2,1,2,1,2,1,2,1,2,1,2,1,2,125,2,125,2,1,2,125,2,1,27,28,29,12,13,12,13,54,55,44,45,68,69,56,2,1,2,1,2,1,2,1,2,1,2,1,6,21,2,1,2,1,2,1,2,1,2,1,2,1,2,1,2,1,2,1,2,1,2,1,2,1,2,1,2,1,2,1,2,1,2,
3,4,3,4,3,4,3,4,3,4,3,4,3,4,3,4,3,4,3,4,3,4,3,4,3,4,3,4,3,4,3,4,3,4,3,4,3,4,3,4,3,4,3,4,3,4,3,4,3,4,3,4,3,4,3,4,3,4,3,4,3,4,3,4,3,4,3,4,3,4,3,4,3,4,3,4,3,4,3,4,3,4,3,4,3,4,3,4,3,4,3,4,3,4,3,4,3,4,3,4,3,4,3,4,3,4,3,4,3,4,3,4,3,4,3,4,3,4,3,4,3,4,3,4,3,4,3,20,16,17,59,60,61,62,61,62,61,62,61,62,61,62,61,62,61,62,61,62,61,62,70,71,16,17,16,17,16,17,59,60,61,62,61,62,61,62,61,62,65,17,105,106,107,106,107,108,155,159,159,159,207,208,207,208,207,208,207,208,159,160,105,106,107,106,107,108,16,115,61,62,61,62,61,62,61,62,61,62,61,62,61,62,61,62,61,62,61,62,61,62,61,62,61,62,84,85,86,87,88,89,90,62,61,62,70,71,55,57,3,4,3,4,3,4,3,4,3,4,3,4,3,4,3,4,3,4,3,4,3,4,3,4,3,4,3,4,3,4,3,4,3,4,3,4,3,4,3,4,3,4,3,4,3,4,3,4,3,4,3,4,3,4,3,4,3,4,3,4,3,4,3,4,3,4,3,4,3,4,3,4,3,4,3,4,3,4,3,4,3,4,3,4,3,4,3,4,3,4,3,4,3,4,3,4,3,4,3,4,3,4,3,4,3,4,3,4,3,4,3,4,3,4,3,4,3,4,3,4,3,4,3,4,3,4,3,4,3,4,3,4,3,4,3,4,3,4,3,4,3,4,3,4,3,4,3,4,3,4,3,4,3,4,3,4,3,4,3,4,3,4,3,4,3,4,3,4,3,4,3,4,3,4,3,4,3,4,3,4,3,4,3,4,3,4,3,4,3,4,3,4,3,4,3,4,3,4,3,4,3,4,3,4,126,127,126,127,3,4,126,127,3,4,11,16,35,17,16,17,55,57,58,57,3,4,3,4,3,4,3,4,3,4,3,4,3,4,8,9,16,26,5,3,4,3,4,3,4,3,4,3,4,3,4,3,4,3,4,3,4,3,4,3,4,3,4,3,4,3,4,3,4,3,
1,2,1,2,1,2,1,2,1,2,1,2,1,2,1,2,1,2,1,2,1,2,1,2,1,2,1,2,1,2,1,2,1,2,1,2,1,2,1,2,1,2,1,2,1,2,1,2,1,2,1,2,1,2,1,2,1,2,1,2,1,2,1,2,1,2,1,2,1,2,1,2,1,2,1,2,1,2,1,2,1,2,1,2,1,2,1,2,1,2,1,2,1,2,1,2,1,2,1,2,1,2,1,2,1,2,1,2,1,2,1,2,1,2,1,2,1,2,1,2,1,2,1,2,1,2,1,6,12,30,48,49,48,49,48,49,48,49,48,49,48,49,48,49,48,49,48,49,48,49,66,67,12,13,12,13,12,30,48,49,48,49,48,49,48,49,66,67,12,103,113,114,113,114,111,117,167,159,159,159,159,159,159,159,159,159,159,159,159,168,113,114,113,114,113,114,104,13,46,47,48,49,48,49,48,49,48,49,48,49,48,49,48,49,48,49,48,49,48,49,48,49,48,49,91,92,93,94,95,96,48,49,48,49,66,67,14,2,1,2,1,2,1,2,1,2,1,2,1,2,1,2,1,2,1,2,1,2,1,2,1,2,1,2,1,2,1,2,1,2,1,2,1,2,1,2,1,2,1,2,1,2,1,2,1,2,1,2,1,2,1,2,1,2,1,2,1,2,1,2,1,2,1,2,1,2,1,2,1,2,1,2,1,2,1,2,1,2,1,2,1,2,1,2,1,2,1,2,1,2,1,2,1,2,1,2,1,2,1,2,1,2,1,2,1,2,1,2,1,2,1,2,1,2,1,2,1,2,1,2,1,2,1,2,1,2,1,2,1,2,1,2,1,2,1,2,1,2,1,2,1,2,1,2,1,2,1,2,1,2,1,2,1,2,1,2,1,2,1,2,1,2,1,2,1,2,1,2,1,2,1,2,1,2,1,2,1,2,1,2,1,2,1,2,1,2,1,2,1,2,1,2,1,2,1,2,1,2,1,2,1,2,1,2,125,2,125,2,125,2,125,2,15,16,16,29,54,55,56,2,1,2,1,2,1,2,1,2,1,2,1,2,1,2,1,11,12,13,12,13,14,2,1,2,1,2,1,2,1,2,1,2,1,2,1,2,1,2,1,2,1,2,1,2,1,2,1,2,1,2,1,2,
3,4,3,4,3,4,3,4,3,4,3,4,3,4,3,4,3,4,3,4,3,4,3,4,3,4,3,4,3,4,3,4,3,4,3,4,3,4,3,4,3,4,3,4,3,4,3,4,3,4,3,4,3,4,3,4,3,4,3,4,3,4,3,4,3,4,3,4,3,4,3,4,3,4,3,4,3,4,3,4,3,4,3,4,3,4,3,4,3,4,3,4,3,4,3,4,3,4,3,4,3,4,3,4,3,4,3,4,3,4,3,4,3,4,3,4,3,4,3,4,3,4,3,4,3,4,8,9,36,37,61,62,61,62,61,62,61,62,61,62,61,62,61,62,61,62,61,62,61,62,70,71,16,17,16,17,36,37,61,62,61,62,61,62,61,62,70,71,105,106,107,106,107,106,107,120,155,159,159,159,159,159,159,159,159,159,159,159,159,160,116,106,107,106,107,106,107,108,59,60,61,62,61,62,61,62,61,62,61,62,61,62,61,62,61,62,61,62,61,62,61,62,61,62,61,62,97,98,99,100,61,62,61,62,70,71,18,3,4,3,4,3,4,3,4,3,4,3,4,3,4,3,4,3,4,3,4,3,4,3,4,3,4,3,4,3,4,3,4,3,4,3,4,3,4,3,4,3,4,3,4,3,4,3,4,3,4,3,4,3,4,3,4,3,4,3,4,3,4,3,4,3,4,3,4,3,4,3,4,3,4,3,4,3,4,3,4,3,4,3,4,3,4,3,4,3,4,3,4,3,4,3,4,3,4,3,4,3,4,3,4,3,4,3,4,3,4,3,4,3,4,3,4,3,4,3,4,3,4,3,4,3,4,3,4,3,4,3,4,3,4,3,4,3,4,3,4,3,4,3,4,3,4,3,4,3,4,3,4,3,4,3,4,3,4,3,4,3,4,3,4,3,4,3,4,3,4,3,4,3,4,3,4,3,4,3,4,3,4,3,4,3,4,3,4,3,4,3,4,3,4,3,4,3,4,3,4,3,4,3,4,3,4,3,126,127,126,127,126,127,126,127,125,28,16,16,55,57,3,4,3,4,5,3,4,3,4,3,4,3,4,3,4,3,4,15,16,17,16,17,18,3,4,3,4,3,4,3,4,3,4,3,4,3,4,3,4,3,4,3,4,3,4,3,4,3,4,3,4,3,4,3,
1,2,1,2,1,2,1,2,1,2,1,2,1,2,1,2,1,2,1,2,1,2,1,2,1,2,1,2,1,2,1,2,1,2,1,2,1,2,1,2,1,2,1,2,1,2,1,2,1,2,1,2,1,2,1,2,1,2,1,2,1,2,1,2,1,2,1,2,1,2,1,2,1,2,1,2,1,2,1,2,1,2,1,2,1,2,1,2,1,2,1,2,1,2,1,2,1,2,1,2,1,2,1,2,1,2,1,2,1,2,1,2,1,2,1,2,1,2,1,2,1,2,1,2,1,27,28,29,109,110,48,49,48,49,48,49,48,49,48,49,48,49,48,49,48,49,48,49,48,49,52,53,12,13,12,13,109,110,48,49,48,49,48,49,48,49,66,67,122,114,113,114,113,114,111,117,167,159,159,159,159,159,159,159,159,159,159,159,159,168,113,114,113,114,113,114,111,117,109,110,48,49,48,49,48,49,48,49,48,49,48,49,48,49,48,49,48,49,48,49,48,49,48,49,48,49,91,92,101,102,48,49,48,49,66,67,14,2,1,2,1,2,1,2,1,2,1,2,1,2,1,2,1,2,1,2,1,2,1,2,1,2,1,2,1,2,1,2,1,2,1,2,1,2,1,2,1,2,1,2,1,2,1,2,1,2,1,2,1,2,1,2,1,2,1,2,1,2,1,2,1,2,1,2,1,2,1,2,1,2,1,2,1,2,1,2,1,2,1,2,1,2,1,2,1,2,1,2,1,2,1,2,1,2,1,2,1,2,1,2,1,2,1,2,1,2,1,2,1,2,1,2,1,2,1,2,1,2,1,2,1,2,1,2,1,2,1,2,1,2,1,2,1,2,1,2,1,2,1,2,1,2,1,2,1,2,1,2,1,2,1,2,1,2,1,2,1,2,1,2,1,2,1,2,1,2,1,2,1,2,1,2,1,2,1,2,1,2,1,2,1,2,1,2,1,2,1,2,1,2,1,2,1,2,1,2,1,2,1,2,125,2,1,2,125,2,125,2,1,2,125,2,126,127,28,29,7,2,1,2,1,6,21,2,1,2,1,2,1,2,1,2,1,2,1,6,12,13,12,13,7,2,1,2,1,2,1,2,1,2,1,2,1,2,1,2,1,2,1,2,1,2,1,2,1,2,1,2,1,2,1,2,
3,4,3,4,3,4,3,4,3,4,3,4,3,4,3,4,3,4,3,4,3,4,3,4,3,4,3,4,3,4,3,4,3,4,3,4,3,4,3,4,3,4,3,4,3,4,3,4,3,4,3,4,3,4,3,4,3,4,3,4,3,4,3,4,3,4,3,4,3,4,3,4,3,4,3,4,3,4,3,4,3,4,3,4,3,4,3,4,3,4,3,4,3,4,3,4,3,4,3,4,3,4,3,4,3,4,3,4,3,4,3,4,3,4,3,4,3,4,3,4,3,4,3,4,3,4,34,28,16,115,61,62,61,62,61,62,61,62,61,62,61,62,61,62,61,62,61,62,61,62,65,17,16,17,16,17,16,115,61,62,61,62,61,62,61,62,70,71,16,124,107,106,107,106,107,120,155,159,159,159,159,159,159,159,159,159,159,159,159,160,116,106,107,106,107,106,107,120,16,115,61,62,61,62,61,62,61,62,61,62,61,62,61,62,61,62,61,62,61,62,61,62,61,62,61,62,61,62,61,62,61,62,61,62,70,71,18,3,4,3,4,3,4,3,4,3,4,3,4,3,4,3,4,3,4,3,4,3,4,3,4,3,4,3,4,3,4,3,4,3,4,3,4,3,4,3,4,3,4,3,4,3,4,3,4,3,4,3,4,3,4,3,4,3,4,3,4,3,4,3,4,3,4,3,4,3,4,3,4,3,4,3,4,3,4,3,4,3,4,3,4,3,4,3,4,3,4,3,4,3,4,3,4,3,4,3,4,3,4,3,4,3,4,3,4,3,4,3,4,3,4,3,4,3,4,3,4,3,4,3,4,3,4,3,4,3,4,3,4,3,4,3,4,3,4,3,4,3,4,3,4,3,4,3,4,3,4,3,4,3,4,3,4,3,4,3,4,3,4,3,4,3,4,3,4,3,4,3,4,3,4,3,4,3,4,3,4,3,4,3,4,3,4,3,4,3,4,3,4,3,4,3,4,3,4,3,4,3,4,3,126,127,3,4,126,127,126,127,3,4,126,127,3,4,3,28,10,4,3,4,8,9,16,26,5,3,4,3,4,3,4,4,24,25,8,9,16,17,17,35,10,3,4,3,4,3,4,3,4,3,4,3,4,3,4,3,4,3,4,3,4,3,4,3,4,3,4,3,4,3,4,3,
1,2,1,2,1,2,1,2,1,2,1,2,1,2,1,2,1,2,1,2,1,2,1,2,1,2,1,2,1,2,1,2,1,2,1,2,1,2,1,2,1,2,1,2,1,2,1,2,1,2,1,2,1,2,1,2,1,2,1,2,1,2,1,2,1,2,1,2,1,2,1,2,1,2,1,2,1,2,1,2,1,2,1,2,1,2,1,2,1,2,1,2,1,2,1,2,1,2,1,2,1,2,1,2,1,2,1,2,1,2,1,2,1,2,1,2,1,2,1,2,1,2,1,2,1,2,1,11,12,13,46,47,48,49,48,49,48,49,48,49,48,49,48,49,48,49,48,49,48,49,33,13,12,13,12,13,12,13,109,110,50,51,50,51,48,49,48,49,33,13,122,114,113,114,111,117,167,159,159,159,159,159,159,159,159,159,159,159,159,168,113,114,113,114,113,114,111,117,12,30,48,49,50,51,48,49,48,49,48,49,48,49,48,49,48,49,48,49,48,49,48,49,48,49,50,51,50,51,50,51,50,51,50,51,52,53,7,2,1,2,1,2,1,2,1,2,1,2,1,2,1,2,1,2,1,2,1,2,1,2,1,2,1,2,1,2,1,2,1,2,1,2,1,2,1,2,1,2,1,2,1,2,1,2,1,2,1,2,1,2,1,2,1,2,1,2,1,2,1,2,1,2,1,2,1,2,1,2,1,2,1,2,1,2,1,2,1,2,1,2,1,2,1,2,1,2,1,2,1,2,1,2,1,2,1,2,1,2,1,2,1,2,1,2,1,2,1,2,1,2,1,2,1,2,1,2,1,2,1,2,1,2,1,2,1,2,1,2,1,2,1,2,1,2,1,2,1,2,1,2,1,2,1,2,1,2,1,2,1,2,1,2,1,2,1,2,1,2,1,2,1,2,1,2,1,2,1,2,1,2,1,2,1,2,1,2,1,2,1,2,1,2,1,2,1,2,1,2,1,2,1,2,1,2,1,2,1,2,1,2,1,2,1,2,1,2,125,2,1,2,1,2,1,2,1,58,56,2,1,11,12,13,12,13,14,2,1,2,1,2,1,6,12,13,12,13,12,13,54,55,56,2,1,2,1,2,1,2,1,2,1,2,1,2,1,2,1,2,1,2,1,2,1,2,1,2,1,2,1,2,1,2,
3,4,3,4,3,4,3,4,3,4,3,4,3,4,3,4,3,4,3,4,3,4,3,4,3,4,3,4,3,4,3,4,3,4,3,4,3,4,3,4,3,4,3,4,3,4,3,4,3,4,3,4,3,4,3,4,3,4,3,4,3,4,3,4,3,4,3,4,3,4,3,4,3,4,3,4,3,4,3,4,3,4,3,4,3,4,3,4,3,4,3,4,3,4,3,4,3,4,3,4,3,4,3,4,3,4,3,4,3,4,3,4,3,4,3,4,3,4,3,4,3,4,3,4,3,4,3,15,16,17,59,60,61,62,61,62,61,62,61,62,61,62,61,62,61,62,61,62,61,62,40,41,16,17,16,17,16,17,16,115,63,64,63,64,61,62,61,62,40,41,16,124,107,106,107,120,155,159,159,159,159,159,159,159,159,159,159,159,159,160,116,106,107,106,107,106,107,120,36,37,61,62,63,64,61,62,61,62,61,62,61,62,61,62,61,62,61,62,61,62,61,62,61,62,63,64,63,64,63,64,63,64,63,64,65,17,10,3,4,3,4,3,4,3,4,3,4,3,4,3,4,3,4,3,4,3,4,3,4,3,4,3,4,3,4,3,4,3,4,3,4,3,4,3,4,3,4,3,4,3,4,3,4,3,4,3,4,3,4,3,4,3,4,3,4,3,4,3,4,3,4,3,4,3,4,3,4,3,4,3,4,3,4,3,4,3,4,3,4,3,4,3,4,3,4,3,4,3,4,3,4,3,4,3,4,3,4,3,4,3,4,3,4,3,4,3,4,3,4,3,4,3,4,3,4,3,4,3,4,3,4,3,4,3,4,3,4,3,4,3,4,3,4,3,4,3,4,3,4,3,4,3,4,3,4,3,4,3,4,3,4,3,4,3,4,3,4,3,4,3,4,3,4,3,4,3,4,3,4,3,4,3,4,3,4,3,4,3,4,3,4,3,4,3,4,3,4,3,4,3,4,3,4,3,4,3,4,3,4,3,4,3,4,3,4,3,126,127,3,4,3,4,3,4,3,4,3,4,3,15,16,17,17,35,18,3,4,3,4,4,8,9,16,17,16,17,16,17,55,57,3,4,3,4,3,4,3,4,3,4,3,4,3,4,3,4,3,4,3,4,3,4,3,4,3,4,3,4,3,4,3,4,
1,2,1,2,1,2,1,2,1,2,1,2,1,2,1,2,1,2,1,2,1,2,1,2,1,2,1,2,1,2,1,2,1,2,1,2,1,2,1,2,1,2,1,2,1,2,1,2,1,2,1,2,1,2,1,2,1,2,1,2,1,2,1,2,1,2,1,2,1,2,1,2,1,2,1,2,1,2,1,2,1,2,1,2,1,2,1,2,1,2,1,2,1,2,1,2,1,2,1,2,1,2,1,2,1,2,1,2,1,2,1,2,1,2,1,2,1,2,1,2,1,2,1,2,1,2,1,19,12,13,46,47,48,49,48,49,48,49,48,49,48,49,48,49,48,49,48,49,48,49,66,67,12,13,12,13,12,13,12,13,12,13,12,13,109,110,48,49,48,49,33,13,113,114,111,117,167,159,159,159,159,159,159,159,159,159,159,159,159,168,122,114,111,114,111,114,111,121,109,110,52,53,12,13,109,110,48,49,48,49,48,49,48,49,48,49,48,49,48,49,48,49,52,53,12,183,184,185,184,185,184,185,184,185,186,13,21,2,1,2,1,2,1,2,1,2,1,2,1,2,1,2,1,2,1,2,1,2,1,2,1,2,1,2,1,2,1,2,1,2,1,2,1,2,1,2,1,2,1,2,1,2,1,2,1,2,1,2,1,2,1,2,1,2,1,2,1,2,1,2,1,2,1,2,1,2,1,2,1,2,1,2,1,2,1,2,1,2,1,2,1,2,1,2,1,2,1,2,1,2,1,2,1,2,1,2,1,2,1,2,1,2,1,2,1,2,1,2,1,2,1,2,1,2,1,2,1,2,1,2,1,2,1,2,1,2,1,2,1,2,1,2,1,2,1,2,1,2,1,2,1,2,1,2,1,2,1,2,1,2,1,2,1,2,1,2,1,2,1,2,1,2,1,2,1,2,1,2,1,2,1,2,1,2,1,2,1,2,1,2,1,2,1,2,1,2,1,2,1,2,1,2,1,2,1,2,1,2,1,2,1,2,1,2,1,2,1,2,1,2,1,2,125,2,1,2,1,2,1,6,12,13,54,55,56,2,1,2,1,27,28,29,12,13,54,55,42,43,56,2,1,2,1,2,1,2,1,2,1,2,1,2,1,2,1,2,1,2,1,2,1,2,1,2,1,2,1,2,1,2,1,2,
3,4,3,4,3,4,3,4,3,4,3,4,3,4,3,4,3,4,3,4,3,4,3,4,3,4,3,4,3,4,3,4,3,4,3,4,3,4,3,4,3,4,3,4,3,4,3,4,3,4,3,4,3,4,3,4,3,4,3,4,3,4,3,4,3,4,3,4,3,4,3,4,3,4,3,4,3,4,3,4,3,4,3,4,3,4,3,4,3,4,3,4,3,4,3,4,3,4,3,4,3,4,3,4,3,4,3,4,3,4,3,4,3,4,3,4,3,4,3,4,3,4,3,4,3,4,3,20,16,17,59,60,61,62,61,62,61,62,61,62,61,62,61,62,61,62,61,62,61,62,70,71,16,17,16,17,16,17,16,17,16,17,16,17,16,115,61,62,61,62,40,41,116,106,107,120,21,158,157,158,157,158,159,156,157,158,157,158,157,6,16,124,118,119,118,119,123,17,16,115,65,17,16,17,16,115,61,62,61,62,61,62,61,62,61,62,72,73,74,75,76,62,65,17,187,188,189,189,189,189,189,189,189,189,190,191,16,26,24,25,5,3,4,3,4,3,4,3,4,3,4,3,4,3,4,3,4,3,4,3,4,3,4,3,4,3,4,3,4,3,4,3,4,3,4,3,4,3,4,3,4,3,4,3,4,3,4,3,4,3,4,3,4,3,4,3,4,3,4,3,4,3,4,3,4,3,4,3,4,3,4,3,4,3,4,3,4,3,4,3,4,3,4,3,4,3,4,3,4,3,4,3,4,3,4,3,4,3,4,3,4,3,4,3,4,3,4,3,4,3,4,3,4,3,4,3,4,3,4,3,4,3,4,3,4,3,4,3,4,3,4,3,4,3,4,3,4,3,4,3,4,3,4,3,4,3,4,3,4,3,4,3,4,3,4,3,4,3,4,3,4,3,4,3,4,3,4,3,4,3,4,3,4,3,4,3,4,3,4,3,4,3,4,3,4,3,4,3,4,3,4,3,4,3,4,3,4,3,4,3,4,3,4,3,4,3,4,3,4,3,4,3,126,127,3,4,3,4,8,9,16,17,55,57,3,4,3,4,3,4,34,28,35,17,55,57,3,57,3,4,3,4,3,4,3,4,3,4,3,4,3,4,3,4,3,4,3,4,3,4,3,4,3,4,3,4,3,4,3,4,3,4,
1,2,1,2,1,2,1,2,1,2,1,2,1,2,1,2,1,2,1,2,1,2,1,2,1,2,1,2,1,2,1,2,1,2,1,2,1,2,1,2,1,2,1,2,1,2,1,2,1,2,1,2,1,2,1,2,1,2,1,2,1,2,1,2,1,2,1,2,1,2,1,2,1,2,1,2,1,2,1,2,1,2,1,2,1,2,1,2,1,2,1,2,1,2,1,2,1,2,1,2,1,2,1,2,1,2,1,2,1,2,1,2,1,2,1,2,1,2,1,2,1,2,1,2,1,2,1,11,12,13,46,47,48,49,48,49,48,49,48,49,48,49,48,49,48,49,48,49,48,49,66,67,12,13,12,13,12,13,12,13,12,13,12,13,12,13,109,110,48,49,66,67,113,114,113,114,104,13,12,13,12,13,167,168,12,13,12,13,12,13,12,13,12,13,12,183,184,185,184,185,184,185,184,185,186,13,46,47,48,49,48,49,48,49,77,78,79,80,81,82,83,49,33,13,201,202,189,189,189,189,189,189,189,189,189,213,186,13,12,13,21,2,1,2,1,2,1,2,1,2,1,2,1,2,1,2,1,2,1,2,1,2,1,2,1,2,1,2,1,2,1,2,1,2,1,2,1,2,1,2,1,2,1,2,1,2,1,2,1,2,1,2,1,2,1,2,1,2,1,2,1,2,1,2,1,2,1,2,1,2,1,2,1,2,1,2,1,2,1,2,1,2,1,2,1,2,1,2,1,2,1,2,1,2,1,2,1,2,1,2,1,2,1,2,1,2,1,2,1,2,1,2,1,2,1,2,1,2,1,2,1,2,1,2,1,2,1,2,1,2,1,2,1,2,1,2,1,2,1,2,1,2,1,2,1,2,1,2,1,2,1,2,1,2,1,2,1,2,1,2,1,2,1,2,1,2,1,2,1,2,1,2,1,2,1,2,1,2,1,2,1,2,1,2,1,2,1,2,1,2,1,2,1,2,1,2,1,2,1,2,1,2,1,2,1,2,1,2,1,2,1,2,1,2,1,2,1,6,12,103,104,13,14,2,1,2,1,2,1,2,1,27,42,43,56,2,1,2,1,2,1,2,1,2,1,2,1,2,1,2,1,2,1,2,1,2,1,2,1,2,1,2,1,2,1,2,1,2,1,2,1,2,
3,4,3,4,3,4,3,4,3,4,3,4,3,4,3,4,3,4,3,4,3,4,3,4,3,4,3,4,3,4,3,4,3,4,3,4,3,4,3,4,3,4,3,4,3,4,3,4,3,4,3,4,3,4,3,4,3,4,3,4,3,4,3,4,3,4,3,4,3,4,3,4,3,4,3,4,3,4,3,4,3,4,3,4,3,4,3,4,3,4,3,4,3,4,3,4,3,4,3,4,3,4,3,4,3,4,3,4,3,4,3,4,3,4,3,4,3,4,3,4,3,4,3,4,3,4,3,15,16,17,59,60,61,62,61,62,61,62,61,62,61,62,61,62,61,62,61,62,61,62,70,71,16,17,16,17,16,17,16,17,16,17,16,17,16,17,16,115,61,62,70,71,116,106,107,106,107,108,16,17,16,17,155,160,16,17,16,17,16,17,16,17,16,17,187,188,189,189,189,189,189,189,189,189,190,191,59,60,61,62,61,62,61,62,84,85,86,87,88,89,90,62,40,41,16,203,204,189,189,189,189,189,189,189,189,189,190,191,16,17,16,26,5,3,4,3,4,3,4,3,4,3,4,3,4,3,4,3,4,3,4,3,4,3,4,3,4,3,4,3,4,3,4,3,4,3,4,3,4,3,4,3,4,3,4,3,4,3,4,3,4,3,4,3,4,3,4,3,4,3,4,3,4,3,4,3,4,3,4,3,4,3,4,3,4,3,4,3,4,3,4,3,4,3,4,3,4,3,4,3,4,3,4,3,4,3,4,3,4,3,4,3,4,3,4,3,4,3,4,3,4,3,4,3,4,3,4,3,4,3,4,3,4,3,4,3,4,3,4,3,4,3,4,3,4,3,4,3,4,3,4,3,4,3,4,3,4,3,4,3,4,3,4,3,4,3,4,3,4,3,4,3,4,3,4,3,4,3,4,3,4,3,4,3,4,3,4,3,4,3,4,3,4,3,4,3,4,3,4,3,4,3,4,3,4,3,4,3,4,3,4,3,4,3,4,3,4,3,4,3,4,3,4,3,4,4,8,9,105,106,107,108,18,3,4,3,4,3,4,3,4,3,4,57,3,4,3,4,3,4,3,4,3,4,3,4,3,4,3,4,3,4,3,4,3,4,3,4,3,4,3,4,3,4,3,4,3,4,3,4,3,4,
1,2,1,2,1,2,1,2,1,2,1,2,1,2,1,2,1,2,1,2,1,2,1,2,1,2,1,2,1,2,1,2,1,2,1,2,1,2,1,2,1,2,1,2,1,2,1,2,1,2,1,2,1,2,1,2,1,2,1,2,1,2,1,2,1,2,1,2,1,2,1,2,1,2,1,2,1,2,1,2,1,2,1,2,1,2,1,2,1,2,1,2,1,2,1,2,1,2,1,2,1,2,1,2,1,2,1,2,1,2,1,2,1,2,1,2,1,2,1,2,1,2,1,2,1,2,1,19,12,13,46,47,48,49,48,49,48,49,48,49,48,49,48,49,48,49,48,49,48,49,48,49,33,13,12,13,12,13,12,13,12,13,12,13,12,13,12,13,109,110,52,53,113,114,113,114,113,114,111,112,104,13,152,153,12,13,12,13,12,13,12,13,12,183,192,189,189,189,189,189,189,189,189,189,189,193,109,110,50,51,50,51,48,49,91,92,93,94,95,96,48,49,48,49,33,13,201,202,189,189,189,189,189,189,189,189,189,213,186,13,12,13,14,2,1,2,1,2,1,2,1,2,1,2,1,2,1,2,1,2,1,2,1,2,1,2,1,2,1,2,1,2,1,2,1,2,1,2,1,2,1,2,1,2,1,2,1,2,1,2,1,2,1,2,1,2,1,2,1,2,1,2,1,2,1,2,1,2,1,2,1,2,1,2,1,2,1,2,1,2,1,2,1,2,1,2,1,2,1,2,1,2,1,2,1,2,1,2,1,2,1,2,1,2,1,2,1,2,1,2,1,2,1,2,1,2,1,2,1,2,1,2,1,2,1,2,1,2,1,2,1,2,1,2,1,2,1,2,1,2,1,2,1,2,1,2,1,2,1,2,1,2,1,2,1,2,1,2,1,2,1,2,1,2,1,2,1,2,1,2,1,2,1,2,1,2,1,2,1,2,1,2,1,2,1,2,1,2,1,2,1,2,1,2,1,2,1,2,1,2,1,2,1,2,1,2,1,2,1,2,1,2,1,2,1,6,12,103,113,114,111,121,7,2,1,2,1,2,1,2,1,2,1,2,1,2,1,2,1,2,1,2,1,2,1,2,1,2,1,2,1,2,1,2,1,2,1,2,1,2,1,2,1,2,1,2,1,2,1,2,1,2,
3,4,3,4,3,4,3,4,3,4,3,4,3,4,3,4,3,4,3,4,3,4,3,4,3,4,3,4,3,4,3,4,3,4,3,4,3,4,3,4,3,4,3,4,3,4,3,4,3,4,3,4,3,4,3,4,3,4,3,4,3,4,3,4,3,4,3,4,3,4,3,4,3,4,3,4,3,4,3,4,3,4,3,4,3,4,3,4,3,4,3,4,3,4,3,4,3,4,3,4,3,4,3,4,3,4,3,4,3,4,3,4,3,4,3,4,3,4,3,4,3,4,3,4,3,4,3,20,16,17,59,60,61,62,61,62,61,62,61,62,61,62,61,62,61,62,61,62,61,62,61,62,40,41,16,17,16,17,16,17,16,17,16,17,16,17,16,17,16,115,65,17,116,106,107,106,107,106,107,106,107,108,161,162,16,17,16,17,16,17,16,17,187,188,189,189,189,189,189,189,189,189,189,189,189,194,16,115,63,64,63,64,61,62,61,62,97,98,99,100,61,62,61,62,40,41,16,203,197,198,204,189,189,189,189,189,189,189,190,191,16,17,18,3,4,3,4,3,4,3,4,3,4,3,4,3,4,3,4,3,4,3,4,3,4,3,4,3,4,3,4,3,4,3,4,3,4,3,4,3,4,3,4,3,4,3,4,3,4,3,4,3,4,3,4,3,4,3,4,3,4,3,4,3,4,3,4,3,4,3,4,3,4,3,4,3,4,3,4,3,4,3,4,3,4,3,4,3,4,3,4,3,4,3,4,3,4,3,4,3,4,3,4,3,4,3,4,3,4,3,4,3,4,3,4,3,4,3,4,3,4,3,4,3,4,3,4,3,4,3,4,3,4,3,4,3,4,3,4,3,4,3,4,3,4,3,4,3,4,3,4,3,4,3,4,3,4,3,4,3,4,3,4,3,4,3,4,3,4,3,4,3,4,3,4,3,4,3,4,3,4,3,4,3,4,3,4,3,4,3,4,3,4,3,4,3,4,3,4,3,4,3,4,3,4,3,4,3,4,4,5,3,4,4,8,9,105,106,107,106,123,17,10,3,4,3,4,3,4,3,4,3,4,3,4,3,4,3,4,3,4,3,4,3,4,3,4,3,4,3,4,3,4,3,4,3,4,3,4,3,4,3,4,3,4,3,4,3,4,3,4,3,
1,2,1,2,1,2,1,2,1,2,1,2,1,2,1,2,1,2,1,2,1,2,1,2,1,2,1,2,1,2,1,2,1,2,1,2,1,2,1,2,1,2,1,2,1,2,1,2,1,2,1,2,1,2,1,2,1,2,1,2,1,2,1,2,1,2,1,2,1,2,1,2,1,2,1,2,1,2,1,2,1,2,1,2,1,2,1,2,1,2,1,2,1,2,1,2,1,2,1,2,1,2,1,2,1,2,1,2,1,2,1,2,1,2,1,2,1,2,1,2,1,2,1,2,1,2,1,19,12,13,46,47,48,49,48,49,48,49,48,49,48,49,48,49,48,49,48,49,48,49,48,49,48,49,31,32,31,32,31,32,31,32,33,13,12,13,12,13,12,13,12,103,113,114,113,114,113,114,113,114,111,117,167,159,151,150,151,150,151,150,151,28,201,202,189,189,189,189,189,189,189,189,189,189,189,213,186,13,12,13,12,13,109,110,48,49,91,92,101,102,48,49,48,49,48,49,33,13,12,13,201,202,189,189,189,189,189,189,189,193,12,13,7,2,1,2,1,2,1,2,1,2,1,2,1,2,1,2,1,2,1,2,1,2,1,2,1,2,1,2,1,2,1,2,1,2,1,2,1,2,1,2,1,2,1,2,1,2,1,2,1,2,1,2,1,2,1,2,1,2,1,2,1,2,1,2,1,2,1,2,1,2,1,2,1,2,1,2,1,2,1,2,1,2,1,2,1,2,1,2,1,2,1,2,1,2,1,2,1,2,1,2,1,2,1,2,1,2,1,2,1,2,1,2,1,2,1,2,1,2,1,2,1,2,1,2,1,2,1,2,1,2,1,2,1,2,1,2,1,2,1,2,1,2,1,2,1,2,1,2,1,2,1,2,1,2,1,2,1,2,1,2,1,2,1,2,1,2,1,2,1,2,1,2,1,2,1,2,1,2,1,2,1,2,1,2,1,2,1,2,1,2,1,2,1,2,1,2,1,2,1,2,1,2,1,2,1,2,1,6,14,2,1,11,12,103,113,114,111,117,54,55,56,2,1,2,1,2,1,2,1,2,1,2,1,2,1,2,1,2,1,2,1,2,1,2,1,2,1,2,1,2,1,2,1,2,1,2,1,2,1,2,1,2,1,2,1,2,1,2,1,2,
3,4,3,4,3,4,3,4,3,4,3,4,3,4,3,4,3,4,3,4,3,4,3,4,3,4,3,4,3,4,3,4,3,4,3,4,3,4,3,4,3,4,3,4,3,4,3,4,3,4,3,4,3,4,3,4,3,4,3,4,3,4,3,4,3,4,3,4,3,4,3,4,3,4,3,4,3,4,3,4,3,4,3,4,3,4,3,4,3,4,3,4,3,4,3,4,3,4,3,4,3,4,3,4,3,4,3,4,3,4,3,4,3,4,3,4,3,4,3,4,3,4,3,4,3,4,3,20,16,17,59,60,61,62,61,62,61,62,61,62,61,62,61,62,61,62,61,62,61,62,61,62,61,62,38,39,38,39,38,39,38,39,40,41,16,17,16,17,16,17,105,106,107,106,107,106,107,106,107,106,107,120,21,158,157,158,157,158,157,158,159,160,16,203,204,189,189,189,189,189,189,189,189,189,189,189,190,191,16,17,16,17,16,115,61,62,61,62,61,62,61,62,61,62,61,62,40,41,16,17,16,203,204,189,189,189,189,189,189,194,16,17,10,3,4,3,4,3,4,3,4,3,4,3,4,3,4,3,4,3,4,3,4,3,4,3,4,3,4,3,4,3,4,3,4,3,4,3,4,3,4,3,4,3,4,3,4,3,4,3,4,3,4,3,4,3,4,3,4,3,4,3,4,3,4,3,4,3,4,3,4,3,4,3,4,3,4,3,4,3,4,3,4,3,4,3,4,3,4,3,4,3,4,3,4,3,4,3,4,3,4,3,4,3,4,3,4,3,4,3,4,3,4,3,4,3,4,3,4,3,4,3,4,3,4,3,4,3,4,3,4,3,4,3,4,3,4,3,4,3,4,3,4,3,4,3,4,3,4,3,4,3,4,3,4,3,4,3,4,3,4,3,4,3,4,3,4,3,4,3,4,3,4,3,4,3,4,3,4,3,4,3,4,3,4,3,4,3,4,3,4,3,4,3,4,3,4,3,4,3,4,3,4,3,4,3,4,4,8,9,18,3,4,15,105,106,107,106,107,120,55,57,3,4,3,4,3,4,3,4,3,4,3,4,3,4,3,4,3,4,3,4,3,4,3,4,3,4,3,4,3,4,3,4,3,4,3,4,3,4,3,4,3,4,3,4,3,4,3,4,3,4,
1,2,1,2,1,2,1,2,1,2,1,2,1,2,1,2,1,2,1,2,1,2,1,2,1,2,1,2,1,2,1,2,1,2,1,2,1,2,1,2,1,2,1,2,1,2,1,2,1,2,1,2,1,2,1,2,1,2,1,2,1,2,1,2,1,2,1,2,1,2,1,2,1,2,1,2,1,2,1,2,1,2,1,2,1,2,1,2,1,2,1,2,1,2,1,2,1,2,1,2,1,2,1,2,1,2,1,2,1,2,1,2,1,2,1,2,1,2,1,2,1,2,1,2,1,2,1,6,12,13,109,110,50,51,48,49,48,49,48,49,48,49,48,49,48,49,48,49,48,49,48,49,48,49,48,49,48,49,48,49,48,49,48,49,31,32,33,13,12,13,122,114,113,114,113,114,113,114,113,114,113,114,111,112,104,13,12,13,12,13,167,168,12,13,201,202,189,189,189,189,189,189,189,189,189,189,195,13,12,13,12,13,12,13,109,110,48,49,48,49,48,49,48,49,48,49,48,49,31,32,33,13,199,189,189,189,189,189,189,213,186,13,21,2,1,2,1,2,1,2,1,2,1,2,1,2,1,2,1,2,1,2,1,2,1,2,1,2,1,2,1,2,1,2,1,2,1,2,1,2,1,2,1,2,1,2,1,2,1,2,1,2,1,2,1,2,1,2,1,2,1,2,1,2,1,2,1,2,1,2,1,2,1,2,1,2,1,2,1,2,1,2,1,2,1,2,1,2,1,2,1,2,1,2,1,2,1,2,1,2,1,2,1,2,1,2,1,2,1,2,1,2,1,2,1,2,1,2,1,2,1,2,1,2,1,2,1,2,1,2,1,2,1,2,1,2,1,2,1,2,1,2,1,2,1,2,1,2,1,2,1,2,1,2,1,2,1,2,1,2,1,2,1,2,1,2,1,2,1,2,1,2,1,2,1,2,1,2,1,2,1,2,1,2,1,2,1,2,1,2,1,2,1,2,1,2,1,2,1,2,1,2,1,2,1,2,1,11,12,13,7,2,1,19,113,114,113,114,111,117,7,2,1,2,1,2,1,2,1,2,1,2,1,2,1,2,1,2,1,2,1,2,1,2,1,2,1,2,1,2,1,2,1,2,1,2,1,2,1,2,1,2,1,2,1,2,1,2,1,2,1,2,
3,4,3,4,3,4,3,4,3,4,3,4,3,4,3,4,3,4,3,4,3,4,3,4,3,4,3,4,3,4,3,4,3,4,3,4,3,4,3,4,3,4,3,4,3,4,3,4,3,4,3,4,3,4,3,4,3,4,3,4,3,4,3,4,3,4,3,4,3,4,3,4,3,4,3,4,3,4,3,4,3,4,3,4,3,4,3,4,3,4,3,4,3,4,3,4,3,4,3,4,3,4,3,4,3,4,3,4,3,4,3,4,3,4,3,4,3,4,3,4,3,4,22,23,24,25,8,9,16,17,16,115,63,64,61,62,61,62,61,62,61,62,61,62,61,62,61,62,61,62,61,62,61,62,61,62,61,62,61,62,61,62,61,62,38,39,40,41,16,17,16,124,107,106,107,106,107,106,107,106,107,106,107,106,107,108,16,17,16,17,155,160,16,17,16,203,197,198,197,198,197,198,197,198,197,198,16,17,16,17,16,17,16,17,16,115,61,62,61,62,61,62,61,62,61,62,61,62,38,39,40,41,200,189,189,189,189,189,189,189,190,191,16,26,22,23,24,25,22,23,24,25,5,3,4,3,4,3,4,3,4,3,4,3,4,3,4,3,4,3,4,3,4,3,4,3,4,3,4,3,4,3,4,3,4,3,4,3,4,3,4,3,4,3,4,3,4,3,4,3,4,3,4,3,4,3,4,3,4,3,4,3,4,3,4,3,4,3,4,3,4,3,4,3,4,3,4,3,4,3,4,3,4,3,4,3,4,3,4,3,4,3,4,3,4,3,4,3,4,3,4,3,4,3,4,3,4,3,4,3,4,3,4,3,4,3,4,3,4,3,4,3,4,3,4,3,4,3,4,3,4,3,4,3,4,3,4,3,4,3,4,3,4,3,4,3,4,3,4,3,4,3,4,3,4,3,4,3,4,3,4,3,4,3,4,3,4,3,4,3,4,3,4,3,4,3,4,3,4,3,4,3,4,3,4,3,4,3,4,3,4,3,4,3,4,3,4,15,16,17,10,3,4,20,116,106,107,106,107,120,10,3,4,3,4,3,4,3,4,3,4,3,4,3,4,3,4,3,4,3,4,3,4,3,4,3,4,3,4,3,4,3,4,3,4,3,4,3,4,3,4,3,4,3,4,3,4,3,4,3,4,3,
1,2,1,2,1,2,1,2,1,2,1,2,1,2,1,2,1,2,1,2,1,2,1,2,1,2,1,2,1,2,1,2,1,2,1,2,1,2,1,2,1,2,1,2,1,2,1,2,1,2,1,2,1,2,1,2,1,2,1,2,1,2,1,2,1,2,1,2,1,2,1,2,1,2,1,2,1,2,1,2,1,2,1,2,1,2,1,2,1,2,1,2,1,2,1,2,1,2,1,2,1,2,1,2,1,2,1,2,1,2,1,2,1,2,1,2,1,2,1,2,1,6,12,13,12,13,12,13,12,13,12,13,12,13,109,110,48,49,48,49,48,49,48,49,48,49,48,49,48,49,48,49,48,49,48,49,48,49,48,49,48,49,48,49,48,49,48,49,31,32,33,13,122,114,113,114,113,114,113,114,111,114,111,114,111,121,12,13,12,13,167,159,151,150,151,150,151,150,151,150,151,150,151,150,151,150,151,150,151,150,151,28,12,13,12,13,46,47,48,49,48,49,48,49,48,49,48,49,48,49,52,53,201,202,189,189,189,189,189,189,189,213,186,13,12,13,12,13,12,13,54,55,56,2,1,2,1,2,1,2,1,2,1,2,1,2,1,2,1,2,1,2,1,2,1,2,1,2,1,2,1,2,1,2,1,2,1,2,1,2,1,2,1,2,1,2,1,2,1,2,1,2,1,2,1,2,1,2,1,2,1,2,1,2,1,2,1,2,1,2,1,2,1,2,1,2,1,2,1,2,1,2,1,2,1,2,1,2,1,2,1,2,1,2,1,2,1,2,1,2,1,2,1,2,1,2,1,2,1,2,1,2,1,2,1,2,1,2,1,2,1,2,1,2,1,2,1,2,1,2,1,2,1,2,1,2,1,2,1,2,1,2,1,2,1,2,1,2,1,2,1,2,1,2,1,2,1,2,1,2,1,2,1,2,1,2,1,2,1,2,1,2,1,2,1,2,1,2,1,2,1,2,1,2,1,2,1,2,1,2,1,2,1,2,1,2,1,6,12,13,14,2,1,11,122,114,111,114,111,121,14,2,1,2,1,2,1,2,1,2,1,2,1,2,1,2,1,2,1,2,1,2,1,2,1,2,1,2,1,2,1,2,1,2,1,2,1,2,1,2,1,2,1,2,1,2,1,2,1,2,1,2,
3,4,3,4,3,4,3,4,3,4,3,4,3,4,3,4,3,4,3,4,3,4,3,4,3,4,3,4,3,4,3,4,3,4,3,4,3,4,3,4,3,4,3,4,3,4,3,4,3,4,3,4,3,4,3,4,3,4,3,4,3,4,3,4,3,4,3,4,3,4,3,4,3,4,3,4,3,4,3,4,3,4,3,4,3,4,3,4,3,4,3,4,3,4,3,4,3,4,3,4,3,4,3,4,3,4,3,4,3,4,3,4,3,4,3,4,3,4,3,4,8,9,16,17,16,17,16,17,16,17,16,17,16,17,16,115,61,62,61,62,61,62,61,62,61,62,61,62,61,62,61,62,61,62,61,62,61,62,61,62,61,62,61,62,61,62,61,62,38,39,40,41,16,124,107,106,107,106,107,106,118,119,118,119,123,17,16,17,16,17,155,156,157,158,157,158,157,158,157,158,157,158,157,158,157,158,157,158,157,158,159,160,16,17,16,17,59,60,61,62,61,62,61,62,61,62,61,62,61,62,65,17,16,203,197,198,204,189,189,189,189,189,190,191,16,17,16,17,17,35,55,57,3,4,3,4,3,4,3,4,3,4,3,4,3,4,3,4,3,4,3,4,3,4,3,4,3,4,3,4,3,4,3,4,3,4,3,4,3,4,3,4,3,4,3,4,3,4,3,4,3,4,3,4,3,4,3,4,3,4,3,4,3,4,3,4,3,4,3,4,3,4,3,4,3,4,3,4,3,4,3,4,3,4,3,4,3,4,3,4,3,4,3,4,3,4,3,4,3,4,3,4,3,4,3,4,3,4,3,4,3,4,3,4,3,4,3,4,3,4,3,4,3,4,3,4,3,4,3,4,3,4,3,4,3,4,3,4,3,4,3,4,3,4,3,4,3,4,3,4,3,4,3,4,3,4,3,4,3,4,3,4,3,4,3,4,3,4,3,4,3,4,3,4,3,4,3,4,3,4,3,4,3,4,3,4,3,4,3,4,3,4,3,4,3,4,8,9,16,17,18,3,4,15,16,124,118,119,123,17,18,3,4,3,4,3,4,3,4,3,4,3,4,3,4,3,4,3,4,3,4,3,4,3,4,3,4,3,4,3,4,3,4,3,4,3,4,3,4,3,4,3,4,3,4,3,4,3,4,3,4,3,
1,2,1,2,1,2,1,2,1,2,1,2,1,2,1,2,1,2,1,2,1,2,1,2,1,2,1,2,1,2,1,2,1,2,1,2,1,2,1,2,1,2,1,2,1,2,1,2,1,2,1,2,1,2,1,2,1,2,1,2,1,2,1,2,1,2,1,2,1,2,1,2,1,2,1,2,1,2,1,2,1,2,1,2,1,2,1,2,1,2,1,2,1,2,1,2,1,2,1,2,1,2,1,2,1,2,1,2,1,2,1,2,1,2,1,2,1,2,1,27,42,43,44,45,68,69,42,43,42,43,44,45,68,69,28,29,109,110,50,51,50,51,50,51,48,49,48,49,48,49,48,49,48,49,48,49,48,49,48,49,48,49,48,49,48,49,48,49,48,49,48,49,33,13,122,114,111,114,111,121,12,183,184,185,186,13,12,13,12,13,167,168,12,13,12,183,184,185,184,185,184,185,186,13,12,103,111,112,104,13,167,168,12,13,12,13,109,110,48,49,48,49,48,49,48,49,48,49,52,53,54,55,44,45,28,29,201,202,189,189,189,189,195,13,12,13,12,13,54,55,56,2,1,2,1,2,1,2,1,2,1,2,1,2,1,2,1,2,1,2,1,2,1,2,1,2,1,2,1,2,1,2,1,2,1,2,1,2,1,2,1,2,1,2,1,2,1,2,1,2,1,2,1,2,1,2,1,2,1,2,1,2,1,2,1,2,1,2,1,2,1,2,1,2,1,2,1,2,1,2,1,2,1,2,1,2,1,2,1,2,1,2,1,2,1,2,1,2,1,2,1,2,1,2,1,2,1,2,1,2,1,2,1,2,1,2,1,2,1,2,1,2,1,2,1,2,1,2,1,2,1,2,1,2,1,2,1,2,1,2,1,2,1,2,1,2,1,2,1,2,1,2,1,2,1,2,1,2,1,2,1,2,1,2,1,2,1,2,1,2,1,2,1,2,1,2,1,2,1,2,1,2,1,2,1,2,1,2,1,2,1,2,1,2,1,6,12,103,104,13,7,2,1,27,28,29,12,13,54,55,56,2,1,2,1,2,1,2,1,2,1,2,1,2,1,2,1,2,1,2,1,2,1,2,1,2,1,2,1,2,1,2,1,2,1,2,1,2,1,2,1,2,1,2,1,2,1,2,1,2,1,2,
3,4,3,4,3,4,3,4,3,4,3,4,3,4,3,4,3,4,3,4,3,4,3,4,3,4,3,4,3,4,3,4,3,4,3,4,3,4,3,4,3,4,3,4,3,4,3,4,3,4,3,4,3,4,3,4,3,4,3,4,3,4,3,4,3,4,3,4,3,4,3,4,3,4,3,4,3,4,3,4,3,4,3,4,3,4,3,4,3,4,3,4,3,4,3,4,3,4,3,4,3,4,3,4,3,4,3,4,3,4,3,4,3,4,3,4,3,4,3,4,3,57,58,57,3,4,3,57,3,57,58,57,3,4,34,28,16,115,63,64,63,64,63,64,61,62,61,62,61,62,61,62,61,62,61,62,61,62,61,62,61,62,61,62,61,62,61,62,61,62,61,62,40,41,16,124,118,119,123,17,187,188,189,189,190,191,16,17,16,17,155,160,16,17,187,188,189,189,189,189,189,189,190,191,105,106,107,106,107,108,155,160,16,17,16,17,16,115,61,62,61,62,61,62,61,62,61,62,65,17,55,57,58,57,34,28,16,203,197,198,197,198,16,17,16,17,16,17,55,57,3,4,3,4,3,4,3,4,3,4,3,4,3,4,3,4,3,4,3,4,3,4,3,4,3,4,3,4,3,4,3,4,3,4,3,4,3,4,3,4,3,4,3,4,3,4,3,4,3,4,3,4,3,4,3,4,3,4,3,4,3,4,3,4,3,4,3,4,3,4,3,4,3,4,3,4,3,4,3,4,3,4,3,4,3,4,3,4,3,4,3,4,3,4,3,4,3,4,3,4,3,4,3,4,3,4,3,4,3,4,3,4,3,4,3,4,3,4,3,4,3,4,3,4,3,4,3,4,3,4,3,4,3,4,3,4,3,4,3,4,3,4,3,4,3,4,3,4,3,4,3,4,3,4,3,4,3,4,3,4,3,4,3,4,3,4,3,4,3,4,3,4,3,4,3,4,3,4,3,4,3,4,3,4,3,4,3,4,3,4,3,4,3,4,8,9,105,106,107,108,10,3,4,3,34,28,16,17,55,57,3,4,3,4,3,4,3,4,3,4,3,4,3,4,3,4,3,4,3,4,3,4,3,4,3,4,3,4,3,4,3,4,3,4,3,4,3,4,3,4,3,4,3,4,3,4,3,4,3,4,3,4,
1,2,1,2,1,2,1,2,1,2,1,2,1,2,1,2,1,2,1,2,1,2,1,2,1,2,1,2,1,2,1,2,1,2,1,2,1,2,1,2,1,2,1,2,1,2,1,2,1,2,1,2,1,2,1,2,1,2,1,2,1,2,1,2,1,2,1,2,1,2,1,2,1,2,1,2,1,2,1,2,1,2,1,2,1,2,1,2,1,2,1,2,1,2,1,2,1,2,1,2,1,2,1,2,1,2,1,2,1,2,1,2,1,2,1,2,1,2,1,2,1,2,1,2,1,2,1,2,1,2,1,2,1,2,1,27,44,45,68,69,42,43,28,29,109,110,48,49,48,49,48,49,48,49,48,49,48,49,48,49,48,49,48,49,48,49,48,49,48,49,48,49,48,49,33,13,12,183,184,185,192,189,189,189,189,213,184,185,186,13,152,153,12,13,201,202,189,189,189,189,189,189,195,13,113,114,113,114,111,117,152,153,12,13,12,13,12,13,109,110,48,49,48,49,48,49,52,53,54,55,56,2,1,2,1,11,12,13,12,13,12,13,12,13,12,13,12,13,14,2,1,2,1,2,1,2,1,2,1,2,1,2,1,2,1,2,1,2,1,2,1,2,1,2,1,2,1,2,1,2,1,2,1,2,1,2,1,2,1,2,1,2,1,2,1,2,1,2,1,2,1,2,1,2,1,2,1,2,1,2,1,2,1,2,1,2,1,2,1,2,1,2,1,2,1,2,1,2,1,2,1,2,1,2,1,2,1,2,1,2,1,2,1,2,1,2,1,2,1,2,1,2,1,2,1,2,1,2,1,2,1,2,1,2,1,2,1,2,1,2,1,2,1,2,1,2,1,2,1,2,1,2,1,2,1,2,1,2,1,2,1,2,1,2,1,2,1,2,1,2,1,2,1,2,1,2,1,2,1,2,1,2,1,2,1,2,1,2,1,2,1,2,1,2,1,2,1,2,1,2,1,2,1,2,1,2,1,2,1,2,1,2,1,19,12,103,113,114,111,117,21,2,1,2,1,19,12,13,14,2,1,2,1,2,1,2,1,2,1,2,1,2,1,2,1,2,1,2,1,2,1,2,1,2,1,2,1,2,1,2,1,2,1,2,1,2,1,2,1,2,1,2,1,2,1,2,1,2,1,2,1,2,
3,4,3,4,3,4,3,4,3,4,3,4,3,4,3,4,3,4,3,4,3,4,3,4,3,4,3,4,3,4,3,4,3,4,3,4,3,4,3,4,3,4,3,4,3,4,3,4,3,4,3,4,3,4,3,4,3,4,3,4,3,4,3,4,3,4,3,4,3,4,3,4,3,4,3,4,3,4,3,4,3,4,3,4,3,4,3,4,3,4,3,4,3,4,3,4,3,4,3,4,3,4,3,4,3,4,3,4,3,4,3,4,3,4,3,4,3,4,3,4,3,4,3,4,3,4,3,4,3,4,3,4,3,4,3,4,58,57,3,4,3,57,34,28,16,115,61,62,61,62,61,62,61,62,61,62,61,62,61,62,61,62,61,62,61,62,61,62,61,62,61,62,61,62,40,41,187,188,189,189,189,189,189,189,189,189,189,189,190,191,161,162,16,17,16,203,197,198,204,189,189,196,16,17,116,106,107,106,107,120,161,162,16,17,16,17,16,17,16,115,61,62,61,62,61,62,65,17,55,57,3,4,3,4,3,15,16,17,16,17,16,17,16,17,16,17,16,17,18,3,4,3,4,3,4,3,4,3,4,3,4,3,4,3,4,3,4,3,4,3,4,3,4,3,4,3,4,3,4,3,4,3,4,3,4,3,4,3,4,3,4,3,4,3,4,3,4,3,4,3,4,3,4,3,4,3,4,3,4,3,4,3,4,3,4,3,4,3,4,3,4,3,4,3,4,3,4,3,4,3,4,3,4,3,4,3,4,3,4,3,4,3,4,3,4,3,4,3,4,3,4,3,4,3,4,3,4,3,4,3,4,3,4,3,4,3,4,3,4,3,4,3,4,3,4,3,4,3,4,3,4,3,4,3,4,3,4,3,4,3,4,3,4,3,4,3,4,3,4,3,4,3,4,3,4,3,4,3,4,3,4,3,4,3,4,3,4,3,4,3,4,3,4,3,4,3,4,3,4,3,4,3,4,3,4,3,4,3,4,3,4,3,4,20,105,106,107,106,107,120,16,26,5,3,4,20,35,17,18,3,4,3,4,3,4,3,4,3,4,3,4,3,4,3,4,3,4,3,4,3,4,3,4,3,4,3,4,3,4,3,4,3,4,3,4,3,4,3,4,3,4,3,4,3,4,3,4,3,4,3,4,3,
1,2,1,2,1,2,1,2,1,2,1,2,1,2,1,2,1,2,1,2,1,2,1,2,1,2,1,2,1,2,1,2,1,2,1,2,1,2,1,2,1,2,1,2,1,2,1,2,1,2,1,2,1,2,1,2,1,2,1,2,1,2,1,2,1,2,1,2,1,2,1,2,1,2,1,2,1,2,1,2,1,2,1,2,1,2,1,2,1,2,1,2,1,2,1,2,1,2,1,2,1,2,1,2,1,2,1,2,1,2,1,2,1,2,1,2,1,2,1,2,1,2,1,2,1,2,1,2,1,2,1,2,1,2,1,2,1,2,1,2,1,2,1,27,28,29,109,110,50,51,48,49,48,49,48,49,48,49,48,49,48,49,48,49,48,49,48,49,48,49,48,49,48,49,66,67,199,189,189,189,189,189,189,189,189,189,189,189,195,13,167,168,12,13,12,13,12,13,201,202,195,13,12,103,113,114,113,114,111,117,167,159,151,150,151,150,151,28,12,13,109,110,50,51,52,53,54,55,56,2,1,2,1,2,1,6,12,13,54,55,28,29,12,13,12,13,12,13,7,2,1,2,1,2,1,2,1,2,1,2,1,2,1,2,1,2,1,2,1,2,1,2,1,2,1,2,1,2,1,2,1,2,1,2,1,2,1,2,1,2,1,2,1,2,1,2,1,2,1,2,1,2,1,2,1,2,1,2,1,2,1,2,1,2,1,2,1,2,1,2,1,2,1,2,1,2,1,2,1,2,1,2,1,2,1,2,1,2,1,2,1,2,1,2,1,2,1,2,1,2,1,2,1,2,1,2,1,2,1,2,1,2,1,2,1,2,1,2,1,2,1,2,1,2,1,2,1,2,1,2,1,2,1,2,1,2,1,2,1,2,1,2,1,2,1,2,1,2,1,2,1,2,1,2,1,2,1,2,1,2,1,2,1,2,1,2,1,2,1,2,1,2,1,2,1,2,1,2,1,2,1,2,1,2,1,2,1,2,1,2,1,2,1,6,113,114,113,114,113,114,104,13,14,2,1,27,28,29,7,2,1,2,1,2,1,2,1,2,1,2,1,2,1,2,1,2,1,2,1,2,1,2,1,2,1,2,1,2,1,2,1,2,1,2,1,2,1,2,1,2,1,2,1,2,1,2,1,2,1,2,1,2,
3,4,3,4,3,4,3,4,3,4,3,4,3,4,3,4,3,4,3,4,3,4,3,4,3,4,3,4,3,4,3,4,3,4,3,4,3,4,3,4,3,4,3,4,3,4,3,4,3,4,3,4,3,4,3,4,3,4,3,4,3,4,3,4,3,4,3,4,3,4,3,4,3,4,3,4,3,4,3,4,3,4,3,4,3,4,3,4,3,4,3,4,3,4,3,4,3,4,3,4,3,4,3,4,3,4,3,4,3,4,3,4,3,4,3,4,3,4,3,4,3,4,3,4,3,4,3,4,3,4,3,4,3,4,3,4,3,4,3,4,3,4,3,4,34,28,16,115,63,64,61,62,61,62,61,62,61,62,61,62,61,62,61,62,61,62,61,62,61,62,61,62,61,62,70,71,200,189,189,189,189,196,197,198,197,198,197,198,16,17,155,160,16,17,16,17,16,17,16,203,16,17,105,106,107,106,107,106,107,120,21,158,157,158,157,158,159,160,16,17,16,115,63,64,65,17,55,57,3,4,3,4,3,4,8,9,16,17,55,57,34,28,16,17,16,17,16,17,10,3,4,3,4,3,4,3,4,3,4,3,4,3,4,3,4,3,4,3,4,3,4,3,4,3,4,3,4,3,4,3,4,3,4,3,4,3,4,3,4,3,4,3,4,3,4,3,4,3,4,3,4,3,4,3,4,3,4,3,4,3,4,3,4,3,4,3,4,3,4,3,4,3,4,3,4,3,4,3,4,3,4,3,4,3,4,3,4,3,4,3,4,3,4,3,4,3,4,3,4,3,4,3,4,3,4,3,4,3,4,3,4,3,4,3,4,3,4,3,4,3,4,3,4,3,4,3,4,3,4,3,4,3,4,3,4,3,4,3,4,3,4,3,4,3,4,3,4,3,4,3,4,3,4,3,4,3,4,3,4,3,4,3,4,3,4,3,4,3,4,3,4,3,4,3,4,3,4,3,4,3,4,3,4,3,4,3,4,3,4,3,4,4,8,9,116,106,107,106,107,106,107,108,18,3,4,3,34,28,10,3,4,3,4,3,4,3,4,3,4,3,4,3,4,3,4,3,4,3,4,3,4,3,4,3,4,3,4,3,4,3,4,3,4,3,4,3,4,3,4,3,4,3,4,3,4,3,4,3,4,3,4,3,
1,2,1,2,1,2,1,2,1,2,1,2,1,2,1,2,1,2,1,2,1,2,1,2,1,2,1,2,1,2,1,2,1,2,1,2,1,2,1,2,1,2,1,2,1,2,1,2,1,2,1,2,1,2,1,2,1,2,1,2,1,2,1,2,1,2,1,2,1,2,1,2,1,2,1,2,1,2,1,2,1,2,1,2,1,2,1,2,1,2,1,2,1,2,1,2,1,2,1,2,1,2,1,2,1,2,1,2,1,2,1,2,1,2,1,2,1,2,1,2,1,2,1,2,1,2,1,2,1,2,1,2,1,2,1,2,1,2,1,2,1,2,1,2,1,27,28,29,12,13,109,110,48,49,48,49,48,49,48,49,48,49,48,49,48,49,48,49,48,49,48,49,48,49,66,67,199,189,189,189,189,193,55,150,151,150,151,150,151,150,181,168,12,183,186,13,12,13,12,13,12,13,122,114,113,114,113,114,113,114,104,13,12,13,12,13,167,168,12,13,54,55,44,45,42,43,56,2,1,2,1,2,1,6,12,13,54,55,56,2,1,19,12,13,12,13,12,13,14,2,1,2,1,2,1,2,1,2,1,2,1,2,1,2,1,2,1,2,1,2,1,2,1,2,1,2,1,2,1,2,1,2,1,2,1,2,1,2,1,2,1,2,1,2,1,2,1,2,1,2,1,2,1,2,1,2,1,2,1,2,1,2,1,2,1,2,1,2,1,2,1,2,1,2,1,2,1,2,1,2,1,2,1,2,1,2,1,2,1,2,1,2,1,2,1,2,1,2,1,2,1,2,1,2,1,2,1,2,1,2,1,2,1,2,1,2,1,2,1,2,1,2,1,2,1,2,1,2,1,2,1,2,1,2,1,2,1,2,1,2,1,2,1,2,1,2,1,2,1,2,1,2,1,2,1,2,1,2,1,2,1,2,1,2,1,2,1,2,1,2,1,2,1,2,1,2,1,2,1,2,1,2,1,2,1,2,1,2,1,2,1,27,28,29,122,114,111,114,111,114,111,121,21,2,1,2,1,27,56,2,1,2,1,2,1,2,1,2,1,2,1,2,1,2,1,2,1,2,1,2,1,2,1,2,1,2,1,2,1,2,1,2,1,2,1,2,1,2,1,2,1,2,1,2,1,2,1,2,1,2,1,2,
3,4,3,4,3,4,3,4,3,4,3,4,3,4,3,4,3,4,3,4,3,4,3,4,3,4,3,4,3,4,3,4,3,4,3,4,3,4,3,4,3,4,3,4,3,4,3,4,3,4,3,4,3,4,3,4,3,4,3,4,3,4,3,4,3,4,3,4,3,4,3,4,3,4,3,4,3,4,3,4,3,4,3,4,3,4,3,4,3,4,3,4,3,4,3,4,3,4,3,4,3,4,3,4,3,4,3,4,3,4,3,4,3,4,3,4,3,4,3,4,3,4,3,4,3,4,3,4,3,4,3,4,3,4,3,4,3,4,3,4,3,4,3,4,3,4,34,28,16,17,16,115,61,62,61,62,61,62,61,62,61,62,61,62,61,62,61,62,61,62,61,62,61,62,70,71,200,189,189,189,189,194,155,156,157,158,157,158,157,158,157,6,187,188,190,191,16,17,16,17,16,17,16,124,107,106,107,106,107,106,107,108,16,17,16,17,155,160,16,17,55,57,58,57,3,57,3,4,3,4,3,4,8,9,16,17,55,57,3,4,3,20,16,17,16,17,16,17,18,3,4,3,4,3,4,3,4,3,4,3,4,3,4,3,4,3,4,3,4,3,4,3,4,3,4,3,4,3,4,3,4,3,4,3,4,3,4,3,4,3,4,3,4,3,4,3,4,3,4,3,4,3,4,3,4,3,4,3,4,3,4,3,4,3,4,3,4,3,4,3,4,3,4,3,4,3,4,3,4,3,4,3,4,3,4,3,4,3,4,3,4,3,4,3,4,3,4,3,4,3,4,3,4,3,4,3,4,3,4,3,4,3,4,3,4,3,4,3,4,3,4,3,4,3,4,3,4,3,4,3,4,3,4,3,4,3,4,3,4,3,4,3,4,3,4,3,4,3,4,3,4,3,4,3,4,3,4,3,4,3,4,3,4,3,4,3,4,3,4,3,4,3,4,3,4,3,4,3,4,3,4,3,4,3,4,3,4,3,4,3,4,3,34,28,16,124,118,119,118,119,123,17,16,26,5,3,4,3,4,3,4,3,4,3,4,3,4,3,4,3,4,3,4,3,4,3,4,3,4,3,4,3,4,3,4,3,4,3,4,3,4,3,4,3,4,3,4,3,4,3,4,3,4,3,4,3,4,3,4,3,4,3,
1,2,1,2,1,2,1,2,1,2,1,2,1,2,1,2,1,2,1,2,1,2,1,2,1,2,1,2,1,2,1,2,1,2,1,2,1,2,1,2,1,2,1,2,1,2,1,2,1,2,1,2,1,2,1,2,1,2,1,2,1,2,1,2,1,2,1,2,1,2,1,2,1,2,1,2,1,2,1,2,1,2,1,2,1,2,1,2,1,2,1,2,1,2,1,2,1,2,1,2,1,2,1,2,1,2,1,2,1,2,1,2,1,2,1,2,1,2,1,2,1,2,1,2,1,2,1,2,1,2,1,2,1,2,1,2,1,2,1,2,1,2,1,2,1,2,1,27,28,29,12,13,46,47,48,49,48,49,48,49,48,49,48,49,48,49,48,49,48,49,48,49,48,49,52,53,199,189,189,189,189,193,167,168,12,183,184,185,184,185,184,185,192,189,189,193,12,132,133,134,135,13,12,13,122,114,113,114,113,114,113,114,111,112,104,13,167,159,151,150,56,2,125,2,125,2,125,2,1,2,1,19,12,13,12,13,14,2,1,2,1,11,12,13,12,13,12,13,7,2,1,2,1,2,1,2,1,2,1,2,1,2,1,2,1,2,1,2,1,2,1,2,1,2,1,2,1,2,1,2,1,2,1,2,1,2,1,2,1,2,1,2,1,2,1,2,1,2,1,2,1,2,1,2,1,2,1,2,1,2,1,2,1,2,1,2,1,2,1,2,1,2,1,2,1,2,1,2,1,2,1,2,1,2,1,2,1,2,1,2,1,2,1,2,1,2,1,2,1,2,1,2,1,2,1,2,1,2,1,2,1,2,1,2,1,2,1,2,1,2,1,2,1,2,1,2,1,2,1,2,1,2,1,2,1,2,1,2,1,2,1,2,1,2,1,2,1,2,1,2,1,2,1,2,1,2,1,2,1,2,1,2,1,2,1,2,1,2,1,2,1,2,1,2,1,2,1,2,1,2,1,2,1,2,1,2,1,2,1,2,1,2,1,27,42,43,44,45,68,69,28,29,12,13,21,2,1,2,1,2,1,2,1,2,1,2,1,2,1,2,1,2,1,2,1,2,1,2,1,2,1,2,1,2,1,2,1,2,1,2,1,2,1,2,1,2,1,2,1,2,1,2,1,2,1,2,1,2,1,2,1,2,
3,4,3,4,3,4,3,4,3,4,3,4,3,4,3,4,3,4,3,4,3,4,3,4,3,4,3,4,3,4,3,4,3,4,3,4,3,4,3,4,3,4,3,4,3,4,3,4,3,4,3,4,3,4,3,4,3,4,3,4,3,4,3,4,3,4,3,4,3,4,3,4,3,4,3,4,3,4,3,4,3,4,3,4,3,4,3,4,3,4,3,4,3,4,3,4,3,4,3,4,3,4,3,4,3,4,3,4,3,4,3,4,3,4,3,4,3,4,3,4,3,4,3,4,3,4,3,4,3,4,3,4,3,4,3,4,3,4,3,4,3,4,3,4,3,4,3,4,34,28,16,17,59,60,61,62,61,62,61,62,61,62,61,62,61,62,61,62,61,62,61,62,61,62,65,17,200,189,189,189,189,194,155,160,187,188,189,189,189,189,189,189,189,189,189,194,132,136,137,137,137,135,16,17,16,124,107,106,107,106,107,106,107,106,107,108,21,158,157,158,5,3,126,127,126,127,126,127,3,4,3,20,35,17,16,17,18,3,4,3,4,15,35,17,16,17,16,17,10,3,4,3,4,3,4,3,4,3,4,3,4,3,4,3,4,3,4,3,4,3,4,3,4,3,4,3,4,3,4,3,4,3,4,3,4,3,4,3,4,3,4,3,4,3,4,3,4,3,4,3,4,3,4,3,4,3,4,3,4,3,4,3,4,3,4,3,4,3,4,3,4,3,4,3,4,3,4,3,4,3,4,3,4,3,4,3,4,3,4,3,4,3,4,3,4,3,4,3,4,3,4,3,4,3,4,3,4,3,4,3,4,3,4,3,4,3,4,3,4,3,4,3,4,3,4,3,4,3,4,3,4,3,4,3,4,3,4,3,4,3,4,3,4,3,4,3,4,3,4,3,4,3,4,3,4,3,4,3,4,3,4,3,4,3,4,3,4,3,4,3,4,3,4,3,4,3,4,3,4,3,4,3,4,3,4,3,4,3,4,3,4,3,4,3,4,57,58,57,3,4,34,28,35,17,16,26,5,3,4,3,4,3,4,3,4,3,4,3,4,3,4,3,4,3,4,3,4,3,4,3,4,3,4,3,4,3,4,3,4,3,4,3,4,3,4,3,4,3,4,3,4,3,4,3,4,3,4,3,4,3,4,3,
1,2,1,2,1,2,1,2,1,2,1,2,1,2,1,2,1,2,1,2,1,2,1,2,1,2,1,2,1,2,1,2,1,2,1,2,1,2,1,2,1,2,1,2,1,2,1,2,1,2,1,2,1,2,1,2,1,2,1,2,1,2,1,2,1,2,1,2,1,2,1,2,1,2,1,2,1,2,1,2,1,2,1,2,1,2,1,2,1,2,1,2,1,2,1,2,1,2,1,2,1,2,1,2,1,2,1,2,1,2,1,2,1,2,1,2,1,2,1,2,1,2,1,2,1,2,1,2,1,2,1,2,1,2,1,2,1,2,1,2,1,2,1,2,1,2,1,2,1,27,28,29,109,110,48,49,48,49,48,49,48,49,48,49,48,49,50,51,50,51,50,51,52,53,12,13,199,189,189,189,189,193,167,168,199,189,189,189,189,189,189,189,189,189,195,13,138,137,137,137,137,137,133,134,135,13,122,114,111,114,111,114,111,114,111,121,12,13,12,13,14,2,1,2,125,2,125,2,1,2,1,27,28,29,12,13,7,2,1,2,1,27,28,29,12,13,12,13,7,2,1,2,1,2,1,2,1,2,1,2,1,2,1,2,1,2,1,2,1,2,1,2,1,2,1,2,1,2,1,2,1,2,1,2,1,2,1,2,1,2,1,2,1,2,1,2,1,2,1,2,1,2,1,2,1,2,1,2,1,2,1,2,1,2,1,2,1,2,1,2,1,2,1,2,1,2,1,2,1,2,1,2,1,2,1,2,1,2,1,2,1,2,1,2,1,2,1,2,1,2,1,2,1,2,1,2,1,2,1,2,1,2,1,2,1,2,1,2,1,2,1,2,1,2,1,2,1,2,1,2,1,2,1,2,1,2,1,2,1,2,1,2,1,2,1,2,1,2,1,2,1,2,1,2,1,2,1,2,1,2,1,2,1,2,1,2,1,2,1,2,1,2,1,2,1,2,1,2,1,2,1,2,1,2,1,2,1,2,1,2,1,2,1,2,1,2,1,2,1,2,1,27,28,29,12,13,7,2,1,2,1,2,1,2,1,2,1,2,1,2,1,2,1,2,1,2,1,2,1,2,1,2,1,2,1,2,1,2,1,2,1,2,1,2,1,2,1,2,1,2,1,2,1,2,1,2,1,2,1,2,1,2,
3,4,3,4,3,4,3,4,3,4,3,4,3,4,3,4,3,4,3,4,3,4,3,4,3,4,3,4,3,4,3,4,3,4,3,4,3,4,3,4,3,4,3,4,3,4,3,4,3,4,3,4,3,4,3,4,3,4,3,4,3,4,3,4,3,4,3,4,3,4,3,4,3,4,3,4,3,4,3,4,3,4,3,4,3,4,3,4,3,4,3,4,3,4,3,4,3,4,3,4,3,4,3,4,3,4,3,4,3,4,3,4,3,4,3,4,3,4,3,4,3,4,3,4,3,4,3,4,3,4,3,4,3,4,3,4,3,4,3,4,3,4,3,4,3,4,3,4,3,4,34,28,16,115,61,62,61,62,61,62,61,62,61,62,61,62,63,64,63,64,63,64,65,17,16,17,200,189,189,189,189,194,155,160,200,189,189,189,189,196,197,198,197,198,16,17,139,137,137,137,137,137,137,137,137,135,16,124,118,119,118,119,118,119,123,17,16,17,16,17,18,127,3,4,126,127,126,127,3,4,3,4,34,28,16,17,10,3,4,3,4,3,34,28,16,17,16,17,10,3,4,3,4,3,4,3,4,3,4,3,4,3,4,3,4,3,4,3,4,3,4,3,4,3,4,3,4,3,4,3,4,3,4,3,4,3,4,3,4,3,4,3,4,3,4,3,4,3,4,3,4,3,4,3,4,3,4,3,4,3,4,3,4,3,4,3,4,3,4,3,4,3,4,3,4,3,4,3,4,3,4,3,4,3,4,3,4,3,4,3,4,3,4,3,4,3,4,3,4,3,4,3,4,3,4,3,4,3,4,3,4,3,4,3,4,3,4,3,4,3,4,3,4,3,4,3,4,3,4,3,4,3,4,3,4,3,4,3,4,3,4,3,4,3,4,3,4,3,4,3,4,3,4,3,4,3,4,3,4,3,4,3,4,3,4,3,4,3,4,3,4,3,4,3,4,3,4,3,4,3,4,3,4,3,4,3,4,4,5,3,4,3,4,3,4,3,4,3,4,3,4,3,34,28,17,35,10,3,4,3,4,3,4,3,4,3,4,3,4,3,4,3,4,3,4,3,4,3,4,3,4,3,4,3,4,3,4,3,4,3,4,3,4,3,4,3,4,3,4,3,4,3,4,3,4,3,4,3,4,3,4,3,
1,2,1,2,1,2,1,2,1,2,1,2,1,2,1,2,1,2,1,2,1,2,1,2,1,2,1,2,1,2,1,2,1,2,1,2,1,2,1,2,1,2,1,2,1,2,1,2,1,2,1,2,1,2,1,2,1,2,1,2,1,2,1,2,1,2,1,2,1,2,1,2,1,2,1,2,1,2,1,2,1,2,1,2,1,2,1,2,1,2,1,2,1,2,1,2,1,2,1,2,1,2,1,2,1,2,1,2,1,2,1,2,1,2,1,2,1,2,1,2,1,2,1,2,1,2,1,2,1,2,1,2,1,2,1,2,1,2,1,2,1,2,1,2,1,2,1,2,1,2,1,19,12,13,109,110,48,49,48,49,48,49,48,49,52,53,12,13,12,13,54,55,28,29,12,13,201,202,189,189,195,13,167,168,201,202,189,189,195,13,12,13,12,13,12,132,136,137,137,137,137,137,137,137,137,137,135,13,12,13,12,13,163,164,165,166,12,13,12,13,14,2,125,2,125,2,1,2,1,2,1,2,1,11,12,13,14,2,1,2,1,2,1,19,12,13,12,13,21,2,1,2,1,2,1,2,1,2,1,2,1,2,1,2,1,2,1,2,1,2,1,2,1,2,1,2,1,2,1,2,1,2,1,2,1,2,1,2,1,2,1,2,1,2,1,2,1,2,1,2,1,2,1,2,1,2,1,2,1,2,1,2,1,2,1,2,1,2,1,2,1,2,1,2,1,2,1,2,1,2,1,2,1,2,1,2,1,2,1,2,1,2,1,2,1,2,1,2,1,2,1,2,1,2,1,2,1,2,1,2,1,2,1,2,1,2,1,2,1,2,1,2,1,2,1,2,1,2,1,2,1,2,1,2,1,2,1,2,1,2,1,2,1,2,1,2,1,2,1,2,1,2,1,2,1,2,1,2,1,2,1,2,1,2,1,2,1,2,1,2,1,2,1,2,1,2,1,2,1,2,1,2,1,2,1,2,1,6,21,2,1,2,1,2,1,2,1,2,1,2,1,2,1,27,42,43,56,2,1,2,1,2,1,2,1,2,1,2,1,2,1,2,1,2,1,2,1,2,1,2,1,2,1,2,1,2,1,2,1,2,1,2,1,2,1,2,1,2,1,2,1,2,1,2,1,2,1,2,1,2,1,2,
3,4,3,4,3,4,3,4,3,4,3,4,3,4,3,4,3,4,3,4,3,4,3,4,3,4,3,4,3,4,3,4,3,4,3,4,3,4,3,4,3,4,3,4,3,4,3,4,3,4,3,4,3,4,3,4,3,4,3,4,3,4,3,4,3,4,3,4,3,4,3,4,3,4,3,4,3,4,3,4,3,4,3,4,3,4,3,4,3,4,3,4,3,4,3,4,3,4,3,4,3,4,3,4,3,4,3,4,3,4,3,4,3,4,3,4,3,4,3,4,3,4,3,4,3,4,3,4,3,4,3,4,3,4,3,4,3,4,3,4,3,4,3,4,3,4,3,4,3,4,3,20,35,17,16,115,61,62,61,62,61,62,61,62,65,17,16,17,17,35,55,57,34,28,16,17,16,203,197,198,16,17,155,160,16,203,197,198,16,17,16,17,16,17,132,136,137,137,137,137,137,137,137,137,137,137,137,135,16,17,16,17,169,170,171,172,16,17,16,17,18,127,126,127,126,127,3,4,3,4,3,4,3,15,16,17,18,3,4,3,4,3,4,20,16,17,16,17,16,26,5,3,4,3,4,3,4,3,4,3,4,3,4,3,4,3,4,3,4,3,4,3,4,3,4,3,4,3,4,3,4,3,4,3,4,3,4,3,4,3,4,3,4,3,4,3,4,3,4,3,4,3,4,3,4,3,4,3,4,3,4,3,4,3,4,3,4,3,4,3,4,3,4,3,4,3,4,3,4,3,4,3,4,3,4,3,4,3,4,3,4,3,4,3,4,3,4,3,4,3,4,3,4,3,4,3,4,3,4,3,4,3,4,3,4,3,4,3,4,3,4,3,4,3,4,3,4,3,4,3,4,3,4,3,4,3,4,3,4,3,4,3,4,3,4,3,4,3,4,3,4,3,4,3,4,3,4,3,4,3,4,3,4,3,4,3,4,3,4,3,4,3,4,3,4,3,4,3,4,3,4,3,4,3,4,4,8,9,16,26,3,4,3,4,3,4,3,4,3,4,3,4,3,4,3,57,3,4,3,4,3,4,3,4,3,4,3,4,3,4,3,4,3,4,3,4,3,4,3,4,3,4,3,4,3,4,3,4,3,4,3,4,3,4,3,4,3,4,3,4,3,4,3,4,3,4,3,4,3,4,3,4,
1,2,1,2,1,2,1,2,1,2,1,2,1,2,1,2,1,2,1,2,1,2,1,2,1,2,1,2,1,2,1,2,1,2,1,2,1,2,1,2,1,2,1,2,1,2,1,2,1,2,1,2,1,2,1,2,1,2,1,2,1,2,1,2,1,2,1,2,1,2,1,2,1,2,1,2,1,2,1,2,1,2,1,2,1,2,1,2,1,2,1,2,1,2,1,2,1,2,1,2,1,2,1,2,1,2,1,2,1,2,1,2,1,2,1,2,1,2,1,2,1,2,1,2,1,2,1,2,1,2,1,2,1,2,1,2,1,2,1,2,1,2,1,2,1,2,1,2,1,2,1,27,28,29,12,13,109,110,48,49,48,49,52,53,12,13,54,55,42,43,56,2,1,27,28,29,12,13,12,13,54,55,214,2,68,69,28,29,12,132,133,134,133,134,136,137,137,137,137,137,137,137,137,137,137,137,137,140,12,13,212,211,173,174,175,176,209,210,12,13,14,2,125,2,1,2,1,2,1,2,1,2,1,19,12,13,7,2,1,2,1,2,1,11,12,13,12,13,54,55,56,2,1,2,1,2,1,2,1,2,1,2,1,2,1,2,1,2,1,2,1,2,1,2,1,2,1,2,1,2,1,2,1,2,1,2,1,2,1,2,1,2,1,2,1,2,1,2,1,2,1,2,1,2,1,2,1,2,1,2,1,2,1,2,1,2,1,2,1,2,1,2,1,2,1,2,1,2,1,2,1,2,1,2,1,2,1,2,1,2,1,2,1,2,1,2,1,2,1,2,1,2,1,2,1,2,1,2,1,2,1,2,1,2,1,2,1,2,1,2,1,2,1,2,1,2,1,2,1,2,1,2,1,2,1,2,1,2,1,2,1,2,1,2,1,2,1,2,1,2,1,2,1,2,1,2,1,2,1,2,1,2,1,2,1,2,1,2,1,2,1,2,1,2,1,2,1,2,1,2,1,2,1,2,1,6,12,13,12,13,21,2,1,2,1,2,1,2,1,2,1,2,1,2,1,2,1,2,1,2,1,2,1,2,1,2,1,2,1,2,1,2,1,2,1,2,1,2,1,2,1,2,1,2,1,2,1,2,1,2,1,2,1,2,1,2,1,2,1,2,1,2,1,2,1,2,1,2,1,2,1,2,
3,4,3,4,3,4,3,4,3,4,3,4,3,4,3,4,3,4,3,4,3,4,3,4,3,4,3,4,3,4,3,4,3,4,3,4,3,4,3,4,3,4,3,4,3,4,3,4,3,4,3,4,3,4,3,4,3,4,3,4,3,4,3,4,3,4,3,4,3,4,3,4,3,4,3,4,3,4,3,4,3,4,3,4,3,4,3,4,3,4,3,4,3,4,3,4,3,4,3,4,3,4,3,4,3,4,3,4,3,4,3,4,3,4,3,4,3,4,3,4,3,4,3,4,3,4,3,4,3,4,3,4,3,4,3,4,3,4,3,4,3,4,3,4,3,4,3,4,3,4,3,4,34,28,16,17,16,115,61,62,61,62,65,17,16,17,55,57,3,57,3,4,3,4,34,28,35,17,16,17,55,57,3,4,3,4,34,28,132,136,137,137,137,137,137,137,137,137,137,137,137,137,137,137,137,137,137,141,16,17,211,209,177,178,179,180,211,17,16,17,18,127,126,127,3,4,3,4,3,4,3,4,3,20,17,35,10,3,4,3,4,3,4,15,16,17,17,35,55,57,3,4,3,4,3,4,3,4,3,4,3,4,3,4,3,4,3,4,3,4,3,4,3,4,3,4,3,4,3,4,3,4,3,4,3,4,3,4,3,4,3,4,3,4,3,4,3,4,3,4,3,4,3,4,3,4,3,4,3,4,3,4,3,4,3,4,3,4,3,4,3,4,3,4,3,4,3,4,3,4,3,4,3,4,3,4,3,4,3,4,3,4,3,4,3,4,3,4,3,4,3,4,3,4,3,4,3,4,3,4,3,4,3,4,3,4,3,4,3,4,3,4,3,4,3,4,3,4,3,4,3,4,3,4,3,4,3,4,3,4,3,4,3,4,3,4,3,4,3,4,3,4,3,4,3,4,3,4,3,4,3,4,3,4,3,4,3,4,3,4,3,4,3,4,3,4,3,4,3,4,22,23,24,25,8,9,16,17,16,17,16,26,22,23,24,25,5,3,4,3,4,3,4,3,4,3,4,3,4,3,4,3,4,3,4,3,4,3,4,3,4,3,4,3,4,3,4,3,4,3,4,3,4,3,4,3,4,3,4,3,4,3,4,3,4,3,4,3,4,3,4,3,4,3,4,3,4,3,4,3,4,3,
1,2,1,2,1,2,1,2,1,2,1,2,1,2,1,2,1,2,1,2,1,2,1,2,1,2,1,2,1,2,1,2,1,2,1,2,1,2,1,2,1,2,1,2,1,2,1,2,1,2,1,2,1,2,1,2,1,2,1,2,1,2,1,2,1,2,1,2,1,2,1,2,1,2,1,2,1,2,1,2,1,2,1,2,1,2,1,2,1,2,1,2,1,2,1,2,1,2,1,2,1,2,1,2,1,2,1,2,1,2,1,2,1,2,1,2,1,2,1,2,1,2,1,2,1,2,1,2,1,2,1,2,1,2,1,2,1,2,1,2,1,2,1,2,1,2,1,2,1,2,1,2,1,19,12,13,12,13,109,110,52,53,12,13,12,13,14,2,1,2,1,2,1,2,1,27,42,43,44,45,56,2,1,2,1,2,1,6,138,137,137,137,137,137,137,137,137,137,137,137,137,137,137,137,137,137,137,137,135,13,209,210,12,13,12,13,212,211,12,13,21,2,1,2,1,2,1,2,1,2,1,2,1,11,54,55,56,2,1,2,1,2,1,6,12,13,54,55,56,2,1,2,1,2,1,2,1,2,1,2,1,2,1,2,1,2,1,2,1,2,1,2,1,2,1,2,1,2,1,2,1,2,1,2,1,2,1,2,1,2,1,2,1,2,1,2,1,2,1,2,1,2,1,2,1,2,1,2,1,2,1,2,1,2,1,2,1,2,1,2,1,2,1,2,1,2,1,2,1,2,1,2,1,2,1,2,1,2,1,2,1,2,1,2,1,2,1,2,1,2,1,2,1,2,1,2,1,2,1,2,1,2,1,2,1,2,1,2,1,2,1,2,1,2,1,2,1,2,1,2,1,2,1,2,1,2,1,2,1,2,1,2,1,2,1,2,1,2,1,2,1,2,1,2,1,2,1,2,1,2,1,2,1,2,1,2,1,2,1,2,1,2,1,2,1,2,1,2,1,6,12,13,12,13,12,13,12,13,12,13,12,13,12,13,12,13,21,2,1,2,1,2,1,2,1,2,1,2,1,2,1,2,1,2,1,2,1,2,1,2,1,2,1,2,1,2,1,2,1,2,1,2,1,2,1,2,1,2,1,2,1,2,1,2,1,2,1,2,1,2,1,2,1,2,1,2,1,2,1,2,1,2,
3,4,3,4,3,4,3,4,3,4,3,4,3,4,3,4,3,4,3,4,3,4,3,4,3,4,3,4,3,4,3,4,3,4,3,4,3,4,3,4,3,4,3,4,3,4,3,4,3,4,3,4,3,4,3,4,3,4,3,4,3,4,3,4,3,4,3,4,3,4,3,4,3,4,3,4,3,4,3,4,3,4,3,4,3,4,3,4,3,4,3,4,3,4,3,4,3,4,3,4,3,4,3,4,3,4,3,4,3,4,3,4,3,4,3,4,3,4,3,4,3,4,3,4,3,4,3,4,3,4,3,4,3,4,3,4,3,4,3,4,3,4,3,4,3,4,3,4,3,4,3,4,3,20,16,17,16,17,16,115,65,17,16,17,16,17,18,3,4,3,4,3,4,3,4,3,4,57,58,57,3,4,3,4,3,4,8,9,139,137,137,137,137,137,137,137,137,137,137,137,137,137,137,137,137,137,137,137,137,135,211,17,16,17,16,17,211,209,16,17,16,26,5,3,4,3,4,3,4,3,4,3,4,15,55,57,3,4,3,4,3,4,8,9,16,17,55,57,3,4,3,4,3,4,3,4,3,4,3,4,3,4,3,4,3,4,3,4,3,4,3,4,3,4,3,4,3,4,3,4,3,4,3,4,3,4,3,4,3,4,3,4,3,4,3,4,3,4,3,4,3,4,3,4,3,4,3,4,3,4,3,4,3,4,3,4,3,4,3,4,3,4,3,4,3,4,3,4,3,4,3,4,3,4,3,4,3,4,3,4,3,4,3,4,3,4,3,4,3,4,3,4,3,4,3,4,3,4,3,4,3,4,3,4,3,4,3,4,3,4,3,4,3,4,3,4,3,4,3,4,3,4,3,4,3,4,3,4,3,4,3,4,3,4,3,4,3,4,3,4,3,4,3,4,3,4,3,4,3,4,3,4,3,4,3,4,3,4,3,4,3,4,3,4,3,4,3,4,8,9,16,17,16,17,16,17,16,17,16,17,16,17,16,17,16,17,16,26,5,3,4,3,4,3,4,3,4,3,4,3,4,3,4,3,4,3,4,3,4,3,4,3,4,3,4,3,4,3,4,3,4,3,4,3,4,3,4,3,4,3,4,3,4,3,4,3,4,3,4,3,4,3,4,3,4,3,4,3,4,3,4,3,
1,2,1,2,1,2,1,2,1,2,1,2,1,2,1,2,1,2,1,2,1,2,1,2,1,2,1,2,1,2,1,2,1,2,1,2,1,2,1,2,1,2,1,2,1,2,1,2,1,2,1,2,1,2,1,2,1,2,1,2,1,2,1,2,1,2,1,2,1,2,1,2,1,2,1,2,1,2,1,2,1,2,1,2,1,2,1,2,1,2,1,2,1,2,1,2,1,2,1,2,1,2,1,2,1,2,1,2,1,2,1,2,1,2,1,2,1,2,1,2,1,2,1,2,1,2,1,2,1,2,1,2,1,2,1,2,1,2,1,2,1,2,1,2,1,2,1,2,1,2,1,2,1,27,28,29,12,13,12,13,12,13,12,13,12,13,7,2,1,2,1,2,1,2,1,2,1,2,1,2,1,2,1,2,1,6,12,132,136,137,137,137,137,137,137,137,137,137,137,137,137,137,137,137,137,137,137,137,137,140,12,13,12,13,12,13,12,13,12,13,12,13,21,2,1,2,1,2,1,2,1,2,1,27,56,2,1,2,1,2,1,27,28,29,12,13,14,2,1,2,1,2,1,2,1,2,1,2,1,2,1,2,1,2,1,2,1,2,1,2,1,2,1,2,1,2,1,2,1,2,1,2,1,2,1,2,1,2,1,2,1,2,1,2,1,2,1,2,1,2,1,2,1,2,1,2,1,2,1,2,1,2,1,2,1,2,1,2,1,2,1,2,1,2,1,2,1,2,1,2,1,2,1,2,1,2,1,2,1,2,1,2,1,2,1,2,1,2,1,2,1,2,1,2,1,2,1,2,1,2,1,2,1,2,1,2,1,2,1,2,1,2,1,2,1,2,1,2,1,2,1,2,1,2,1,2,1,2,1,2,1,2,1,2,1,2,1,2,1,2,1,2,1,2,1,2,1,2,1,2,1,2,1,2,1,2,1,2,1,2,1,2,1,2,1,2,1,6,12,13,12,13,12,13,12,13,54,55,28,29,12,13,12,13,12,13,12,13,21,2,1,2,1,2,1,2,1,2,1,2,1,2,1,2,1,2,1,2,1,2,1,2,1,2,1,2,1,2,1,2,1,2,1,2,1,2,1,2,1,2,1,2,1,2,1,2,1,2,1,2,1,2,1,2,1,2,1,2,1,2,1,2,
3,4,3,4,3,4,3,4,3,4,3,4,3,4,3,4,3,4,3,4,3,4,3,4,3,4,3,4,3,4,3,4,3,4,3,4,3,4,3,4,3,4,3,4,3,4,3,4,3,4,3,4,3,4,3,4,3,4,3,4,3,4,3,4,3,4,3,4,3,4,3,4,3,4,3,4,3,4,3,4,3,4,3,4,3,4,3,4,3,4,3,4,3,4,3,4,3,4,3,4,3,4,3,4,3,4,3,4,3,4,3,4,3,4,3,4,3,4,3,4,3,4,3,4,3,4,3,4,3,4,3,4,3,4,3,4,3,4,3,4,3,4,3,4,3,4,3,4,3,4,3,4,3,4,34,28,35,17,16,17,16,17,16,17,17,35,10,3,4,3,4,3,4,3,4,3,4,3,4,3,4,3,4,4,8,9,132,136,137,137,137,137,137,137,137,137,137,137,137,137,137,137,137,137,137,137,137,137,137,141,16,17,16,17,16,17,16,17,16,17,16,17,16,26,5,3,4,3,4,3,4,3,4,3,4,3,4,3,4,3,4,3,34,28,16,17,18,3,4,3,4,3,4,3,4,3,4,3,4,3,4,3,4,3,4,3,4,3,4,3,4,3,4,3,4,3,4,3,4,3,4,3,4,3,4,3,4,3,4,3,4,3,4,3,4,3,4,3,4,3,4,3,4,3,4,3,4,3,4,3,4,3,4,3,4,3,4,3,4,3,4,3,4,3,4,3,4,3,4,3,4,3,4,3,4,3,4,3,4,3,4,3,4,3,4,3,4,3,4,3,4,3,4,3,4,3,4,3,4,3,4,3,4,3,4,3,4,3,4,3,4,3,4,3,4,3,4,3,4,3,4,3,4,3,4,3,4,3,4,3,4,3,4,3,4,3,4,3,4,3,4,3,4,3,4,3,4,3,4,3,4,3,4,3,4,3,4,3,4,3,4,3,4,3,4,4,8,9,16,17,16,17,16,17,17,35,55,57,34,28,16,17,16,17,16,17,16,17,16,26,22,23,24,25,22,23,24,25,5,3,4,3,4,3,4,3,4,3,4,3,4,3,4,3,4,3,4,3,4,3,4,3,4,3,4,3,4,3,4,3,4,3,4,3,4,3,4,3,4,3,4,3,4,3,4,3,4,3,4,3,4,3,
1,2,1,2,1,2,1,2,1,2,1,2,1,2,1,2,1,2,1,2,1,2,1,2,1,2,1,2,1,2,1,2,1,2,1,2,1,2,1,2,1,2,1,2,1,2,1,2,1,2,1,2,1,2,1,2,1,2,1,2,1,2,1,2,1,2,1,2,1,2,1,2,1,2,1,2,1,2,1,2,1,2,1,2,1,2,1,2,1,2,1,2,1,2,1,2,1,2,1,2,1,2,1,2,1,2,1,2,1,2,1,2,1,2,1,2,1,2,1,2,1,2,1,2,1,2,1,2,1,2,1,2,1,2,1,2,1,2,1,2,1,2,1,2,1,2,1,2,1,2,1,2,1,2,1,27,42,43,44,45,28,29,12,13,54,55,56,2,1,2,1,2,1,2,1,2,1,2,1,2,1,2,1,6,12,13,138,137,137,137,137,137,137,137,137,137,137,137,137,137,137,137,137,137,137,137,137,137,154,182,12,13,12,13,12,13,12,103,111,112,104,13,12,13,14,2,1,2,1,2,1,2,1,2,1,2,1,2,1,2,1,2,1,19,12,13,7,2,1,2,1,2,1,2,1,2,1,2,1,2,1,2,1,2,1,2,1,2,1,2,1,2,1,2,1,2,1,2,1,2,1,2,1,2,1,2,1,2,1,2,1,2,1,2,1,2,1,2,1,2,1,2,1,2,1,2,1,2,1,2,1,2,1,2,1,2,1,2,1,2,1,2,1,2,1,2,1,2,1,2,1,2,1,2,1,2,1,2,1,2,1,2,1,2,1,2,1,2,1,2,1,2,1,2,1,2,1,2,1,2,1,2,1,2,1,2,1,2,1,2,1,2,1,2,1,2,1,2,1,2,1,2,1,2,1,2,1,2,1,2,1,2,1,2,1,2,1,2,1,2,1,2,1,2,1,2,1,2,1,2,1,2,1,2,1,2,1,2,1,2,1,2,1,2,1,6,12,13,12,13,12,13,12,13,54,55,56,2,1,27,28,29,12,13,12,13,12,13,12,13,12,13,12,13,12,13,12,13,21,2,1,2,1,2,1,2,1,2,1,2,1,2,1,2,1,2,1,2,1,2,1,2,1,2,1,2,1,2,1,2,1,2,1,2,1,2,1,2,1,2,1,2,1,2,1,2,1,2,1,2,1,2,
3,4,3,4,3,4,3,4,3,4,3,4,3,4,3,4,3,4,3,4,3,4,3,4,3,4,3,4,3,4,3,4,3,4,3,4,3,4,3,4,3,4,3,4,3,4,3,4,3,4,3,4,3,4,3,4,3,4,3,4,3,4,3,4,3,4,3,4,3,4,3,4,3,4,3,4,3,4,3,4,3,4,3,4,3,4,3,4,3,4,3,4,3,4,3,4,3,4,3,4,3,4,3,4,3,4,3,4,3,4,3,4,3,4,3,4,3,4,3,4,3,4,3,4,3,4,3,4,3,4,3,4,3,4,3,4,3,4,3,4,3,4,3,4,3,4,3,4,3,4,3,4,3,4,3,4,3,57,58,57,34,28,16,17,55,57,3,4,3,4,3,4,3,4,3,4,3,4,3,4,3,4,8,9,16,17,139,137,137,137,137,137,137,137,137,137,137,154,147,137,137,154,148,149,148,149,148,149,182,17,16,17,16,17,16,17,105,106,107,106,107,108,16,17,18,3,4,3,4,3,4,3,4,3,4,3,4,3,4,3,4,3,4,20,35,17,10,3,4,3,4,3,4,3,4,3,4,3,4,3,4,3,4,3,4,3,4,3,4,3,4,3,4,3,4,3,4,3,4,3,4,3,4,3,4,3,4,3,4,3,4,3,4,3,4,3,4,3,4,3,4,3,4,3,4,3,4,3,4,3,4,3,4,3,4,3,4,3,4,3,4,3,4,3,4,3,4,3,4,3,4,3,4,3,4,3,4,3,4,3,4,3,4,3,4,3,4,3,4,3,4,3,4,3,4,3,4,3,4,3,4,3,4,3,4,3,4,3,4,3,4,3,4,3,4,3,4,3,4,3,4,3,4,3,4,3,4,3,4,3,4,3,4,3,4,3,4,3,4,3,4,3,4,3,4,3,4,3,4,3,4,3,4,3,4,3,4,3,4,3,4,3,4,4,8,9,16,17,16,17,16,17,16,17,55,57,3,4,3,4,34,28,16,17,16,17,16,17,16,17,16,17,16,17,16,17,16,17,16,26,24,25,5,3,4,3,4,3,4,3,4,3,4,3,4,3,4,3,4,3,4,3,4,3,4,3,4,3,4,3,4,3,4,3,4,3,4,3,4,3,4,3,4,3,4,3,4,3,4,3,4,3,
1,2,1,2,1,2,1,2,1,2,1,2,1,2,1,2,1,2,1,2,1,2,1,2,1,2,1,2,1,2,1,2,1,2,1,2,1,2,1,2,1,2,1,2,1,2,1,2,1,2,1,2,1,2,1,2,1,2,1,2,1,2,1,2,1,2,1,2,1,2,1,2,1,2,1,2,1,2,1,2,1,2,1,2,1,2,1,2,1,2,1,2,1,2,1,2,1,2,1,2,1,2,1,2,1,2,1,2,1,2,1,2,1,2,1,2,1,2,1,2,1,2,1,2,1,2,1,2,1,2,1,2,1,2,1,2,1,2,1,2,1,2,1,2,1,2,1,2,1,2,1,2,1,2,1,2,1,2,1,2,1,19,12,13,14,2,1,2,1,2,1,2,1,2,1,2,1,2,1,2,1,19,12,13,12,13,146,147,137,137,137,137,137,137,137,137,154,182,146,147,154,182,12,30,31,32,33,13,12,13,12,13,12,13,12,103,113,114,113,114,111,117,12,13,152,153,1,2,1,2,1,2,1,2,1,2,1,2,1,2,1,2,1,27,28,29,14,2,1,2,1,2,1,2,1,2,1,2,1,2,1,2,1,2,1,2,1,2,1,2,1,2,1,2,1,2,1,2,1,2,1,2,1,2,1,2,1,2,1,2,1,2,1,2,1,2,1,2,1,2,1,2,1,2,1,2,1,2,1,2,1,2,1,2,1,2,1,2,1,2,1,2,1,2,1,2,1,2,1,2,1,2,1,2,1,2,1,2,1,2,1,2,1,2,1,2,1,2,1,2,1,2,1,2,1,2,1,2,1,2,1,2,1,2,1,2,1,2,1,2,1,2,1,2,1,2,1,2,1,2,1,2,1,2,1,2,1,2,1,2,1,2,1,2,1,2,1,2,1,2,1,2,1,2,1,2,1,2,1,2,1,2,1,2,1,2,1,2,1,2,1,2,1,6,12,13,12,13,12,13,12,13,12,13,7,2,1,2,1,2,1,27,28,29,12,13,12,13,12,13,12,13,12,13,12,13,12,13,12,13,12,13,21,2,1,2,1,2,1,2,1,2,1,2,1,2,1,2,1,2,1,2,1,2,1,2,1,2,1,2,1,2,1,2,1,2,1,2,1,2,1,2,1,2,1,2,1,2,1,2,1,2,
3,4,3,4,3,4,3,4,3,4,3,4,3,4,3,4,3,4,3,4,3,4,3,4,3,4,3,4,3,4,3,4,3,4,3,4,3,4,3,4,3,4,3,4,3,4,3,4,3,4,3,4,3,4,3,4,3,4,3,4,3,4,3,4,3,4,3,4,3,4,3,4,3,4,3,4,3,4,3,4,3,4,3,4,3,4,3,4,3,4,3,4,3,4,3,4,3,4,3,4,3,4,3,4,3,4,3,4,3,4,3,4,3,4,3,4,3,4,3,4,3,4,3,4,3,4,3,4,3,4,3,4,3,4,3,4,3,4,3,4,3,4,3,4,3,4,3,4,3,4,3,4,3,4,3,4,3,4,3,4,3,20,16,17,18,3,4,3,4,3,4,3,4,3,4,3,4,3,4,3,4,20,16,17,16,17,16,146,148,149,148,149,147,137,137,154,182,17,16,146,182,17,36,37,38,39,40,41,16,17,16,17,16,17,105,106,107,106,107,106,107,120,16,17,161,162,4,3,4,3,4,3,4,3,4,3,4,3,4,4,5,3,4,3,34,28,18,3,4,3,4,3,4,3,4,3,4,3,4,3,4,3,4,3,4,3,4,3,4,3,4,3,4,3,4,3,4,3,4,3,4,3,4,3,4,3,4,3,4,3,4,3,4,3,4,3,4,3,4,3,4,3,4,3,4,3,4,3,4,3,4,3,4,3,4,3,4,3,4,3,4,3,4,3,4,3,4,3,4,3,4,3,4,3,4,3,4,3,4,3,4,3,4,3,4,3,4,3,4,3,4,3,4,3,4,3,4,3,4,3,4,3,4,3,4,3,4,3,4,3,4,3,4,3,4,3,4,3,4,3,4,3,4,3,4,3,4,3,4,3,4,3,4,3,4,3,4,3,4,3,4,3,4,3,4,3,4,3,4,3,4,3,4,3,4,3,4,3,4,3,4,4,8,9,16,17,16,17,16,17,16,17,16,17,10,3,4,3,4,3,4,3,34,28,35,17,16,17,16,17,16,17,16,17,16,17,16,17,16,17,16,17,16,26,5,3,4,3,4,3,4,3,4,3,4,3,4,3,4,3,4,3,4,3,4,3,4,3,4,3,4,3,4,3,4,3,4,3,4,3,4,3,4,3,4,3,4,3,4,3,4,3,
1,2,1,2,1,2,1,2,1,2,1,2,1,2,1,2,1,2,1,2,1,2,1,2,1,2,1,2,1,2,1,2,1,2,1,2,1,2,1,2,1,2,1,2,1,2,1,2,1,2,1,2,1,2,1,2,1,2,1,2,1,2,1,2,1,2,1,2,1,2,1,2,1,2,1,2,1,2,1,2,1,2,1,2,1,2,1,2,1,2,1,2,1,2,1,2,1,2,1,2,1,2,1,2,1,2,1,2,1,2,1,2,1,2,1,2,1,2,1,2,1,2,1,2,1,2,1,2,1,2,1,2,1,2,1,2,1,2,1,2,1,2,1,2,1,2,1,2,1,2,1,2,1,2,1,2,1,2,1,2,1,11,12,13,7,2,1,2,1,2,1,2,1,2,1,2,1,2,1,2,1,11,12,13,12,13,12,103,111,112,104,13,146,147,154,182,12,30,33,13,12,30,48,49,48,49,66,67,12,13,12,103,111,112,113,114,113,114,113,114,111,117,12,13,14,2,1,2,1,2,1,2,1,2,1,2,1,2,1,6,21,2,1,2,1,27,56,2,1,2,1,2,1,2,1,2,1,2,1,2,1,2,1,2,1,2,1,2,1,2,1,2,1,2,1,2,1,2,1,2,1,2,1,2,1,2,1,2,1,2,1,2,1,2,1,2,1,2,1,2,1,2,1,2,1,2,1,2,1,2,1,2,1,2,1,2,1,2,1,2,1,2,1,2,1,2,1,2,1,2,1,2,1,2,1,2,1,2,1,2,1,2,1,2,1,2,1,2,1,2,1,2,1,2,1,2,1,2,1,2,1,2,1,2,1,2,1,2,1,2,1,2,1,2,1,2,1,2,1,2,1,2,1,2,1,2,1,2,1,2,1,2,1,2,1,2,1,2,1,2,1,2,1,2,1,2,1,2,1,2,1,2,1,2,1,2,1,2,1,2,1,19,12,13,12,13,12,13,12,13,12,13,12,13,14,2,1,2,1,2,1,2,1,27,42,43,44,45,68,69,44,45,68,69,28,29,12,13,12,13,12,13,12,13,14,2,1,2,1,2,1,2,1,2,1,2,1,2,1,2,1,2,1,2,1,2,1,2,1,2,1,2,1,2,1,2,1,2,1,2,1,2,1,2,1,2,1,2,1,2,1,2,
3,4,3,4,3,4,3,4,3,4,3,4,3,4,3,4,3,4,3,4,3,4,3,4,3,4,3,4,3,4,3,4,3,4,3,4,3,4,3,4,3,4,3,4,3,4,3,4,3,4,3,4,3,4,3,4,3,4,3,4,3,4,3,4,3,4,3,4,3,4,3,4,3,4,3,4,3,4,3,4,3,4,3,4,3,4,3,4,3,4,3,4,3,4,3,4,3,4,3,4,3,4,3,4,3,4,3,4,3,4,3,4,3,4,3,4,3,4,3,4,3,4,3,4,3,4,3,4,3,4,3,4,3,4,3,4,3,4,3,4,3,4,3,4,3,4,3,4,3,4,3,4,3,4,3,4,3,4,3,4,3,15,16,17,10,3,4,3,4,3,4,3,4,3,4,3,4,3,4,3,4,15,16,17,16,17,105,106,107,106,107,108,16,146,182,17,36,37,40,41,36,37,61,62,61,62,70,71,16,17,105,106,107,106,107,106,107,106,107,106,107,120,17,35,18,3,4,3,4,3,4,3,4,4,22,23,24,25,8,9,16,26,5,3,4,3,4,3,4,3,4,3,4,3,4,3,4,3,4,3,4,3,4,3,4,3,4,3,4,3,4,3,4,3,4,3,4,3,4,3,4,3,4,3,4,3,4,3,4,3,4,3,4,3,4,3,4,3,4,3,4,3,4,3,4,3,4,3,4,3,4,3,4,3,4,3,4,3,4,3,4,3,4,3,4,3,4,3,4,3,4,3,4,3,4,3,4,3,4,3,4,3,4,3,4,3,4,3,4,3,4,3,4,3,4,3,4,3,4,3,4,3,4,3,4,3,4,3,4,3,4,3,4,3,4,3,4,3,4,3,4,3,4,3,4,3,4,3,4,3,4,3,4,3,4,3,4,3,4,3,4,3,4,3,4,3,4,3,4,3,4,3,4,3,4,3,4,3,4,3,4,20,16,17,16,17,16,17,16,17,16,17,16,17,18,3,4,3,4,3,4,3,4,3,4,57,58,57,3,4,58,57,3,4,34,28,35,17,16,17,16,17,16,17,18,3,4,3,4,3,4,3,4,3,4,3,4,3,4,3,4,3,4,3,4,3,4,3,4,3,4,3,4,3,4,3,4,3,4,3,4,3,4,3,4,3,4,3,4,3,4,3,
1,2,1,2,1,2,1,2,1,2,1,2,1,2,1,2,1,2,1,2,1,2,1,2,1,2,1,2,1,2,1,2,1,2,1,2,1,2,1,2,1,2,1,2,1,2,1,2,1,2,1,2,1,2,1,2,1,2,1,2,1,2,1,2,1,2,1,2,1,2,1,2,1,2,1,2,1,2,1,2,1,2,1,2,1,2,1,2,1,2,1,2,1,2,1,2,1,2,1,2,1,2,1,2,1,2,1,2,1,2,1,2,1,2,1,2,1,2,1,2,1,2,1,2,1,2,1,2,1,2,1,2,1,2,1,2,1,2,1,2,1,2,1,2,1,2,1,2,1,2,1,2,1,2,1,2,1,2,1,2,1,6,12,13,14,2,1,2,1,2,1,2,1,2,1,2,1,2,1,2,1,19,12,103,104,13,113,114,113,114,111,117,12,13,12,13,46,47,48,49,48,49,48,49,48,49,48,49,33,13,122,114,113,114,113,114,113,114,113,114,111,121,54,55,56,2,1,2,1,2,1,2,1,6,12,13,12,13,12,13,12,13,21,2,1,2,1,2,1,2,1,2,1,2,1,2,1,2,1,2,1,2,1,2,1,2,1,2,1,2,1,2,1,2,1,2,1,2,1,2,1,2,1,2,1,2,1,2,1,2,1,2,1,2,1,2,1,2,1,2,1,2,1,2,1,2,1,2,1,2,1,2,1,2,1,2,1,2,1,2,1,2,1,2,1,2,1,2,1,2,1,2,1,2,1,2,1,2,1,2,1,2,1,2,1,2,1,2,1,2,1,2,1,2,1,2,1,2,1,2,1,2,1,2,1,2,1,2,1,2,1,2,1,2,1,2,1,2,1,2,1,2,1,2,1,2,1,2,1,2,1,2,1,2,1,2,1,2,1,2,1,2,1,2,1,2,1,2,1,2,1,2,1,2,1,2,1,2,1,2,1,11,12,13,12,13,54,55,44,45,28,29,12,13,7,2,1,2,1,2,1,2,1,2,1,2,1,2,1,2,1,2,1,2,1,27,42,43,44,45,28,29,12,13,7,2,1,2,1,2,1,2,1,2,1,2,1,2,1,2,1,2,1,2,1,2,1,2,1,2,1,2,1,2,1,2,1,2,1,2,1,2,1,2,1,2,1,2,1,2,1,2,
3,4,3,4,3,4,3,4,3,4,3,4,3,4,3,4,3,4,3,4,3,4,3,4,3,4,3,4,3,4,3,4,3,4,3,4,3,4,3,4,3,4,3,4,3,4,3,4,3,4,3,4,3,4,3,4,3,4,3,4,3,4,3,4,3,4,3,4,3,4,3,4,3,4,3,4,3,4,3,4,3,4,3,4,3,4,3,4,3,4,3,4,3,4,3,4,3,4,3,4,3,4,3,4,3,4,3,4,3,4,3,4,3,4,3,4,3,4,3,4,3,4,3,4,3,4,3,4,3,4,3,4,3,4,3,4,3,4,3,4,3,4,3,4,3,4,3,4,3,4,3,4,3,4,3,4,3,4,3,4,8,9,16,17,18,3,4,3,4,3,4,3,4,3,4,3,4,3,4,3,4,20,105,106,107,108,116,106,107,106,107,120,16,17,16,17,59,60,61,62,61,62,72,73,74,75,76,62,40,41,16,124,107,106,107,106,107,106,107,106,123,17,55,57,3,4,3,4,3,4,24,25,8,9,16,17,16,17,16,17,16,17,16,26,24,25,5,3,4,3,4,3,4,3,4,3,4,3,4,3,4,3,4,3,4,3,4,3,4,3,4,3,4,3,4,3,4,3,4,3,4,3,4,3,4,3,4,3,4,3,4,3,4,3,4,3,4,3,4,3,4,3,4,3,4,3,4,3,4,3,4,3,4,3,4,3,4,3,4,3,4,3,4,3,4,3,4,3,4,3,4,3,4,3,4,3,4,3,4,3,4,3,4,3,4,3,4,3,4,3,4,3,4,3,4,3,4,3,4,3,4,3,4,3,4,3,4,3,4,3,4,3,4,3,4,3,4,3,4,3,4,3,4,3,4,3,4,3,4,3,4,3,4,3,4,3,4,3,4,3,4,3,4,3,4,3,4,3,4,3,4,3,4,3,4,3,4,3,4,3,4,15,35,17,16,17,55,57,58,57,34,28,35,17,10,3,4,3,4,3,4,3,4,3,4,3,4,3,4,3,4,3,4,3,4,3,4,57,58,57,34,28,35,17,10,3,4,3,4,3,4,3,4,3,4,3,4,3,4,3,4,3,4,3,4,3,4,3,4,3,4,3,4,3,4,3,4,3,4,3,4,3,4,3,4,3,4,3,4,3,4,3,
1,2,1,2,1,2,1,2,1,2,1,2,1,2,1,2,1,2,1,2,1,2,1,2,1,2,1,2,1,2,1,2,1,2,1,2,1,2,1,2,1,2,1,2,1,2,1,2,1,2,1,2,1,2,1,2,1,2,1,2,1,2,1,2,1,2,1,2,1,2,1,2,1,2,1,2,1,2,1,2,1,2,1,2,1,2,1,2,1,2,1,2,1,2,1,2,1,2,1,2,1,2,1,2,1,2,1,2,1,2,1,2,1,2,1,2,1,2,1,2,1,2,1,2,1,2,1,2,1,2,1,2,1,2,1,2,1,2,1,2,1,2,1,2,1,2,1,2,1,2,1,2,1,2,1,2,1,2,1,19,12,13,12,13,21,2,1,2,1,2,1,2,1,2,1,2,1,2,1,2,1,6,113,114,111,117,122,114,111,114,111,121,12,30,31,32,48,49,48,49,77,78,79,80,81,82,83,49,48,49,33,13,122,114,111,114,111,114,111,121,12,13,21,2,1,2,1,2,1,6,12,13,12,183,184,185,184,185,186,13,12,13,12,13,12,13,21,2,1,2,1,2,1,2,1,2,1,2,1,2,1,2,1,2,1,2,1,2,1,2,1,2,1,2,1,2,1,2,1,2,1,2,1,2,1,2,1,2,1,2,1,2,1,2,1,2,1,2,1,2,1,2,1,2,1,2,1,2,1,2,1,2,1,2,1,2,1,2,1,2,1,2,1,2,1,2,1,2,1,2,1,2,1,2,1,2,1,2,1,2,1,2,1,2,1,2,1,2,1,2,1,2,1,2,1,2,1,2,1,2,1,2,1,2,1,2,1,2,1,2,1,2,1,2,1,2,1,2,1,2,1,2,1,2,1,2,1,2,1,2,1,2,1,2,1,2,1,2,1,2,1,2,1,2,1,2,1,2,1,2,1,2,1,2,1,2,1,2,1,2,1,27,28,29,12,13,21,2,1,2,1,27,28,29,14,2,1,2,1,2,1,2,1,2,1,2,1,2,1,2,1,2,1,2,1,2,1,2,1,2,1,27,28,29,14,2,1,2,1,2,1,2,1,2,1,2,1,2,1,2,1,2,1,2,1,2,1,2,1,2,1,2,1,2,1,2,1,2,1,2,1,2,1,2,1,2,1,2,1,2,1,2,
3,4,3,4,3,4,3,4,3,4,3,4,3,4,3,4,3,4,3,4,3,4,3,4,3,4,3,4,3,4,3,4,3,4,3,4,3,4,3,4,3,4,3,4,3,4,3,4,3,4,3,4,3,4,3,4,3,4,3,4,3,4,3,4,3,4,3,4,3,4,3,4,3,4,3,4,3,4,3,4,3,4,3,4,3,4,3,4,3,4,3,4,3,4,3,4,3,4,3,4,3,4,3,4,3,4,3,4,3,4,3,4,3,4,3,4,3,4,3,4,3,4,3,4,3,4,3,4,3,4,3,4,3,4,3,4,3,4,3,4,3,4,3,4,3,4,3,4,3,4,3,4,3,4,3,4,3,4,3,20,16,17,16,17,16,26,5,3,4,3,4,3,4,3,4,3,4,4,24,25,8,9,116,106,107,120,16,124,118,119,123,17,36,37,38,39,61,62,61,62,84,85,86,87,88,89,90,62,61,62,40,41,16,124,118,119,118,119,123,17,16,17,16,26,5,3,4,4,8,9,16,17,187,188,189,189,189,189,190,191,16,17,16,17,16,17,16,26,5,3,4,3,4,3,4,3,4,3,4,3,4,3,4,3,4,3,4,3,4,3,4,3,4,3,4,3,4,3,4,3,4,3,4,3,4,3,4,3,4,3,4,3,4,3,4,3,4,3,4,3,4,3,4,3,4,3,4,3,4,3,4,3,4,3,4,3,4,3,4,3,4,3,4,3,4,3,4,3,4,3,4,3,4,3,4,3,4,3,4,3,4,3,4,3,4,3,4,3,4,3,4,3,4,3,4,3,4,3,4,3,4,3,4,3,4,3,4,3,4,3,4,3,4,3,4,3,4,3,4,3,4,3,4,3,4,3,4,3,4,3,4,3,4,3,4,3,4,3,4,3,4,3,4,3,4,3,4,3,4,3,4,3,4,3,4,3,4,3,4,3,4,3,34,28,16,17,16,26,5,3,4,3,34,28,18,3,4,3,4,3,4,3,4,3,4,3,4,3,4,3,4,3,4,3,4,3,4,3,4,3,4,3,34,28,18,3,4,3,4,3,4,3,4,3,4,3,4,3,4,3,4,3,4,3,4,3,4,3,4,3,4,3,4,3,4,3,4,3,4,3,4,3,4,3,4,3,4,3,4,3,4,3,
1,2,1,2,1,2,1,2,1,2,1,2,1,2,1,2,1,2,1,2,1,2,1,2,1,2,1,2,1,2,1,2,1,2,1,2,1,2,1,2,1,2,1,2,1,2,1,2,1,2,1,2,1,2,1,2,1,2,1,2,1,2,1,2,1,2,1,2,1,2,1,2,1,2,1,2,1,2,1,2,1,2,1,2,1,2,1,2,1,2,1,2,1,2,1,2,1,2,1,2,1,2,1,2,1,2,1,2,1,2,1,2,1,2,1,2,1,2,1,2,1,2,1,2,1,2,1,2,1,2,1,2,1,2,1,2,1,2,1,2,1,2,1,2,1,2,1,2,1,2,1,2,1,2,1,2,1,2,1,11,12,13,12,13,12,13,21,2,1,2,1,2,1,2,1,2,1,27,28,29,12,13,113,114,113,114,104,13,12,30,31,32,48,49,48,49,48,49,48,49,91,92,93,94,95,96,48,49,48,49,48,49,31,32,31,32,31,32,33,13,12,13,12,13,21,2,1,6,12,183,184,185,192,189,189,189,189,189,189,213,186,13,12,13,12,13,54,55,56,2,1,2,1,2,1,2,1,2,1,2,1,2,1,2,1,2,1,2,1,2,1,2,1,2,1,2,1,2,1,2,1,2,1,2,1,2,1,2,1,2,1,2,1,2,1,2,1,2,1,2,1,2,1,2,1,2,1,2,1,2,1,2,1,2,1,2,1,2,1,2,1,2,1,2,1,2,1,2,1,2,1,2,1,2,1,2,1,2,1,2,1,2,1,2,1,2,1,2,1,2,1,2,1,2,1,2,1,2,1,2,1,2,1,2,1,2,1,2,1,2,1,2,1,2,1,2,1,2,1,2,1,2,1,2,1,2,1,2,1,2,1,2,1,2,1,2,1,2,1,2,1,2,1,2,1,2,1,2,1,2,1,2,1,2,1,2,1,2,1,2,1,2,1,19,12,13,12,13,7,2,1,2,1,27,56,2,1,2,1,2,1,2,1,2,1,2,1,2,1,2,1,2,1,2,1,2,1,2,1,2,1,2,1,27,56,2,1,2,1,2,1,2,1,2,1,2,1,2,1,2,1,2,1,2,1,2,1,2,1,2,1,2,1,2,1,2,1,2,1,2,1,2,1,2,1,2,1,2,1,2,1,2,
3,4,3,4,3,4,3,4,3,4,3,4,3,4,3,4,3,4,3,4,3,4,3,4,3,4,3,4,3,4,3,4,3,4,3,4,3,4,3,4,3,4,3,4,3,4,3,4,3,4,3,4,3,4,3,4,3,4,3,4,3,4,3,4,3,4,3,4,3,4,3,4,3,4,3,4,3,4,3,4,3,4,3,4,3,4,3,4,3,4,3,4,3,4,3,4,3,4,3,4,3,4,3,4,3,4,3,4,3,4,3,4,3,4,3,4,3,4,3,4,3,4,3,4,3,4,3,4,3,4,3,4,3,4,3,4,3,4,3,4,3,4,3,4,3,4,3,4,3,4,3,4,3,4,3,4,3,4,3,15,16,17,16,17,16,17,16,26,22,23,5,3,4,3,4,3,4,3,34,28,35,17,116,106,107,106,107,108,36,37,38,39,61,62,61,62,61,62,61,62,61,62,97,98,99,100,61,62,61,62,61,62,38,39,38,39,38,39,40,41,16,17,16,17,16,26,8,9,187,188,189,189,189,189,189,189,189,189,189,189,190,191,16,17,16,17,55,57,3,4,3,4,3,4,3,4,3,4,3,4,3,4,3,4,3,4,3,4,3,4,3,4,3,4,3,4,3,4,3,4,3,4,3,4,3,4,3,4,3,4,3,4,3,4,3,4,3,4,3,4,3,4,3,4,3,4,3,4,3,4,3,4,3,4,3,4,3,4,3,4,3,4,3,4,3,4,3,4,3,4,3,4,3,4,3,4,3,4,3,4,3,4,3,4,3,4,3,4,3,4,3,4,3,4,3,4,3,4,3,4,3,4,3,4,3,4,3,4,3,4,3,4,3,4,3,4,3,4,3,4,3,4,3,4,3,4,3,4,3,4,3,4,3,4,3,4,3,4,3,4,3,4,3,4,3,4,3,4,3,4,3,4,3,4,3,4,3,4,3,4,3,4,3,20,16,17,16,17,10,3,4,3,4,3,4,3,4,3,4,3,4,3,4,3,4,3,4,3,4,3,4,3,4,3,4,3,4,3,4,3,4,3,4,3,4,3,4,3,4,3,4,3,4,3,4,3,4,3,4,3,4,3,4,3,4,3,4,3,4,3,4,3,4,3,4,3,4,3,4,3,4,3,4,3,4,3,4,3,4,3,4,3,
1,2,1,2,1,2,1,2,1,2,1,2,1,2,1,2,1,2,1,2,1,2,1,2,1,2,1,2,1,2,1,2,1,2,1,2,1,2,1,2,1,2,1,2,1,2,1,2,1,2,1,2,1,2,1,2,1,2,1,2,1,2,1,2,1,2,1,2,1,2,1,2,1,2,1,2,1,2,1,2,1,2,1,2,1,2,1,2,1,2,1,2,1,2,1,2,1,2,1,2,1,2,1,2,1,2,1,2,1,2,1,2,1,2,1,2,1,2,1,2,1,2,1,2,1,2,1,2,1,2,1,2,1,2,1,2,1,2,1,2,1,2,1,2,1,2,1,2,1,2,1,2,1,2,1,2,1,2,1,19,12,13,12,13,12,13,12,13,12,13,21,2,1,2,1,2,1,2,1,27,28,29,122,114,111,114,111,121,109,110,48,49,48,49,48,49,48,49,48,49,48,49,91,92,101,102,48,49,48,49,48,49,48,49,48,49,48,49,48,49,33,13,12,13,12,13,12,183,192,189,189,189,189,189,189,189,189,189,189,189,189,193,12,13,54,55,56,2,1,2,1,2,1,2,1,2,1,2,1,2,1,2,1,2,1,2,1,2,1,2,1,2,1,2,1,2,1,2,1,2,1,2,1,2,1,2,1,2,1,2,1,2,1,2,1,2,1,2,1,2,1,2,1,2,1,2,1,2,1,2,1,2,1,2,1,2,1,2,1,2,1,2,1,2,1,2,1,2,1,2,1,2,1,2,1,2,1,2,1,2,1,2,1,2,1,2,1,2,1,2,1,2,1,2,1,2,1,2,1,2,1,2,1,2,1,2,1,2,1,2,1,2,1,2,1,2,1,2,1,2,1,2,1,2,1,2,1,2,1,2,1,2,1,2,1,2,1,2,1,2,1,2,1,2,1,2,1,2,1,2,1,2,1,2,1,2,1,2,1,2,1,2,1,11,12,13,12,13,14,2,1,2,1,2,1,2,1,2,1,2,1,2,1,2,1,2,1,2,1,2,1,2,1,2,1,2,1,2,1,2,1,2,1,2,1,2,1,2,1,2,1,2,1,2,1,2,1,2,1,2,1,2,1,2,1,2,1,2,1,2,1,2,1,2,1,2,1,2,1,2,1,2,1,2,1,2,1,2,1,2,1,2,
3,4,3,4,3,4,3,4,3,4,3,4,3,4,3,4,3,4,3,4,3,4,3,4,3,4,3,4,3,4,3,4,3,4,3,4,3,4,3,4,3,4,3,4,3,4,3,4,3,4,3,4,3,4,3,4,3,4,3,4,3,4,3,4,3,4,3,4,3,4,3,4,3,4,3,4,3,4,3,4,3,4,3,4,3,4,3,4,3,4,3,4,3,4,3,4,3,4,3,4,3,4,3,4,3,4,3,4,3,4,3,4,3,4,3,4,3,4,3,4,3,4,3,4,3,4,3,4,3,4,3,4,3,4,3,4,3,4,3,4,3,4,3,4,3,4,3,4,3,4,3,4,3,4,3,4,3,4,3,20,16,17,16,17,16,17,16,17,17,35,16,26,5,3,4,3,4,3,4,3,34,28,16,124,118,119,123,17,16,115,61,62,61,62,61,62,61,62,61,62,61,62,61,62,61,62,61,62,61,62,61,62,72,73,74,75,76,62,61,62,40,41,16,17,16,17,187,188,189,189,189,189,189,189,189,189,189,189,189,189,189,194,16,17,55,57,3,4,3,4,3,4,3,4,3,4,3,4,3,4,3,4,3,4,3,4,3,4,3,4,3,4,3,4,3,4,3,4,3,4,3,4,3,4,3,4,3,4,3,4,3,4,3,4,3,4,3,4,3,4,3,4,3,4,3,4,3,4,3,4,3,4,3,4,3,4,3,4,3,4,3,4,3,4,3,4,3,4,3,4,3,4,3,4,3,4,3,4,3,4,3,4,3,4,3,4,3,4,3,4,3,4,3,4,3,4,3,4,3,4,3,4,3,4,3,4,3,4,3,4,3,4,3,4,3,4,3,4,3,4,3,4,3,4,3,4,3,4,3,4,3,4,3,4,3,4,3,4,3,4,3,4,3,4,3,4,3,4,3,4,3,4,3,4,3,4,3,4,3,4,3,4,3,15,16,17,16,17,18,3,4,3,4,3,4,3,4,3,4,3,4,3,4,3,4,3,4,3,4,3,4,3,4,3,4,3,4,3,4,3,4,3,4,3,4,3,4,3,4,3,4,3,4,3,4,3,4,3,4,3,4,3,4,3,4,3,4,3,4,3,4,3,4,3,4,3,4,3,4,3,4,3,4,3,4,3,4,3,4,3,4,3,
1,2,1,2,1,2,1,2,1,2,1,2,1,2,1,2,1,2,1,2,1,2,1,2,1,2,1,2,1,2,1,2,1,2,1,2,1,2,1,2,1,2,1,2,1,2,1,2,1,2,1,2,1,2,1,2,1,2,1,2,1,2,1,2,1,2,1,2,1,2,1,2,1,2,1,2,1,2,1,2,1,2,1,2,1,2,1,2,1,2,1,2,1,2,1,2,1,2,1,2,1,2,1,2,1,2,1,2,1,2,1,2,1,2,1,2,1,2,1,2,1,2,1,2,1,2,1,2,1,2,1,2,1,2,1,2,1,2,1,2,1,2,1,2,1,2,1,2,1,2,1,2,1,2,1,2,1,2,1,11,54,55,44,45,68,69,42,43,44,45,68,69,56,2,1,2,1,2,1,2,1,27,28,29,12,13,54,55,28,29,46,47,48,49,48,49,48,49,48,49,48,49,48,49,48,49,48,49,48,49,77,78,79,80,81,82,83,49,48,49,48,49,31,32,33,13,201,202,189,189,189,189,189,189,189,189,189,189,189,189,195,13,12,13,7,2,1,2,1,2,1,2,1,2,1,2,1,2,1,2,1,2,1,2,1,2,1,2,1,2,1,2,1,2,1,2,1,2,1,2,1,2,1,2,1,2,1,2,1,2,1,2,1,2,1,2,1,2,1,2,1,2,1,2,1,2,1,2,1,2,1,2,1,2,1,2,1,2,1,2,1,2,1,2,1,2,1,2,1,2,1,2,1,2,1,2,1,2,1,2,1,2,1,2,1,2,1,2,1,2,1,2,1,2,1,2,1,2,1,2,1,2,1,2,1,2,1,2,1,2,1,2,1,2,1,2,1,2,1,2,1,2,1,2,1,2,1,2,1,2,1,2,1,2,1,2,1,2,1,2,1,2,1,2,1,2,1,2,1,2,1,2,1,2,1,2,1,2,1,2,1,2,1,19,12,13,12,13,7,2,1,2,1,2,1,2,1,2,1,2,1,2,1,2,1,2,1,2,1,2,1,2,1,2,1,2,1,2,1,2,1,2,1,2,1,2,1,2,1,2,1,2,1,2,1,2,1,2,1,2,1,2,1,2,1,2,1,2,1,2,1,2,1,2,1,2,1,2,1,2,1,2,1,2,1,2,1,2,1,2,1,2,
3,4,3,4,3,4,3,4,3,4,3,4,3,4,3,4,3,4,3,4,3,4,3,4,3,4,3,4,3,4,3,4,3,4,3,4,3,4,3,4,3,4,3,4,3,4,3,4,3,4,3,4,3,4,3,4,3,4,3,4,3,4,3,4,3,4,3,4,3,4,3,4,3,4,3,4,3,4,3,4,3,4,3,4,3,4,3,4,3,4,3,4,3,4,3,4,3,4,3,4,3,4,3,4,3,4,3,4,3,4,3,4,3,4,3,4,3,4,3,4,3,4,3,4,3,4,3,4,3,4,3,4,3,4,3,4,3,4,3,4,3,4,3,4,3,4,3,4,3,4,3,4,3,4,3,4,3,4,3,15,55,57,58,57,3,4,3,57,58,57,3,4,3,4,3,4,3,4,3,4,3,4,34,28,35,17,55,57,34,28,59,60,61,62,61,62,61,62,72,73,74,75,76,62,61,62,61,62,61,62,84,85,86,87,88,89,90,62,61,62,61,62,38,39,40,41,16,203,197,198,197,198,197,198,197,198,197,198,197,198,16,17,16,17,10,3,4,3,4,3,4,3,4,3,4,3,4,3,4,3,4,3,4,3,4,3,4,3,4,3,4,3,4,3,4,3,4,3,4,3,4,3,4,3,4,3,4,3,4,3,4,3,4,3,4,3,4,3,4,3,4,3,4,3,4,3,4,3,4,3,4,3,4,3,4,3,4,3,4,3,4,3,4,3,4,3,4,3,4,3,4,3,4,3,4,3,4,3,4,3,4,3,4,3,4,3,4,3,4,3,4,3,4,3,4,3,4,3,4,3,4,3,4,3,4,3,4,3,4,3,4,3,4,3,4,3,4,3,4,3,4,3,4,3,4,3,4,3,4,3,4,3,4,3,4,3,4,3,4,3,4,3,4,3,4,3,4,3,4,3,4,3,4,3,4,3,4,3,4,3,4,3,4,20,16,17,16,17,10,3,4,3,4,3,4,3,4,3,4,3,4,3,4,3,4,3,4,3,4,3,4,3,4,3,4,3,4,3,4,3,4,3,4,3,4,3,4,3,4,3,4,3,4,3,4,3,4,3,4,3,4,3,4,3,4,3,4,3,4,3,4,3,4,3,4,3,4,3,4,3,4,3,4,3,4,3,4,3,4,3,4,3,
1,2,1,2,1,2,1,2,1,2,1,2,1,2,1,2,1,2,1,2,1,2,1,2,1,2,1,2,1,2,1,2,1,2,1,2,1,2,1,2,1,2,1,2,1,2,1,2,1,2,1,2,1,2,1,2,1,2,1,2,1,2,1,2,1,2,1,2,1,2,1,2,1,2,1,2,1,2,1,2,1,2,1,2,1,2,1,2,1,2,1,2,1,2,1,2,1,2,1,2,1,2,1,2,1,2,1,2,1,2,1,2,1,2,1,2,1,2,1,2,1,2,1,2,1,2,1,2,1,2,1,2,1,2,1,2,1,2,1,2,1,2,1,2,1,2,1,2,1,2,1,2,1,2,1,2,1,2,1,27,56,2,1,2,1,2,1,2,1,2,1,2,1,2,1,2,1,2,1,2,1,2,1,27,42,43,56,2,1,19,109,110,48,49,48,49,77,78,79,80,81,82,83,49,48,49,48,49,48,49,91,92,93,94,95,96,48,49,48,49,48,49,50,51,52,53,12,13,12,13,54,55,44,45,68,69,28,29,12,13,12,13,12,13,14,2,1,2,1,2,1,2,1,2,1,2,1,2,1,2,1,2,1,2,1,2,1,2,1,2,1,2,1,2,1,2,1,2,1,2,1,2,1,2,1,2,1,2,1,2,1,2,1,2,1,2,1,2,1,2,1,2,1,2,1,2,1,2,1,2,1,2,1,2,1,2,1,2,1,2,1,2,1,2,1,2,1,2,1,2,1,2,1,2,1,2,1,2,1,2,1,2,1,2,1,2,1,2,1,2,1,2,1,2,1,2,1,2,1,2,1,2,1,2,1,2,1,2,1,2,1,2,1,2,1,2,1,2,1,2,1,2,1,2,1,2,1,2,1,2,1,2,1,2,1,2,1,2,1,2,1,2,1,2,1,2,1,2,1,2,1,2,1,2,1,2,1,2,1,2,1,2,1,11,12,13,12,13,14,2,1,2,1,2,1,2,1,2,1,2,1,2,1,2,1,2,1,2,1,2,1,2,1,2,1,2,1,2,1,2,1,2,1,2,1,2,1,2,1,2,1,2,1,2,1,2,1,2,1,2,1,2,1,2,1,2,1,2,1,2,1,2,1,2,1,2,1,2,1,2,1,2,1,2,1,2,1,2,1,2,1,2,
3,4,3,4,3,4,3,4,3,4,3,4,3,4,3,4,3,4,3,4,3,4,3,4,3,4,3,4,3,4,3,4,3,4,3,4,3,4,3,4,3,4,3,4,3,4,3,4,3,4,3,4,3,4,3,4,3,4,3,4,3,4,3,4,3,4,3,4,3,4,3,4,3,4,3,4,3,4,3,4,3,4,3,4,3,4,3,4,3,4,3,4,3,4,3,4,3,4,3,4,3,4,3,4,3,4,3,4,3,4,3,4,3,4,3,4,3,4,3,4,3,4,3,4,3,4,3,4,3,4,3,4,3,4,3,4,3,4,3,4,3,4,3,4,3,4,3,4,3,4,3,4,3,4,3,4,3,4,3,4,3,4,3,4,3,4,3,4,3,4,3,4,3,4,3,4,3,4,3,4,3,4,3,4,3,57,3,4,3,20,16,115,61,62,61,62,84,85,86,87,88,89,90,62,61,62,61,62,61,62,61,62,97,98,99,100,61,62,61,62,61,62,63,64,65,17,16,17,17,35,55,57,58,57,3,4,34,28,35,17,16,17,16,17,18,3,4,3,4,3,4,3,4,3,4,3,4,3,4,3,4,3,4,3,4,3,4,3,4,3,4,3,4,3,4,3,4,3,4,3,4,3,4,3,4,3,4,3,4,3,4,3,4,3,4,3,4,3,4,3,4,3,4,3,4,3,4,3,4,3,4,3,4,3,4,3,4,3,4,3,4,3,4,3,4,3,4,3,4,3,4,3,4,3,4,3,4,3,4,3,4,3,4,3,4,3,4,3,4,3,4,3,4,3,4,3,4,3,4,3,4,3,4,3,4,3,4,3,4,3,4,3,4,3,4,3,4,3,4,3,4,3,4,3,4,3,4,3,4,3,4,3,4,3,4,3,4,3,4,3,4,3,4,3,4,3,4,3,4,3,4,3,4,3,4,3,4,3,4,3,4,3,4,15,16,17,16,17,18,3,4,3,4,3,4,3,4,3,4,3,4,3,4,3,4,3,4,3,4,3,4,3,4,3,4,3,4,3,4,3,4,3,4,3,4,3,4,3,4,3,4,3,4,3,4,3,4,3,4,3,4,3,4,3,4,3,4,3,4,3,4,3,4,3,4,3,4,3,4,3,4,3,4,3,4,3,4,3,4,3,4,3,
1,2,1,2,1,2,1,2,1,2,1,2,1,2,1,2,1,2,1,2,1,2,1,2,1,2,1,2,1,2,1,2,1,2,1,2,1,2,1,2,1,2,1,2,1,2,1,2,1,2,1,2,1,2,1,2,1,2,1,2,1,2,1,2,1,2,1,2,1,2,1,2,1,2,1,2,1,2,1,2,1,2,1,2,1,2,1,2,1,2,1,2,1,2,1,2,1,2,1,2,1,2,1,2,1,2,1,2,1,2,1,2,1,2,1,2,1,2,1,2,1,2,1,2,1,2,1,2,1,2,1,2,1,2,1,2,1,2,1,2,1,2,1,2,1,2,1,2,1,2,1,2,1,2,1,2,1,2,1,2,1,2,1,2,1,2,1,2,1,2,1,2,1,2,1,2,1,2,1,2,1,2,1,2,1,2,1,2,1,6,12,13,46,47,48,49,91,92,93,94,95,96,48,49,48,49,48,49,48,49,48,49,91,92,101,102,48,49,48,49,52,53,54,55,44,45,42,43,68,69,56,2,1,2,1,2,1,27,42,43,44,45,28,29,14,2,1,2,1,2,1,2,1,2,1,2,1,2,1,2,1,2,1,2,1,2,1,2,1,2,1,2,1,2,1,2,1,2,1,2,1,2,1,2,1,2,1,2,1,2,1,2,1,2,1,2,1,2,1,2,1,2,1,2,1,2,1,2,1,2,1,2,1,2,1,2,1,2,1,2,1,2,1,2,1,2,1,2,1,2,1,2,1,2,1,2,1,2,1,2,1,2,1,2,1,2,1,2,1,2,1,2,1,2,1,2,1,2,1,2,1,2,1,2,1,2,1,2,1,2,1,2,1,2,1,2,1,2,1,2,1,2,1,2,1,2,1,2,1,2,1,2,1,2,1,2,1,2,1,2,1,2,1,2,1,2,1,2,1,2,1,2,1,2,1,2,1,2,1,2,1,2,1,11,12,13,12,13,14,2,1,2,1,2,1,2,1,2,1,2,1,2,1,2,1,2,1,2,1,2,1,2,1,2,1,2,1,2,1,2,1,2,1,2,1,2,1,2,1,2,1,2,1,2,1,2,1,2,1,2,1,2,1,2,1,2,1,2,1,2,1,2,1,2,1,2,1,2,1,2,1,2,1,2,1,2,1,2,1,2,1,2,
3,4,3,4,3,4,3,4,3,4,3,4,3,4,3,4,3,4,3,4,3,4,3,4,3,4,3,4,3,4,3,4,3,4,3,4,3,4,3,4,3,4,3,4,3,4,3,4,3,4,3,4,3,4,3,4,3,4,3,4,3,4,3,4,3,4,3,4,3,4,3,4,3,4,3,4,3,4,3,4,3,4,3,4,3,4,3,4,3,4,3,4,3,4,3,4,3,4,3,4,3,4,3,4,3,4,3,4,3,4,3,4,3,4,3,4,3,4,3,4,3,4,3,4,3,4,3,4,3,4,3,4,3,4,3,4,3,4,3,4,3,4,3,4,3,4,3,4,3,4,3,4,3,4,3,4,3,4,3,4,3,4,3,4,3,4,3,4,3,4,3,4,3,4,3,4,3,4,3,4,3,4,3,4,3,4,3,4,8,9,35,17,59,60,61,62,61,62,97,98,99,100,61,62,61,62,61,62,61,62,61,62,61,62,61,62,61,62,61,62,65,17,55,57,58,57,3,57,3,4,3,4,3,4,3,4,3,4,3,57,58,57,34,28,18,3,4,3,4,3,4,3,4,3,4,3,4,3,4,3,4,3,4,3,4,3,4,3,4,3,4,3,4,3,4,3,4,3,4,3,4,3,4,3,4,3,4,3,4,3,4,3,4,3,4,3,4,3,4,3,4,3,4,3,4,3,4,3,4,3,4,3,4,3,4,3,4,3,4,3,4,3,4,3,4,3,4,3,4,3,4,3,4,3,4,3,4,3,4,3,4,3,4,3,4,3,4,3,4,3,4,3,4,3,4,3,4,3,4,3,4,3,4,3,4,3,4,3,4,3,4,3,4,3,4,3,4,3,4,3,4,3,4,3,4,3,4,3,4,3,4,3,4,3,4,3,4,3,4,3,4,3,4,3,4,3,4,3,4,3,4,3,4,3,4,4,5,3,4,3,4,3,4,15,35,17,16,17,18,3,4,3,4,3,4,3,4,3,4,3,4,3,4,3,4,3,4,3,4,3,4,3,4,3,4,3,4,3,4,3,4,3,4,3,4,3,4,3,4,3,4,3,4,3,4,3,4,3,4,3,4,3,4,3,4,3,4,3,4,3,4,3,4,3,4,3,4,3,4,3,4,3,4,3,4,3,4,3,4,3,4,3,
1,2,1,2,1,2,1,2,1,2,1,2,1,2,1,2,1,2,1,2,1,2,1,2,1,2,1,2,1,2,1,2,1,2,1,2,1,2,1,2,1,2,1,2,1,2,1,2,1,2,1,2,1,2,1,2,1,2,1,2,1,2,1,2,1,2,1,2,1,2,1,2,1,2,1,2,1,2,1,2,1,2,1,2,1,2,1,2,1,2,1,2,1,2,1,2,1,2,1,2,1,2,1,2,1,2,1,2,1,2,1,2,1,2,1,2,1,2,1,2,1,2,1,2,1,2,1,2,1,2,1,2,1,2,1,2,1,2,1,2,1,2,1,2,1,2,1,2,1,2,1,2,1,2,1,2,1,2,1,2,1,2,1,2,1,2,1,2,1,2,1,2,1,2,1,2,1,2,1,2,1,2,1,2,1,2,1,27,42,43,28,29,109,110,48,49,48,49,91,92,101,102,48,49,48,49,48,49,48,49,48,49,48,49,48,49,48,49,52,53,54,55,56,2,1,2,1,2,1,2,1,2,1,2,1,2,1,2,1,2,1,2,1,27,56,2,1,2,1,2,1,2,1,2,1,2,1,2,1,2,1,2,1,2,1,2,1,2,1,2,1,2,1,2,1,2,1,2,1,2,1,2,1,2,1,2,1,2,1,2,1,2,1,2,1,2,1,2,1,2,1,2,1,2,1,2,1,2,1,2,1,2,1,2,1,2,1,2,1,2,1,2,1,2,1,2,1,2,1,2,1,2,1,2,1,2,1,2,1,2,1,2,1,2,1,2,1,2,1,2,1,2,1,2,1,2,1,2,1,2,1,2,1,2,1,2,1,2,1,2,1,2,1,2,1,2,1,2,1,2,1,2,1,2,1,2,1,2,1,2,1,2,1,2,1,2,1,2,1,2,1,2,1,2,1,2,1,2,1,2,1,2,1,2,1,19,21,2,1,2,1,2,1,27,28,29,12,13,21,2,1,2,1,2,1,2,1,2,1,2,1,2,1,2,1,2,1,2,1,2,1,2,1,2,1,2,1,2,1,2,1,2,1,2,1,2,1,2,1,2,1,2,1,2,1,2,1,2,1,2,1,2,1,2,1,2,1,2,1,2,1,2,1,2,1,2,1,2,1,2,1,2,1,2,1,2,1,2,1,2,1,2,
3,4,3,4,3,4,3,4,3,4,3,4,3,4,3,4,3,4,3,4,3,4,3,4,3,4,3,4,3,4,3,4,3,4,3,4,3,4,3,4,3,4,3,4,3,4,3,4,3,4,3,4,3,4,3,4,3,4,3,4,3,4,3,4,3,4,3,4,3,4,3,4,3,4,3,4,3,4,3,4,3,4,3,4,3,4,3,4,3,4,3,4,3,4,3,4,3,4,3,4,3,4,3,4,3,4,3,4,3,4,3,4,3,4,3,4,3,4,3,4,3,4,3,4,3,4,3,4,3,4,3,4,3,4,3,4,3,4,3,4,3,4,3,4,3,4,3,4,3,4,3,4,3,4,3,4,3,4,3,4,3,4,3,4,3,4,3,4,3,4,3,4,3,4,3,4,3,4,3,4,3,4,3,4,3,4,3,4,3,57,34,28,16,115,61,62,61,62,61,62,61,62,61,62,61,62,61,62,61,62,61,62,61,62,61,62,61,62,65,17,55,57,3,4,3,4,3,4,3,4,3,4,3,4,3,4,3,4,3,4,3,4,3,4,3,4,3,4,3,4,3,4,3,4,3,4,3,4,3,4,3,4,3,4,3,4,3,4,3,4,3,4,3,4,3,4,3,4,3,4,3,4,3,4,3,4,3,4,3,4,3,4,3,4,3,4,3,4,3,4,3,4,3,4,3,4,3,4,3,4,3,4,3,4,3,4,3,4,3,4,3,4,3,4,3,4,3,4,3,4,3,4,3,4,3,4,3,4,3,4,3,4,3,4,3,4,3,4,3,4,3,4,3,4,3,4,3,4,3,4,3,4,3,4,3,4,3,4,3,4,3,4,3,4,3,4,3,4,3,4,3,4,3,4,3,4,3,4,3,4,3,4,3,4,3,4,3,4,3,4,3,4,3,4,3,4,3,4,3,4,3,4,3,4,3,20,16,26,22,23,5,3,4,3,34,28,16,17,16,26,22,23,24,25,22,23,5,3,4,3,4,3,4,3,4,3,4,3,4,3,4,3,4,3,4,3,4,3,4,3,4,3,4,3,4,3,4,3,4,3,4,3,4,3,4,3,4,3,4,3,4,3,4,3,4,3,4,3,4,3,4,3,4,3,4,3,4,3,4,3,4,3,4,3,4,3,4,3,4,3,4,3,
1,2,1,2,1,2,1,2,1,2,1,2,1,2,1,2,1,2,1,2,1,2,1,2,1,2,1,2,1,2,1,2,1,2,1,2,1,2,1,2,1,2,1,2,1,2,1,2,1,2,1,2,1,2,1,2,1,2,1,2,1,2,1,2,1,2,1,2,1,2,1,2,1,2,1,2,1,2,1,2,1,2,1,2,1,2,1,2,1,2,1,2,1,2,1,2,1,2,1,2,1,2,1,2,1,2,1,2,1,2,1,2,1,2,1,2,1,2,1,2,1,2,1,2,1,2,1,2,1,2,1,2,1,2,1,2,1,2,1,2,1,2,1,2,1,2,1,2,1,2,1,2,1,2,1,2,1,2,1,2,1,2,1,2,1,2,1,2,1,2,1,2,1,2,1,2,1,2,1,2,1,2,1,2,1,2,1,2,1,2,1,27,28,29,46,47,48,49,48,49,48,49,48,49,48,49,48,49,48,49,48,49,48,49,48,49,66,67,12,13,7,2,1,2,1,2,1,2,1,2,1,2,1,2,1,2,1,2,1,2,1,2,1,2,1,2,1,2,1,2,1,2,1,2,1,2,1,2,1,2,1,2,1,2,1,2,1,2,1,2,1,2,1,2,1,2,1,2,1,2,1,2,1,2,1,2,1,2,1,2,1,2,1,2,1,2,1,2,1,2,1,2,1,2,1,2,1,2,1,2,1,2,1,2,1,2,1,2,1,2,1,2,1,2,1,2,1,2,1,2,1,2,1,2,1,2,1,2,1,2,1,2,1,2,1,2,1,2,1,2,1,2,1,2,1,2,1,2,1,2,1,2,1,2,1,2,1,2,1,2,1,2,1,2,1,2,1,2,1,2,1,2,1,2,1,2,1,2,1,2,1,2,1,2,1,2,1,2,1,2,1,2,1,2,1,2,1,2,1,2,1,2,1,2,1,11,12,13,12,13,21,2,1,2,1,11,12,13,12,13,12,13,12,13,12,13,21,2,1,2,1,2,1,2,1,2,1,2,1,2,1,2,1,2,1,2,1,2,1,2,1,2,1,2,1,2,1,2,1,2,1,2,1,2,1,2,1,2,1,2,1,2,1,2,1,2,1,2,1,2,1,2,1,2,1,2,1,2,1,2,1,2,1,2,1,2,1,2,1,2,1,2,
3,4,3,4,3,4,3,4,3,4,3,4,3,4,3,4,3,4,3,4,3,4,3,4,3,4,3,4,3,4,3,4,3,4,3,4,3,4,3,4,3,4,3,4,3,4,3,4,3,4,3,4,3,4,3,4,3,4,3,4,3,4,3,4,3,4,3,4,3,4,3,4,3,4,3,4,3,4,3,4,3,4,3,4,3,4,3,4,3,4,3,4,3,4,3,4,3,4,3,4,3,4,3,4,3,4,3,4,3,4,3,4,3,4,3,4,3,4,3,4,3,4,3,4,3,4,3,4,3,4,3,4,3,4,3,4,3,4,3,4,3,4,3,4,3,4,3,4,3,4,3,4,3,4,3,4,3,4,3,4,3,4,3,4,3,4,3,4,3,4,3,4,3,4,3,4,3,4,3,4,3,4,3,4,3,4,3,4,5,3,4,3,34,28,59,60,61,62,61,62,72,73,74,75,76,62,61,62,61,62,61,62,61,62,61,62,70,71,16,17,10,3,4,3,4,3,4,3,4,3,4,3,4,3,4,3,4,3,4,3,4,3,4,3,4,3,4,3,4,3,4,3,4,3,4,3,4,3,4,3,4,3,4,3,4,3,4,3,4,3,4,3,4,3,4,3,4,3,4,3,4,3,4,3,4,3,4,3,4,3,4,3,4,3,4,3,4,3,4,3,4,3,4,3,4,3,4,3,4,3,4,3,4,3,4,3,4,3,4,3,4,3,4,3,4,3,4,3,4,3,4,3,4,3,4,3,4,3,4,3,4,3,4,3,4,3,4,3,4,3,4,3,4,3,4,3,4,3,4,3,4,3,4,3,4,3,4,3,4,3,4,3,4,3,4,3,4,3,4,3,4,3,4,3,4,3,4,3,4,3,4,3,4,3,4,3,4,3,4,3,4,3,4,3,4,3,4,3,4,3,4,3,4,3,4,15,16,17,16,17,16,26,5,3,4,15,16,17,16,17,16,17,16,17,16,17,16,26,5,3,4,3,4,3,4,3,4,3,4,3,4,3,4,3,4,3,4,3,4,3,4,3,4,3,4,3,4,3,4,3,4,3,4,3,4,3,4,3,4,4,5,3,4,3,4,3,4,3,4,3,4,3,4,3,4,3,4,3,4,3,4,3,4,3,4,3,4,3,4,3,4,3,
1,2,1,2,1,2,1,2,1,2,1,2,1,2,1,2,1,2,1,2,1,2,1,2,1,2,1,2,1,2,1,2,1,2,1,2,1,2,1,2,1,2,1,2,1,2,1,2,1,2,1,2,1,2,1,2,1,2,1,2,1,2,1,2,1,2,1,2,1,2,1,2,1,2,1,2,1,2,1,2,1,2,1,2,1,2,1,2,1,2,1,2,1,2,1,2,1,2,1,2,1,2,1,2,1,2,1,2,1,2,1,2,1,2,1,2,1,2,1,2,1,2,1,2,1,2,1,2,1,2,1,2,1,2,1,2,1,2,1,2,1,2,1,2,1,2,1,2,1,2,1,2,1,2,1,2,1,2,1,2,1,2,1,2,1,2,1,2,1,2,1,2,1,2,1,2,1,2,1,2,1,2,1,2,1,2,1,6,21,2,1,2,1,6,46,47,48,49,77,78,79,80,81,82,83,49,48,49,48,49,48,49,48,49,48,49,52,53,12,13,14,2,1,2,1,2,1,2,1,2,1,2,1,2,1,2,1,2,1,2,1,2,1,2,1,2,1,2,1,2,1,2,1,2,1,2,1,2,1,2,1,2,1,2,1,2,1,2,1,2,1,2,1,2,1,2,1,2,1,2,1,2,1,2,1,2,1,2,1,2,1,2,1,2,1,2,1,2,1,2,1,2,1,2,1,2,1,2,1,2,1,2,1,2,1,2,1,2,1,2,1,2,1,2,1,2,1,2,1,2,1,2,1,2,1,2,1,2,1,2,1,2,1,2,1,2,1,2,1,2,1,2,1,2,1,2,1,2,1,2,1,2,1,2,1,2,1,2,1,2,1,2,1,2,1,2,1,2,1,2,1,2,1,2,1,2,1,2,1,2,1,2,1,2,1,2,1,2,1,2,1,2,1,2,1,2,1,2,1,2,1,2,1,2,1,19,12,13,12,13,12,13,21,2,1,6,12,13,12,30,31,32,31,32,33,13,12,13,7,2,1,2,1,2,1,2,1,2,1,2,1,2,1,2,1,2,1,2,1,2,1,2,1,2,1,2,1,2,1,2,1,2,1,2,1,2,1,2,1,6,21,2,1,2,1,2,1,2,1,2,1,2,1,2,1,2,1,2,1,2,1,2,1,2,1,2,1,2,1,2,1,2,
3,4,3,4,3,4,3,4,3,4,3,4,3,4,3,4,3,4,3,4,3,4,3,4,3,4,3,4,3,4,3,4,3,4,3,4,3,4,3,4,3,4,3,4,3,4,3,4,3,4,3,4,3,4,3,4,3,4,3,4,3,4,3,4,3,4,3,4,3,4,3,4,3,4,3,4,3,4,3,4,3,4,3,4,3,4,3,4,3,4,3,4,3,4,3,4,3,4,3,4,3,4,3,4,3,4,3,4,3,4,3,4,3,4,3,4,3,4,3,4,3,4,3,4,3,4,3,4,3,4,3,4,3,4,3,4,3,4,3,4,3,4,3,4,3,4,3,4,3,4,3,4,3,4,3,4,3,4,3,4,3,4,3,4,3,4,3,4,3,4,3,4,3,4,3,4,3,4,3,4,3,4,3,4,3,4,8,9,16,26,24,25,8,9,59,60,61,62,84,85,86,87,88,89,90,62,61,62,61,62,61,62,61,62,61,62,65,17,17,35,18,3,4,3,4,3,4,3,4,3,4,3,4,3,4,3,4,3,4,3,4,3,4,3,4,3,4,3,4,3,4,3,4,3,4,3,4,3,4,3,4,3,4,3,4,3,4,3,4,3,4,3,4,3,4,3,4,3,4,3,4,3,4,3,4,3,4,3,4,3,4,3,4,3,4,3,4,3,4,3,4,3,4,3,4,3,4,3,4,3,4,3,4,3,4,3,4,3,4,3,4,3,4,3,4,3,4,3,4,3,4,3,4,3,4,3,4,3,4,3,4,3,4,3,4,3,4,3,4,3,4,3,4,3,4,3,4,3,4,3,4,3,4,3,4,3,4,3,4,3,4,3,4,3,4,3,4,3,4,3,4,3,4,3,4,3,4,3,4,3,4,3,4,3,4,3,4,3,4,3,4,3,4,3,4,3,4,3,4,3,4,3,4,3,4,20,16,17,16,17,16,17,16,26,8,9,16,17,36,37,38,39,38,39,40,41,16,17,10,3,4,3,4,3,4,3,4,3,4,3,4,3,4,3,4,3,4,3,4,3,4,3,4,3,4,3,4,4,22,23,24,25,22,23,24,25,22,23,8,9,16,26,22,23,24,25,5,3,4,3,4,3,4,3,4,3,4,3,4,3,4,3,4,3,4,3,4,3,4,3,4,3,
1,2,1,2,1,2,1,2,1,2,1,2,1,2,1,2,1,2,1,2,1,2,1,2,1,2,1,2,1,2,1,2,1,2,1,2,1,2,1,2,1,2,1,2,1,2,1,2,1,2,1,2,1,2,1,2,1,2,1,2,1,2,1,2,1,2,1,2,1,2,1,2,1,2,1,2,1,2,1,2,1,2,1,2,1,2,1,2,1,2,1,2,1,2,1,2,1,2,1,2,1,2,1,2,1,2,1,2,1,2,1,2,1,2,1,2,1,2,1,2,1,2,1,2,1,2,1,2,1,2,1,2,1,2,1,2,1,2,1,2,1,2,1,2,1,2,1,2,1,2,1,2,1,2,1,2,1,2,1,2,1,2,1,2,1,2,1,2,1,2,1,2,1,2,1,2,1,2,1,2,1,2,1,2,1,19,12,13,12,13,12,13,12,13,46,47,48,49,91,92,93,94,95,96,48,49,48,49,48,49,50,51,50,51,52,53,12,13,54,55,56,2,1,2,1,2,1,2,1,2,1,2,1,2,1,2,1,2,1,2,1,2,1,2,1,2,1,2,1,2,1,2,1,2,1,2,1,2,1,2,1,2,1,2,1,2,1,2,1,2,1,2,1,2,1,2,1,2,1,2,1,2,1,2,1,2,1,2,1,2,1,2,1,2,1,2,1,2,1,2,1,2,1,2,1,2,1,2,1,2,1,2,1,2,1,2,1,2,1,2,1,2,1,2,1,2,1,2,1,2,1,2,1,2,1,2,1,2,1,2,1,2,1,2,1,2,1,2,1,2,1,2,1,2,1,2,1,2,1,2,1,2,1,2,1,2,1,2,1,2,1,2,1,2,1,2,1,2,1,2,1,2,1,2,1,2,1,2,1,2,1,2,1,2,1,2,1,2,1,2,1,2,1,2,1,2,1,2,1,2,1,2,1,2,1,11,12,13,12,13,12,30,31,32,31,32,31,32,48,49,48,49,48,49,48,49,33,13,21,2,1,2,1,2,1,2,1,2,1,2,1,2,1,2,1,2,1,2,1,2,1,2,1,2,1,2,1,6,12,13,12,13,12,13,12,13,12,13,12,13,12,13,12,13,12,13,21,2,1,2,1,2,1,2,1,2,1,2,1,2,1,2,1,2,1,2,1,2,1,2,1,2,
3,4,3,4,3,4,3,4,3,4,3,4,3,4,3,4,3,4,3,4,3,4,3,4,3,4,3,4,3,4,3,4,3,4,3,4,3,4,3,4,3,4,3,4,3,4,3,4,3,4,3,4,3,4,3,4,3,4,3,4,3,4,3,4,3,4,3,4,3,4,3,4,3,4,3,4,3,4,3,4,3,4,3,4,3,4,3,4,3,4,3,4,3,4,3,4,3,4,3,4,3,4,3,4,3,4,3,4,3,4,3,4,3,4,3,4,3,4,3,4,3,4,3,4,3,4,3,4,3,4,3,4,3,4,3,4,3,4,3,4,3,4,3,4,3,4,3,4,3,4,3,4,3,4,3,4,3,4,3,4,3,4,3,4,3,4,3,4,3,4,3,4,3,4,3,4,3,4,3,4,3,4,3,4,3,20,16,17,16,17,16,17,16,17,59,60,61,62,61,62,97,98,99,100,61,62,61,62,61,62,63,64,63,64,65,17,16,17,55,57,3,4,3,4,3,4,3,4,3,4,3,4,3,4,3,4,3,4,3,4,3,4,3,4,3,4,3,4,3,4,3,4,3,4,3,4,3,4,3,4,3,4,3,4,3,4,3,4,3,4,3,4,3,4,3,4,3,4,3,4,3,4,3,4,3,4,3,4,3,4,3,4,3,4,3,4,3,4,3,4,3,4,3,4,3,4,3,4,3,4,3,4,3,4,3,4,3,4,3,4,3,4,3,4,3,4,3,4,3,4,3,4,3,4,3,4,3,4,3,4,3,4,3,4,3,4,3,4,3,4,3,4,3,4,3,4,3,4,3,4,3,4,3,4,3,4,3,4,3,4,3,4,3,4,3,4,3,4,3,4,3,4,3,4,3,4,3,4,3,4,3,4,3,4,3,4,3,4,3,4,3,4,3,4,3,4,3,4,3,4,3,4,3,4,3,15,16,17,16,17,36,37,38,39,38,39,38,39,61,62,61,62,61,62,61,62,40,41,16,26,5,3,4,3,4,3,4,3,4,3,4,3,4,3,4,3,4,3,4,3,4,3,4,3,4,4,8,9,16,17,16,17,16,17,16,17,16,17,16,17,16,17,16,17,16,17,16,26,5,3,4,3,4,3,4,3,4,3,4,3,4,3,4,3,4,3,4,3,4,3,4,3,
1,2,1,2,1,2,1,2,1,2,1,2,1,2,1,2,1,2,1,2,1,2,1,2,1,2,1,2,1,2,1,2,1,2,1,2,1,2,1,2,1,2,1,2,1,2,1,2,1,2,1,2,1,2,1,2,1,2,1,2,1,2,1,2,1,2,1,2,1,2,1,2,1,2,1,2,1,2,1,2,1,2,1,2,1,2,1,2,1,2,1,2,1,2,1,2,1,2,1,2,1,2,1,2,1,2,1,2,1,2,1,2,1,2,1,2,1,2,1,2,1,2,1,2,1,2,1,2,1,2,1,2,1,2,1,2,1,2,1,2,1,2,1,2,1,2,1,2,1,2,1,2,1,2,1,2,1,2,1,2,1,2,1,2,1,2,1,2,1,2,1,2,1,2,1,2,1,2,1,2,1,2,1,2,1,6,12,13,12,13,12,13,12,30,48,49,48,49,48,49,91,92,101,102,48,49,48,49,52,53,12,13,12,13,12,13,54,55,56,2,1,2,1,2,1,2,1,2,1,2,1,2,1,2,1,2,1,2,1,2,1,2,1,2,1,2,1,2,1,2,1,2,1,2,1,2,1,2,1,2,1,2,1,2,1,2,1,2,1,2,1,2,1,2,1,2,1,2,1,2,1,2,1,2,1,2,1,2,1,2,1,2,1,2,1,2,1,2,1,2,1,2,1,2,1,2,1,2,1,2,1,2,1,2,1,2,1,2,1,2,1,2,1,2,1,2,1,2,1,2,1,2,1,2,1,2,1,2,1,2,1,2,1,2,1,2,1,2,1,2,1,2,1,2,1,2,1,2,1,2,1,2,1,2,1,2,1,2,1,2,1,2,1,2,1,2,1,2,1,2,1,2,1,2,1,2,1,2,1,2,1,2,1,2,1,2,1,2,1,2,1,2,1,2,1,2,1,2,1,2,1,2,1,2,1,19,12,13,12,30,48,49,48,49,48,49,48,49,48,49,48,49,48,49,48,49,66,67,12,13,21,2,1,2,1,2,1,2,1,2,1,2,1,2,1,2,1,2,1,2,1,2,1,2,1,11,12,13,12,13,12,13,12,13,12,13,12,13,12,13,12,13,12,13,12,13,12,13,21,2,1,2,1,2,1,2,1,2,1,2,1,2,1,2,1,2,1,2,1,2,1,2,
3,4,3,4,3,4,3,4,3,4,3,4,3,4,3,4,3,4,3,4,3,4,3,4,3,4,3,4,3,4,3,4,3,4,3,4,3,4,3,4,3,4,3,4,3,4,3,4,3,4,3,4,3,4,3,4,3,4,3,4,3,4,3,4,3,4,3,4,3,4,3,4,3,4,3,4,3,4,3,4,3,4,3,4,3,4,3,4,3,4,3,4,3,4,3,4,3,4,3,4,3,4,3,4,3,4,3,4,3,4,3,4,3,4,3,4,3,4,3,4,3,4,3,4,3,4,3,4,3,4,3,4,3,4,3,4,3,4,3,4,3,4,3,4,3,4,3,4,3,4,3,4,3,4,3,4,3,4,3,4,3,4,3,4,3,4,3,4,3,4,3,4,3,4,3,4,3,4,3,4,3,4,3,4,8,9,17,35,16,17,16,17,36,37,61,62,61,62,61,62,61,62,61,62,61,62,61,62,65,17,16,17,16,17,17,35,55,57,3,4,3,4,3,4,3,4,3,4,3,4,3,4,3,4,3,4,3,4,3,4,3,4,3,4,3,4,3,4,3,4,3,4,3,4,3,4,3,4,3,4,3,4,3,4,3,4,3,4,3,4,3,4,3,4,3,4,3,4,3,4,3,4,3,4,3,4,3,4,3,4,3,4,3,4,3,4,3,4,3,4,3,4,3,4,3,4,3,4,3,4,3,4,3,4,3,4,3,4,3,4,3,4,3,4,3,4,3,4,3,4,3,4,3,4,3,4,3,4,3,4,3,4,3,4,3,4,3,4,3,4,3,4,3,4,3,4,3,4,3,4,3,4,3,4,3,4,3,4,3,4,3,4,3,4,3,4,3,4,3,4,3,4,3,4,3,4,3,4,3,4,3,4,3,4,3,4,3,4,3,4,3,4,3,4,3,4,3,4,3,4,3,4,3,4,3,20,16,17,36,37,61,62,61,62,61,62,61,62,61,62,61,62,61,62,61,62,70,71,16,17,16,26,5,3,4,3,4,3,4,3,4,3,4,3,4,3,4,3,4,3,4,3,4,3,4,15,16,17,16,17,16,17,16,17,16,17,16,17,16,17,16,17,16,17,16,17,16,17,16,26,5,3,4,3,4,3,4,3,4,3,4,3,4,3,4,3,4,3,4,3,4,3,
1,2,1,2,1,2,1,2,1,2,1,2,1,2,1,2,1,2,1,2,1,2,1,2,1,2,1,2,1,2,1,2,1,2,1,2,1,2,1,2,1,2,1,2,1,2,1,2,1,2,1,2,1,2,1,2,1,2,1,2,1,2,1,2,1,2,1,2,1,2,1,2,1,2,1,2,1,2,1,2,1,2,1,2,1,2,1,2,1,2,1,2,1,2,1,2,1,2,1,2,1,2,1,2,1,2,1,2,1,2,1,2,1,2,1,2,1,2,1,2,1,2,1,2,1,2,1,2,1,2,1,2,1,2,1,2,1,2,1,2,1,2,1,2,1,2,1,2,1,2,1,2,1,2,1,2,1,2,1,2,1,2,1,2,1,2,1,2,1,2,1,2,1,2,1,2,1,2,1,2,1,2,1,27,28,29,54,55,28,29,12,13,109,110,50,51,48,49,48,49,48,49,48,49,48,49,52,53,12,13,54,55,44,45,42,43,56,2,1,2,1,2,1,2,1,2,1,2,1,2,1,2,1,2,1,2,1,2,1,2,1,2,1,2,1,2,1,2,1,2,1,2,1,2,1,2,1,2,1,2,1,2,1,2,1,2,1,2,1,2,1,2,1,2,1,2,1,2,1,2,1,2,1,2,1,2,1,2,1,2,1,2,1,2,1,2,1,2,1,2,1,2,1,2,1,2,1,2,1,2,1,2,1,2,1,2,1,2,1,2,1,2,1,2,1,2,1,2,1,2,1,2,1,2,1,2,1,2,1,2,1,2,1,2,1,2,1,2,1,2,1,2,1,2,1,2,1,2,1,2,1,2,1,2,1,2,1,2,1,2,1,2,1,2,1,2,1,2,1,2,1,2,1,2,1,2,1,2,1,2,1,2,1,2,1,2,1,2,1,2,1,2,1,2,1,2,1,2,1,2,1,2,1,2,1,11,12,13,46,47,48,49,48,49,48,49,48,49,48,49,48,49,48,49,48,49,48,49,33,13,12,13,21,2,1,2,1,2,1,2,1,2,1,2,1,2,1,2,1,2,1,2,1,2,1,6,12,13,12,13,12,13,12,13,12,13,12,13,12,13,12,13,12,13,12,13,12,13,12,13,14,2,1,2,1,2,1,2,1,2,1,2,1,2,1,2,1,2,1,2,1,2,
3,4,3,4,3,4,3,4,3,4,3,4,3,4,3,4,3,4,3,4,3,4,3,4,3,4,3,4,3,4,3,4,3,4,3,4,3,4,3,4,3,4,3,4,3,4,3,4,3,4,3,4,3,4,3,4,3,4,3,4,3,4,3,4,3,4,3,4,3,4,3,4,3,4,3,4,3,4,3,4,3,4,3,4,3,4,3,4,3,4,3,4,3,4,3,4,3,4,3,4,3,4,3,4,3,4,3,4,3,4,3,4,3,4,3,4,3,4,3,4,3,4,3,4,3,4,3,4,3,4,3,4,3,4,3,4,3,4,3,4,3,4,3,4,3,4,3,4,3,4,3,4,3,4,3,4,3,4,3,4,3,4,3,4,3,4,3,4,3,4,3,4,3,4,3,4,3,4,3,4,3,4,3,4,34,28,55,57,34,28,16,17,16,115,63,64,61,62,61,62,61,62,61,62,61,62,65,17,16,17,55,57,58,57,3,57,3,4,3,4,3,4,3,4,3,4,3,4,3,4,3,4,3,4,3,4,3,4,3,4,3,4,3,4,3,4,3,4,3,4,3,4,3,4,3,4,3,4,3,4,3,4,3,4,3,4,3,4,3,4,3,4,3,4,3,4,3,4,3,4,3,4,3,4,3,4,3,4,3,4,3,4,3,4,3,4,3,4,3,4,3,4,3,4,3,4,3,4,3,4,3,4,3,4,3,4,3,4,3,4,3,4,3,4,3,4,3,4,3,4,3,4,3,4,3,4,3,4,3,4,3,4,3,4,3,4,3,4,3,4,3,4,3,4,3,4,3,4,3,4,3,4,3,4,3,4,3,4,3,4,3,4,3,4,3,4,3,4,3,4,3,4,3,4,3,4,3,4,3,4,3,4,3,4,3,4,3,4,3,4,3,4,3,4,3,4,3,4,3,4,3,4,3,4,3,15,16,17,59,60,61,62,61,62,61,62,61,62,61,62,61,62,61,62,61,62,61,62,40,41,16,17,16,26,22,23,24,25,24,25,5,3,4,3,4,3,4,3,4,3,4,3,4,4,8,9,16,17,16,17,16,17,16,17,16,17,16,17,16,17,16,17,16,17,16,17,16,17,16,17,18,3,4,3,4,3,4,3,4,3,4,3,4,3,4,3,4,3,4,3,4,3,
1,2,1,2,1,2,1,2,1,2,1,2,1,2,1,2,1,2,1,2,1,2,1,2,1,2,1,2,1,2,1,2,1,2,1,2,1,2,1,2,1,2,1,2,1,2,1,2,1,2,1,2,1,2,1,2,1,2,1,2,1,2,1,2,1,2,1,2,1,2,1,2,1,2,1,2,1,2,1,2,1,2,1,2,1,2,1,2,1,2,1,2,1,2,1,2,1,2,1,2,1,2,1,2,1,2,1,2,1,2,1,2,1,2,1,2,1,2,1,2,1,2,1,2,1,2,1,2,1,2,1,2,1,2,1,2,1,2,1,2,1,2,1,2,1,2,1,2,1,2,1,2,1,2,1,2,1,2,1,2,1,2,1,2,1,2,1,2,1,2,1,2,1,2,1,2,1,2,1,2,1,2,1,2,1,27,56,2,1,19,12,13,12,13,12,13,109,110,50,51,50,51,50,51,52,53,12,13,12,13,14,2,1,2,1,2,1,2,1,2,1,2,1,2,1,2,1,2,1,2,1,2,1,2,1,2,1,2,1,2,1,2,1,2,1,2,1,2,1,2,1,2,1,2,1,2,1,2,1,2,1,2,1,2,1,2,1,2,1,2,1,2,1,2,1,2,1,2,1,2,1,2,1,2,1,2,1,2,1,2,1,2,1,2,1,2,1,2,1,2,1,2,1,2,1,2,1,2,1,2,1,2,1,2,1,2,1,2,1,2,1,2,1,2,1,2,1,2,1,2,1,2,1,2,1,2,1,2,1,2,1,2,1,2,1,2,1,2,1,2,1,2,1,2,1,2,1,2,1,2,1,2,1,2,1,2,1,2,1,2,1,2,1,2,1,2,1,2,1,2,1,2,1,2,1,2,1,2,1,2,1,2,1,2,1,2,1,2,1,2,1,2,1,2,1,2,1,2,1,2,1,2,1,2,1,19,12,13,46,47,48,49,48,49,48,49,48,49,48,49,48,49,48,49,48,49,48,49,48,49,33,13,12,13,12,13,12,13,12,13,21,2,1,2,1,2,1,2,1,2,1,2,1,27,28,29,12,13,12,13,12,13,12,13,54,55,44,45,68,69,42,43,44,45,68,69,28,29,12,13,7,2,1,2,1,2,1,2,1,2,1,2,1,2,1,2,1,2,1,2,1,2,
3,4,3,4,3,4,3,4,3,4,3,4,3,4,3,4,3,4,3,4,3,4,3,4,3,4,3,4,3,4,3,4,3,4,3,4,3,4,3,4,3,4,3,4,3,4,3,4,3,4,3,4,3,4,3,4,3,4,3,4,3,4,3,4,3,4,3,4,3,4,3,4,3,4,3,4,3,4,3,4,3,4,3,4,3,4,3,4,3,4,3,4,3,4,3,4,3,4,3,4,3,4,3,4,3,4,3,4,3,4,3,4,3,4,3,4,3,4,3,4,3,4,3,4,3,4,3,4,3,4,3,4,3,4,3,4,3,4,3,4,3,4,3,4,3,4,3,4,3,4,3,4,3,4,3,4,3,4,3,4,3,4,3,4,3,4,3,4,3,4,3,4,3,4,3,4,3,4,3,4,3,4,3,4,3,4,3,4,3,20,16,17,16,17,16,17,16,115,63,64,63,64,63,64,65,17,16,17,16,17,18,3,4,3,4,3,4,3,4,3,4,3,4,3,4,3,4,3,4,3,4,3,4,3,4,3,4,3,4,3,4,3,4,3,4,3,4,3,4,3,4,3,4,3,4,3,4,3,4,3,4,3,4,3,4,3,4,3,4,3,4,3,4,3,4,3,4,3,4,3,4,3,4,3,4,3,4,3,4,3,4,3,4,3,4,3,4,3,4,3,4,3,4,3,4,3,4,3,4,3,4,3,4,3,4,3,4,3,4,3,4,3,4,3,4,3,4,3,4,3,4,3,4,3,4,3,4,3,4,3,4,3,4,3,4,3,4,3,4,3,4,3,4,3,4,3,4,3,4,3,4,3,4,3,4,3,4,3,4,3,4,3,4,3,4,3,4,3,4,3,4,3,4,3,4,3,4,3,4,3,4,3,4,3,4,3,4,3,4,3,4,3,4,3,4,3,4,3,4,3,4,3,4,3,4,20,16,17,59,60,61,62,61,62,61,62,61,62,61,62,61,62,61,62,61,62,61,62,61,62,40,41,16,17,16,17,16,17,16,17,16,26,5,3,4,3,4,3,4,3,4,3,4,3,34,28,16,17,16,17,16,17,16,17,55,57,58,57,3,4,3,57,58,57,3,4,34,28,16,17,10,3,4,3,4,3,4,3,4,3,4,3,4,3,4,3,4,3,4,3,4,3,
1,2,1,2,1,2,1,2,1,2,1,2,1,2,1,2,1,2,1,2,1,2,1,2,1,2,1,2,1,2,1,2,1,2,1,2,1,2,1,2,1,2,1,2,1,2,1,2,1,2,1,2,1,2,1,2,1,2,1,2,1,2,1,2,1,2,1,2,1,2,1,2,1,2,1,2,1,2,1,2,1,2,1,2,1,2,1,2,1,2,1,2,1,2,1,2,1,2,1,2,1,2,1,2,1,2,1,2,1,2,1,2,1,2,1,2,1,2,1,2,1,2,1,2,1,2,1,2,1,2,1,2,1,2,1,2,1,2,1,2,1,2,1,2,1,2,1,2,1,2,1,2,1,2,1,2,1,2,1,2,1,2,1,2,1,2,1,2,1,2,1,2,1,2,1,2,1,2,1,2,1,2,1,2,1,2,1,2,1,6,12,13,12,13,12,13,12,13,12,13,12,13,12,13,12,13,12,13,54,55,56,2,1,2,1,2,1,2,1,2,1,2,1,2,1,2,1,2,1,2,1,2,1,2,1,2,1,2,1,2,1,2,1,2,1,2,1,2,1,2,1,2,1,2,1,2,1,2,1,2,1,2,1,2,1,2,1,2,1,2,1,2,1,2,1,2,1,2,1,2,1,2,1,2,1,2,1,2,1,2,1,2,1,2,1,2,1,2,1,2,1,2,1,2,1,2,1,2,1,2,1,2,1,2,1,2,1,2,1,2,1,2,1,2,1,2,1,2,1,2,1,2,1,2,1,2,1,2,1,2,1,2,1,2,1,2,1,2,1,2,1,2,1,2,1,2,1,2,1,2,1,2,1,2,1,2,1,2,1,2,1,2,1,2,1,2,1,2,1,2,1,2,1,2,1,2,1,2,1,2,1,2,1,2,1,2,1,2,1,2,1,2,1,2,1,2,1,2,1,2,1,2,1,2,1,6,12,13,109,110,50,51,48,49,48,49,48,49,48,49,48,49,48,49,48,49,48,49,48,49,48,49,33,13,12,13,12,13,12,13,12,13,21,2,1,2,1,2,1,2,1,2,1,2,1,19,12,13,12,13,12,13,12,13,7,2,1,2,1,2,1,2,1,2,1,2,1,19,12,13,14,2,1,2,1,2,1,2,1,2,1,2,1,2,1,2,1,2,1,2,1,2,
3,4,3,4,3,4,3,4,3,4,3,4,3,4,3,4,3,4,3,4,3,4,3,4,3,4,3,4,3,4,3,4,3,4,3,4,3,4,3,4,3,4,3,4,3,4,3,4,3,4,3,4,3,4,3,4,3,4,3,4,3,4,3,4,3,4,3,4,3,4,3,4,3,4,3,4,3,4,3,4,3,4,3,4,3,4,3,4,3,4,3,4,3,4,3,4,3,4,3,4,3,4,3,4,3,4,3,4,3,4,3,4,3,4,3,4,3,4,3,4,3,4,3,4,3,4,3,4,3,4,3,4,3,4,3,4,3,4,3,4,3,4,3,4,3,4,3,4,3,4,3,4,3,4,3,4,3,4,3,4,3,4,3,4,3,4,3,4,3,4,3,4,3,4,3,4,3,4,3,4,3,4,3,4,3,4,3,4,8,9,16,17,16,17,16,17,16,17,16,17,16,17,16,17,16,17,16,17,55,57,3,4,3,4,3,4,3,4,3,4,3,4,3,4,3,4,3,4,3,4,3,4,3,4,3,4,3,4,3,4,3,4,3,4,3,4,3,4,3,4,3,4,3,4,3,4,3,4,3,4,3,4,3,4,3,4,3,4,3,4,3,4,3,4,3,4,3,4,3,4,3,4,3,4,3,4,3,4,3,4,3,4,3,4,3,4,3,4,3,4,3,4,3,4,3,4,3,4,3,4,3,4,3,4,3,4,3,4,3,4,3,4,3,4,3,4,3,4,3,4,3,4,3,4,3,4,3,4,3,4,3,4,3,4,3,4,3,4,3,4,3,4,3,4,3,4,3,4,3,4,3,4,3,4,3,4,3,4,3,4,3,4,3,4,3,4,3,4,3,4,3,4,3,4,3,4,3,4,3,4,3,4,3,4,3,4,3,4,3,4,3,4,3,4,3,4,3,4,3,4,3,4,22,23,8,9,16,17,16,115,63,64,61,62,61,62,61,62,61,62,61,62,61,62,61,62,61,62,61,62,61,62,40,41,16,17,16,17,16,17,16,17,16,26,5,3,4,3,4,3,4,3,4,3,4,20,16,17,16,17,16,17,16,17,10,3,4,3,4,3,4,3,4,3,4,3,4,20,16,17,18,3,4,3,4,3,4,3,4,3,4,3,4,3,4,3,4,3,4,3,4,3,
1,2,1,2,1,2,1,2,1,2,1,2,1,2,1,2,1,2,1,2,1,2,1,2,1,2,1,2,1,2,1,2,1,2,1,2,1,2,1,2,1,2,1,2,1,2,1,2,1,2,1,2,1,2,1,2,1,2,1,2,1,2,1,2,1,2,1,2,1,2,1,2,1,2,1,2,1,2,1,2,1,2,1,2,1,2,1,2,1,2,1,2,1,2,1,2,1,2,1,2,1,2,1,2,1,2,1,2,1,2,1,2,1,2,1,2,1,2,1,2,1,2,1,2,1,2,1,2,1,2,1,2,1,2,1,2,1,2,1,2,1,2,1,2,1,2,1,2,1,2,1,2,1,2,1,2,1,2,1,2,1,2,1,2,1,2,1,2,1,2,1,2,1,2,1,2,1,2,1,2,1,2,1,2,1,2,1,11,54,55,28,29,12,13,12,13,12,13,12,13,12,13,12,13,12,13,12,13,14,2,1,2,1,2,1,2,1,2,1,2,1,2,1,2,1,2,1,2,1,2,1,2,1,2,1,2,1,2,1,2,1,2,1,2,1,2,1,2,1,2,1,2,1,2,1,2,1,2,1,2,1,2,1,2,1,2,1,2,1,2,1,2,1,2,1,2,1,2,1,2,1,2,1,2,1,2,1,2,1,2,1,2,1,2,1,2,1,2,1,2,1,2,1,2,1,2,1,2,1,2,1,2,1,2,1,2,1,2,1,2,1,2,1,2,1,2,1,2,1,2,1,2,1,2,1,2,1,2,1,2,1,2,1,2,1,2,1,2,1,2,1,2,1,2,1,2,1,2,1,2,1,2,1,2,1,2,1,2,1,2,1,2,1,2,1,2,1,2,1,2,1,2,1,2,1,2,1,2,1,2,1,2,1,2,1,2,1,2,1,2,1,2,1,2,1,2,1,2,1,2,1,6,12,13,12,13,12,13,12,13,12,13,109,110,50,51,48,49,48,49,48,49,48,49,48,49,48,49,48,49,48,49,48,49,31,32,33,13,12,13,12,13,12,13,21,2,1,2,1,2,1,2,1,2,1,11,12,13,12,13,12,13,12,13,14,2,1,2,1,2,1,2,1,2,1,2,1,19,12,13,7,2,1,2,1,2,1,2,1,2,1,2,1,2,1,2,1,2,1,2,1,2,
3,4,3,4,3,4,3,4,3,4,3,4,3,4,3,4,3,4,3,4,3,4,3,4,3,4,3,4,3,4,3,4,3,4,3,4,3,4,3,4,3,4,3,4,3,4,3,4,3,4,3,4,3,4,3,4,3,4,3,4,3,4,3,4,3,4,3,4,3,4,3,4,3,4,3,4,3,4,3,4,3,4,3,4,3,4,3,4,3,4,3,4,3,4,3,4,3,4,3,4,3,4,3,4,3,4,3,4,3,4,3,4,3,4,3,4,3,4,3,4,3,4,3,4,3,4,3,4,3,4,3,4,3,4,3,4,3,4,3,4,3,4,3,4,3,4,3,4,3,4,3,4,3,4,3,4,3,4,3,4,3,4,3,4,3,4,3,4,3,4,3,4,3,4,3,4,3,4,3,4,3,4,3,4,3,4,3,15,55,57,34,28,35,17,16,17,16,17,16,17,16,17,16,17,16,17,17,35,18,3,4,3,4,3,4,3,4,3,4,3,4,3,4,3,4,3,4,3,4,3,4,3,4,3,4,3,4,3,4,3,4,3,4,3,4,3,4,3,4,3,4,3,4,3,4,3,4,3,4,3,4,3,4,3,4,3,4,3,4,3,4,3,4,3,4,3,4,3,4,3,4,3,4,3,4,3,4,3,4,3,4,3,4,3,4,3,4,3,4,3,4,3,4,3,4,3,4,3,4,3,4,3,4,3,4,3,4,3,4,3,4,3,4,3,4,3,4,3,4,3,4,3,4,3,4,3,4,3,4,3,4,3,4,3,4,3,4,3,4,3,4,3,4,3,4,3,4,3,4,3,4,3,4,3,4,3,4,3,4,3,4,3,4,3,4,3,4,3,4,3,4,3,4,3,4,3,4,3,4,3,4,3,4,3,4,3,4,3,4,3,4,3,4,3,4,3,4,3,4,4,8,9,35,17,16,17,16,17,16,17,17,35,16,115,63,64,61,62,61,62,61,62,61,62,61,62,61,62,61,62,61,62,61,62,38,39,40,41,16,17,16,17,16,17,16,26,5,3,4,3,4,3,4,3,4,15,16,17,16,17,16,17,16,17,18,3,4,3,4,3,4,3,4,3,4,3,4,20,16,17,10,3,4,3,4,3,4,3,4,3,4,3,4,3,4,3,4,3,4,3,4,3,
1,2,1,2,1,2,1,2,1,2,1,2,1,2,1,2,1,2,1,2,1,2,1,2,1,2,1,2,1,2,1,2,1,2,1,2,1,2,1,2,1,2,1,2,1,2,1,2,1,2,1,2,1,2,1,2,1,2,1,2,1,2,1,2,1,2,1,2,1,2,1,2,1,2,1,2,1,2,1,2,1,2,1,2,1,2,1,2,1,2,1,2,1,2,1,2,1,2,1,2,1,2,1,2,1,2,1,2,1,2,1,2,1,2,1,2,1,2,1,2,1,2,1,2,1,2,1,2,1,2,1,2,1,2,1,2,1,2,1,2,1,2,1,2,1,2,1,2,1,2,1,2,1,2,1,2,1,2,1,2,1,2,1,2,1,2,1,2,1,2,1,2,1,2,1,2,1,2,1,2,1,2,1,2,1,2,1,27,56,2,1,27,44,45,68,69,42,43,28,29,12,13,12,13,12,13,54,55,56,2,1,2,1,2,1,2,1,2,1,2,1,2,1,2,1,2,1,2,1,2,1,2,1,2,1,2,1,2,1,2,1,2,1,2,1,2,1,2,1,2,1,2,1,2,1,2,1,2,1,2,1,2,1,2,1,2,1,2,1,2,1,2,1,2,1,2,1,2,1,2,1,2,1,2,1,2,1,2,1,2,1,2,1,2,1,2,1,2,1,2,1,2,1,2,1,2,1,2,1,2,1,2,1,2,1,2,1,2,1,2,1,2,1,2,1,2,1,2,1,2,1,2,1,2,1,2,1,2,1,2,1,2,1,2,1,2,1,2,1,2,1,2,1,2,1,2,1,2,1,2,1,2,1,2,1,2,1,2,1,2,1,2,1,2,1,2,1,2,1,2,1,2,1,2,1,2,1,2,1,2,1,2,1,2,1,2,1,2,1,2,1,2,1,2,1,2,1,2,1,27,42,43,44,45,68,69,42,43,44,45,68,69,28,29,12,13,109,110,50,51,48,49,48,49,48,49,48,49,48,49,48,49,48,49,48,49,48,49,33,13,12,13,12,13,12,13,21,2,1,2,1,2,1,2,1,19,12,13,12,13,12,13,12,13,14,2,1,2,1,2,1,2,1,2,1,2,1,11,12,13,14,2,1,2,1,2,1,2,1,2,1,2,1,2,1,2,1,2,1,2,1,2,
3,4,3,4,3,4,3,4,3,4,3,4,3,4,3,4,3,4,3,4,3,4,3,4,3,4,3,4,3,4,3,4,3,4,3,4,3,4,3,4,3,4,3,4,3,4,3,4,3,4,3,4,3,4,3,4,3,4,3,4,3,4,3,4,3,4,3,4,3,4,3,4,3,4,3,4,3,4,3,4,3,4,3,4,3,4,3,4,3,4,3,4,3,4,3,4,3,4,3,4,3,4,3,4,3,4,3,4,3,4,3,4,3,4,3,4,3,4,3,4,3,4,3,4,3,4,3,4,3,4,3,4,3,4,3,4,3,4,3,4,3,4,3,4,3,4,3,4,3,4,3,4,3,4,3,4,3,4,3,4,3,4,3,4,3,4,3,4,3,4,3,4,3,4,3,4,3,4,3,4,3,4,3,4,3,4,3,4,3,4,3,4,58,57,3,4,3,57,34,28,16,17,16,17,16,17,55,57,3,4,3,4,3,4,3,4,3,4,3,4,3,4,3,4,3,4,3,4,3,4,3,4,3,4,3,4,3,4,3,4,3,4,3,4,3,4,3,4,3,4,3,4,3,4,3,4,3,4,3,4,3,4,3,4,3,4,3,4,3,4,3,4,3,4,3,4,3,4,3,4,3,4,3,4,3,4,3,4,3,4,3,4,3,4,3,4,3,4,3,4,3,4,3,4,3,4,3,4,3,4,3,4,3,4,3,4,3,4,3,4,3,4,3,4,3,4,3,4,3,4,3,4,3,4,3,4,3,4,3,4,3,4,3,4,3,4,3,4,3,4,3,4,3,4,3,4,3,4,3,4,3,4,3,4,3,4,3,4,3,4,3,4,3,4,3,4,3,4,3,4,3,4,3,4,3,4,3,4,3,4,3,4,3,4,3,4,3,4,3,4,3,4,3,4,3,4,3,4,3,4,3,57,58,57,3,4,3,57,58,57,3,4,34,28,35,17,16,115,63,64,61,62,61,62,61,62,61,62,61,62,61,62,61,62,61,62,61,62,40,41,16,17,16,17,16,17,16,26,5,3,4,3,4,3,4,20,16,17,16,17,16,17,16,17,18,3,4,3,4,3,4,3,4,3,4,3,4,15,35,17,18,3,4,3,4,3,4,3,4,3,4,3,4,3,4,3,4,3,4,3,4,3,
1,2,1,2,1,2,1,2,1,2,1,2,1,2,1,2,1,2,1,2,1,2,1,2,1,2,1,2,1,2,1,2,1,2,1,2,1,2,1,2,1,2,1,2,1,2,1,2,1,2,1,2,1,2,1,2,1,2,1,2,1,2,1,2,1,2,1,2,1,2,1,2,1,2,1,2,1,2,1,2,1,2,1,2,1,2,1,2,1,2,1,2,1,2,1,2,1,2,1,2,1,2,1,2,1,2,1,2,1,2,1,2,1,2,1,2,1,2,1,2,1,2,1,2,1,2,1,2,1,2,1,2,1,2,1,2,1,2,1,2,1,2,1,2,1,2,1,2,1,2,1,2,1,2,1,2,1,2,1,2,1,2,1,2,1,2,1,2,1,2,1,2,1,2,1,2,1,2,1,2,1,2,1,2,1,2,1,2,1,2,1,2,1,2,1,2,1,2,1,19,12,13,12,13,12,13,14,2,1,2,1,2,1,2,1,2,1,2,1,2,1,2,1,2,1,2,1,2,1,2,1,2,1,2,1,2,1,2,1,2,1,2,1,2,1,2,1,2,1,2,1,2,1,2,1,2,1,2,1,2,1,2,1,2,1,2,1,2,1,2,1,2,1,2,1,2,1,2,1,2,1,2,1,2,1,2,1,2,1,2,1,2,1,2,1,2,1,2,1,2,1,2,1,2,1,2,1,2,1,2,1,2,1,2,1,2,1,2,1,2,1,2,1,2,1,2,1,2,1,2,1,2,1,2,1,2,1,2,1,2,1,2,1,2,1,2,1,2,1,2,1,2,1,2,1,2,1,2,1,2,1,2,1,2,1,2,1,2,1,2,1,2,1,2,1,2,1,2,1,2,1,2,1,2,1,2,1,2,1,2,1,2,1,2,1,2,1,2,1,2,1,2,1,2,1,2,1,2,1,2,1,2,1,2,1,2,1,2,1,2,1,2,1,27,28,29,12,13,12,13,109,110,50,51,48,49,48,49,48,49,48,49,48,49,48,49,48,49,48,49,33,13,12,13,12,13,12,13,14,2,1,2,1,2,1,11,12,13,12,13,12,13,12,13,21,2,1,2,1,2,1,2,1,2,1,2,1,27,28,29,7,2,1,2,1,2,1,2,1,2,1,2,1,2,1,2,1,2,1,2,1,2,
3,4,3,4,3,4,3,4,3,4,3,4,3,4,3,4,3,4,3,4,3,4,3,4,3,4,3,4,3,4,3,4,3,4,3,4,3,4,3,4,3,4,3,4,3,4,3,4,3,4,3,4,3,4,3,4,3,4,3,4,3,4,3,4,3,4,3,4,3,4,3,4,3,4,3,4,3,4,3,4,3,4,3,4,3,4,3,4,3,4,3,4,3,4,3,4,3,4,3,4,3,4,3,4,3,4,3,4,3,4,3,4,3,4,3,4,3,4,3,4,3,4,3,4,3,4,3,4,3,4,3,4,3,4,3,4,3,4,3,4,3,4,3,4,3,4,3,4,3,4,3,4,3,4,3,4,3,4,3,4,3,4,3,4,3,4,3,4,3,4,3,4,3,4,3,4,3,4,3,4,3,4,3,4,3,4,3,4,3,4,3,4,3,4,3,4,3,4,3,20,35,17,16,17,17,35,18,3,4,3,4,3,4,3,4,3,4,3,4,3,4,3,4,3,4,3,4,3,4,3,4,3,4,3,4,3,4,3,4,3,4,3,4,3,4,3,4,3,4,3,4,3,4,3,4,3,4,3,4,3,4,3,4,3,4,3,4,3,4,3,4,3,4,3,4,3,4,3,4,3,4,3,4,3,4,3,4,3,4,3,4,3,4,3,4,3,4,3,4,3,4,3,4,3,4,3,4,3,4,3,4,3,4,3,4,3,4,3,4,3,4,3,4,3,4,3,4,3,4,3,4,3,4,3,4,3,4,3,4,3,4,3,4,3,4,3,4,3,4,3,4,3,4,3,4,3,4,3,4,3,4,3,4,3,4,4,5,3,4,3,4,3,4,3,4,3,4,3,4,3,4,3,4,3,4,3,4,3,4,3,4,3,4,3,4,3,4,3,4,3,4,3,4,3,4,3,4,3,4,3,4,3,4,3,4,3,4,3,4,3,4,3,4,3,34,28,35,17,17,35,16,115,63,64,61,62,61,62,61,62,61,62,61,62,61,62,61,62,61,62,40,41,16,17,16,17,16,17,18,3,4,3,4,3,4,15,16,17,16,17,16,17,16,17,16,26,22,23,5,3,4,3,4,3,4,3,4,3,34,28,10,3,4,3,4,3,4,3,4,3,4,3,4,3,4,3,4,3,4,3,4,3,
1,2,1,2,1,2,1,2,1,2,1,2,1,2,1,2,1,2,1,2,1,2,1,2,1,2,1,2,1,2,1,2,1,2,1,2,1,2,1,2,1,2,1,2,1,2,1,2,1,2,1,2,1,2,1,2,1,2,1,2,1,2,1,2,1,2,1,2,1,2,1,2,1,2,1,2,1,2,1,2,1,2,1,2,1,2,1,2,1,2,1,2,1,2,1,2,1,2,1,2,1,2,1,2,1,2,1,2,1,2,1,2,1,2,1,2,1,2,1,2,1,2,1,2,1,2,1,2,1,2,1,2,1,2,1,2,1,2,1,2,1,2,1,2,1,2,1,2,1,2,1,2,1,2,1,2,1,2,1,2,1,2,1,2,1,2,1,2,1,2,1,2,1,2,1,2,1,2,1,2,1,2,1,2,1,2,1,2,1,2,1,2,1,2,1,2,1,2,1,27,28,29,12,13,54,55,56,2,1,2,1,2,1,2,1,2,1,2,1,2,1,2,1,2,1,2,1,2,1,2,1,2,1,2,1,2,1,2,1,2,1,2,1,2,1,2,1,2,1,2,1,2,1,2,1,2,1,2,1,2,1,2,1,2,1,2,1,2,1,2,1,2,1,2,1,2,1,2,1,2,1,2,1,2,1,2,1,2,1,2,1,2,1,2,1,2,1,2,1,2,1,2,1,2,1,2,1,2,1,2,1,2,1,2,1,2,1,2,1,2,1,2,1,2,1,2,1,2,1,2,1,2,1,2,1,2,1,2,1,2,1,2,1,2,1,2,1,2,1,2,1,2,1,2,1,2,1,2,1,2,1,2,1,2,1,19,21,2,1,2,1,2,1,2,1,2,1,2,1,2,1,2,1,2,1,2,1,2,1,2,1,2,1,2,1,2,1,2,1,2,1,2,1,2,1,2,1,2,1,2,1,2,1,2,1,2,1,2,1,2,1,2,1,2,1,27,42,43,44,45,28,29,12,13,46,47,48,49,48,49,48,49,48,49,48,49,48,49,48,49,66,67,12,13,12,13,12,13,7,2,1,2,1,2,1,6,12,13,54,55,44,45,28,29,12,13,12,13,21,2,1,2,1,2,1,2,1,2,1,27,56,2,1,2,1,2,1,2,1,2,1,2,1,2,1,2,1,2,1,2,1,2,
3,4,3,4,3,4,3,4,3,4,3,4,3,4,3,4,3,4,3,4,3,4,3,4,3,4,3,4,3,4,3,4,3,4,3,4,3,4,3,4,3,4,3,4,3,4,3,4,3,4,3,4,3,4,3,4,3,4,3,4,3,4,3,4,3,4,3,4,3,4,3,4,3,4,3,4,3,4,3,4,3,4,3,4,3,4,3,4,3,4,3,4,3,4,3,4,3,4,3,4,3,4,3,4,3,4,3,4,3,4,3,4,3,4,3,4,3,4,3,4,3,4,3,4,3,4,3,4,3,4,3,4,3,4,3,4,3,4,3,4,3,4,3,4,3,4,3,4,3,4,3,4,3,4,3,4,3,4,3,4,3,4,3,4,3,4,3,4,3,4,3,4,3,4,3,4,3,4,3,4,3,4,3,4,3,4,3,4,3,4,3,4,3,4,3,4,3,4,3,4,34,28,16,17,55,57,3,4,3,4,3,4,3,4,3,4,3,4,3,4,3,4,3,4,3,4,3,4,3,4,3,4,3,4,3,4,3,4,3,4,3,4,3,4,3,4,3,4,3,4,3,4,3,4,3,4,3,4,3,4,3,4,3,4,3,4,3,4,3,4,3,4,3,4,3,4,3,4,3,4,3,4,3,4,3,4,3,4,3,4,3,4,3,4,3,4,3,4,3,4,3,4,3,4,3,4,3,4,3,4,3,4,3,4,3,4,3,4,3,4,3,4,3,4,3,4,3,4,3,4,3,4,3,4,3,4,3,4,3,4,3,4,3,4,3,4,3,4,3,4,3,4,3,4,3,4,3,4,3,4,3,4,3,4,3,20,16,26,5,3,4,3,4,3,4,3,4,3,4,3,4,3,4,3,4,3,4,3,4,3,4,3,4,3,4,3,4,3,4,3,4,3,4,3,4,3,4,3,4,3,4,3,4,3,4,3,4,3,4,3,4,3,4,3,4,3,4,57,58,57,34,28,16,17,59,60,61,62,61,62,61,62,61,62,61,62,61,62,61,62,70,71,16,17,16,17,16,17,10,3,4,4,22,23,8,9,16,17,55,57,58,57,34,28,35,17,16,17,16,26,5,3,4,3,4,3,4,3,4,3,4,3,4,3,4,3,4,3,4,3,4,3,4,3,4,3,4,3,4,3,4,3,
1,2,1,2,1,2,1,2,1,2,1,2,1,2,1,2,1,2,1,2,1,2,1,2,1,2,1,2,1,2,1,2,1,2,1,2,1,2,1,2,1,2,1,2,1,2,1,2,1,2,1,2,1,2,1,2,1,2,1,2,1,2,1,2,1,2,1,2,1,2,1,2,1,2,1,2,1,2,1,2,1,2,1,2,1,2,1,2,1,2,1,2,1,2,1,2,1,2,1,2,1,2,1,2,1,2,1,2,1,2,1,2,1,2,1,2,1,2,1,2,1,2,1,2,1,2,1,2,1,2,1,2,1,2,1,2,1,2,1,2,1,2,1,2,1,2,1,2,1,2,1,2,1,2,1,2,1,2,1,2,1,2,1,2,1,2,1,2,1,2,1,2,1,2,1,2,1,2,1,2,1,2,1,2,1,2,1,2,1,2,1,2,1,2,1,2,1,2,1,2,1,27,44,45,56,2,1,2,1,2,1,2,1,2,1,2,1,2,1,2,1,2,1,2,1,2,1,2,1,2,1,2,1,2,1,2,1,2,1,2,1,2,1,2,1,2,1,2,1,2,1,2,1,2,1,2,1,2,1,2,1,2,1,2,1,2,1,2,1,2,1,2,1,2,1,2,1,2,1,2,1,2,1,2,1,2,1,2,1,2,1,2,1,2,1,2,1,2,1,2,1,2,1,2,1,2,1,2,1,2,1,2,1,2,1,2,1,2,1,2,1,2,1,2,1,2,1,2,1,2,1,2,1,2,1,2,1,2,1,2,1,2,1,2,1,2,1,2,1,2,1,2,1,2,1,2,1,2,1,2,1,2,1,2,1,11,12,13,21,2,1,2,1,2,1,2,1,2,1,2,1,2,1,2,1,2,1,2,1,2,1,2,1,2,1,2,1,2,1,2,1,2,1,2,1,2,1,2,1,2,1,2,1,2,1,2,1,2,1,2,1,2,1,2,1,2,1,2,1,2,1,6,12,13,109,110,50,51,48,49,48,49,48,49,48,49,48,49,48,49,52,53,12,13,12,13,12,13,21,2,1,6,12,13,12,13,12,13,7,2,1,2,1,27,42,43,44,45,68,69,56,2,1,2,1,2,1,2,1,2,1,2,1,2,1,2,1,2,1,2,1,2,1,2,1,2,1,2,1,2,1,2,
3,4,3,4,3,4,3,4,3,4,3,4,3,4,3,4,3,4,3,4,3,4,3,4,3,4,3,4,3,4,3,4,3,4,3,4,3,4,3,4,3,4,3,4,3,4,3,4,3,4,3,4,3,4,3,4,3,4,3,4,3,4,3,4,3,4,3,4,3,4,3,4,3,4,3,4,3,4,3,4,3,4,3,4,3,4,3,4,3,4,3,4,3,4,3,4,3,4,3,4,3,4,3,4,3,4,3,4,3,4,3,4,3,4,3,4,3,4,3,4,3,4,3,4,3,4,3,4,3,4,3,4,3,4,3,4,3,4,3,4,3,4,3,4,3,4,3,4,3,4,3,4,3,4,3,4,3,4,3,4,3,4,3,4,3,4,3,4,3,4,3,4,3,4,3,4,3,4,3,4,3,4,3,4,3,4,3,4,3,4,3,4,3,4,3,4,3,4,3,4,3,4,58,57,3,4,3,4,3,4,3,4,3,4,3,4,3,4,3,4,3,4,3,4,3,4,3,4,3,4,3,4,3,4,3,4,3,4,3,4,3,4,3,4,3,4,3,4,3,4,3,4,3,4,3,4,3,4,3,4,3,4,3,4,3,4,3,4,3,4,3,4,3,4,3,4,3,4,3,4,3,4,3,4,3,4,3,4,3,4,3,4,3,4,3,4,3,4,3,4,3,4,3,4,3,4,3,4,3,4,3,4,3,4,3,4,3,4,3,4,3,4,3,4,3,4,3,4,3,4,3,4,3,4,3,4,3,4,3,4,3,4,3,4,3,4,3,4,3,4,3,4,3,4,3,4,3,4,3,4,3,4,3,4,3,15,16,17,16,26,22,23,24,25,5,3,4,3,4,3,4,3,4,3,4,3,4,3,4,3,4,3,4,3,4,3,4,3,4,3,4,3,4,3,4,3,4,3,4,3,4,3,4,3,4,3,4,3,4,3,4,3,4,3,4,3,4,3,4,4,8,9,16,17,16,115,63,64,61,62,61,62,61,62,61,62,61,62,61,62,65,17,16,17,16,17,16,17,16,26,8,9,16,17,16,17,16,17,10,3,4,3,4,3,4,57,58,57,3,4,3,4,3,4,3,4,3,4,3,4,3,4,3,4,3,4,3,4,3,4,3,4,3,4,3,4,3,4,3,4,3,4,
1,2,1,2,1,2,1,2,1,2,1,2,1,2,1,2,1,2,1,2,1,2,1,2,1,2,1,2,1,2,1,2,1,2,1,2,1,2,1,2,1,2,1,2,1,2,1,2,1,2,1,2,1,2,1,2,1,2,1,2,1,2,1,2,1,2,1,2,1,2,1,2,1,2,1,2,1,2,1,2,1,2,1,2,1,2,1,2,1,2,1,2,1,2,1,2,1,2,1,2,1,2,1,2,1,2,1,2,1,2,1,2,1,2,1,2,1,2,1,2,1,2,1,2,1,2,1,2,1,2,1,2,1,2,1,2,1,2,1,2,1,2,1,2,1,2,1,2,1,2,1,2,1,2,1,2,1,2,1,2,1,2,1,2,1,2,1,2,1,2,1,2,1,2,1,2,1,2,1,2,1,2,1,2,1,2,1,2,1,2,1,2,1,2,1,2,1,2,1,2,1,2,1,2,1,2,1,2,1,2,1,2,1,2,1,2,1,2,1,2,1,2,1,2,1,2,1,2,1,2,1,2,1,2,1,2,1,2,1,2,1,2,1,2,1,2,1,2,1,2,1,2,1,2,1,2,1,2,1,2,1,2,1,2,1,2,1,2,1,2,1,2,1,2,1,2,1,2,1,2,1,2,1,2,1,2,1,2,1,2,1,2,1,2,1,2,1,2,1,2,1,2,1,2,1,2,1,2,1,2,1,2,1,2,1,2,1,2,1,2,1,2,1,2,1,2,1,2,1,2,1,2,1,2,1,2,1,2,1,2,1,2,1,2,1,2,1,2,1,2,1,2,1,2,1,2,1,2,1,2,1,2,1,2,1,6,12,103,111,112,111,112,104,13,21,2,1,2,1,2,1,2,1,2,1,2,1,2,1,2,1,2,1,2,1,2,1,2,1,2,1,2,1,2,1,2,1,2,1,2,1,2,1,2,1,2,1,2,1,2,1,2,1,2,1,2,1,2,1,6,12,13,12,13,12,13,12,13,109,110,48,49,48,49,48,49,48,49,52,53,12,13,12,13,12,13,12,13,12,13,12,13,12,13,12,13,54,55,56,2,1,2,1,2,1,2,1,2,1,2,1,2,1,2,1,2,1,2,1,2,1,2,1,2,1,2,1,2,1,2,1,2,1,2,1,2,1,2,1,2,1,2,
3,4,3,4,3,4,3,4,3,4,3,4,3,4,3,4,3,4,3,4,3,4,3,4,3,4,3,4,3,4,3,4,3,4,3,4,3,4,3,4,3,4,3,4,3,4,3,4,3,4,3,4,3,4,3,4,3,4,3,4,3,4,3,4,3,4,3,4,3,4,3,4,3,4,3,4,3,4,3,4,3,4,3,4,3,4,3,4,3,4,3,4,3,4,3,4,3,4,3,4,3,4,3,4,3,4,3,4,3,4,3,4,3,4,3,4,3,4,3,4,3,4,3,4,3,4,3,4,3,4,3,4,3,4,3,4,3,4,3,4,3,4,3,4,3,4,3,4,3,4,3,4,3,4,3,4,3,4,3,4,3,4,3,4,3,4,3,4,3,4,3,4,3,4,3,4,3,4,3,4,3,4,3,4,3,4,3,4,3,4,3,4,3,4,3,4,3,4,3,4,3,4,3,4,3,4,3,4,3,4,3,4,3,4,3,4,3,4,3,4,3,4,3,4,3,4,3,4,3,4,3,4,3,4,3,4,3,4,3,4,3,4,3,4,3,4,3,4,3,4,3,4,3,4,3,4,3,4,3,4,3,4,3,4,3,4,3,4,3,4,3,4,3,4,3,4,3,4,3,4,3,4,3,4,3,4,3,4,3,4,3,4,3,4,3,4,3,4,3,4,3,4,3,4,3,4,3,4,3,4,3,4,3,4,3,4,3,4,3,4,3,4,3,4,3,4,3,4,3,4,3,4,3,4,3,4,3,4,3,4,3,4,3,4,3,4,3,4,3,4,3,4,3,4,3,4,3,4,3,4,3,4,22,23,8,9,105,106,107,106,107,106,107,108,16,26,5,3,4,3,4,3,4,3,4,3,4,3,4,3,4,3,4,3,4,3,4,3,4,3,4,3,4,3,4,3,4,3,4,3,4,3,4,3,4,3,4,3,4,3,4,3,4,4,22,23,24,25,8,9,16,17,16,17,16,17,16,17,16,115,61,62,61,62,61,62,61,62,65,17,16,17,16,17,16,17,16,17,16,17,16,17,16,17,16,17,55,57,3,4,3,4,3,4,3,4,3,4,3,4,3,4,3,4,3,4,3,4,3,4,3,4,3,4,3,4,3,4,3,4,3,4,3,4,3,4,3,4,3,4,3,4,
1,2,1,2,1,2,1,2,1,2,1,2,1,2,1,2,1,2,1,2,1,2,1,2,1,2,1,2,1,2,1,2,1,2,1,2,1,2,1,2,1,2,1,2,1,2,1,2,1,2,1,2,1,2,1,2,1,2,1,2,1,2,1,2,1,2,1,2,1,2,1,2,1,2,1,2,1,2,1,2,1,2,1,2,1,2,1,2,1,2,1,2,1,2,1,2,1,2,1,2,1,2,1,2,1,2,1,2,1,2,1,2,1,2,1,2,1,2,1,2,1,2,1,2,1,2,1,2,1,2,1,2,1,2,1,2,1,2,1,2,1,2,1,2,1,2,1,2,1,2,1,2,1,2,1,2,1,2,1,2,1,2,1,2,1,2,1,2,1,2,1,2,1,2,1,2,1,2,1,2,1,2,1,2,1,2,1,2,1,2,1,2,1,2,1,2,1,2,1,2,1,2,1,2,1,2,1,2,1,2,1,2,1,2,1,2,1,2,1,2,1,2,1,2,1,2,1,2,1,2,1,2,1,2,1,2,1,2,1,2,1,2,1,2,1,2,1,2,1,2,1,2,1,2,1,2,1,2,1,2,1,2,1,2,1,2,1,2,1,2,1,2,1,2,1,2,1,2,1,2,1,2,1,2,1,2,1,2,1,2,1,2,1,2,1,2,1,2,1,2,1,2,1,2,1,2,1,2,1,2,1,2,1,2,1,2,1,2,1,2,1,2,1,2,1,2,1,2,1,2,1,2,1,2,1,2,1,2,1,2,1,2,1,2,1,2,1,2,1,2,1,2,1,2,1,2,1,2,1,2,1,6,12,13,12,103,113,114,113,114,113,114,111,117,12,13,14,2,1,2,1,2,1,2,1,2,1,2,1,2,1,2,1,2,1,2,1,2,1,2,1,2,1,2,1,2,1,2,1,2,1,2,1,2,1,2,1,2,1,2,1,2,1,6,12,13,12,13,12,13,12,13,12,13,12,103,111,112,104,13,109,110,50,51,50,51,52,53,12,103,104,13,12,13,12,13,12,13,12,13,12,13,12,13,12,13,21,2,1,2,1,2,1,2,1,2,1,2,1,2,1,2,1,2,1,2,1,2,1,2,1,2,1,2,1,2,1,2,1,2,1,2,1,2,1,2,1,2,1,2,1,2,
3,4,3,4,3,4,3,4,3,4,3,4,3,4,3,4,3,4,3,4,3,4,3,4,3,4,3,4,3,4,3,4,3,4,3,4,3,4,3,4,3,4,3,4,3,4,3,4,3,4,3,4,3,4,3,4,3,4,3,4,3,4,3,4,3,4,3,4,3,4,3,4,3,4,3,4,3,4,3,4,3,4,3,4,3,4,3,4,3,4,3,4,3,4,3,4,3,4,3,4,3,4,3,4,3,4,3,4,3,4,3,4,3,4,3,4,3,4,3,4,3,4,3,4,3,4,3,4,3,4,3,4,3,4,3,4,3,4,3,4,3,4,3,4,3,4,3,4,3,4,3,4,3,4,3,4,3,4,3,4,3,4,3,4,3,4,3,4,3,4,3,4,3,4,3,4,3,4,3,4,3,4,3,4,3,4,3,4,3,4,3,4,3,4,3,4,3,4,3,4,3,4,3,4,3,4,3,4,3,4,3,4,3,4,3,4,3,4,3,4,3,4,3,4,3,4,3,4,3,4,3,4,3,4,3,4,3,4,3,4,3,4,3,4,3,4,3,4,3,4,3,4,3,4,3,4,3,4,3,4,3,4,3,4,3,4,3,4,3,4,3,4,3,4,3,4,3,4,3,4,3,4,3,4,3,4,3,4,3,4,3,4,3,4,3,4,3,4,3,4,3,4,3,4,3,4,3,4,3,4,3,4,3,4,3,4,3,4,3,4,3,4,3,4,3,4,3,4,3,4,3,4,3,4,3,4,3,4,3,4,3,4,3,4,3,4,3,4,3,4,3,4,22,23,24,25,22,23,24,25,8,9,16,17,105,106,107,106,107,106,107,106,107,120,16,17,18,3,4,3,4,3,4,3,4,3,4,3,4,3,4,3,4,3,4,3,4,3,4,3,4,3,4,3,4,3,4,3,4,3,4,3,4,3,4,3,4,3,4,3,4,4,8,9,16,17,16,17,16,17,16,17,16,17,105,106,107,106,107,108,16,115,63,64,63,64,65,17,105,106,107,108,16,17,16,17,16,17,16,17,16,17,16,17,16,17,16,26,22,23,24,25,5,3,4,3,4,3,4,3,4,3,4,3,4,3,4,3,4,3,4,3,4,3,4,3,4,3,4,3,4,3,4,3,4,3,4,3,4,3,4,3,
1,2,1,2,1,2,1,2,1,2,1,2,1,2,1,2,1,2,1,2,1,2,1,2,1,2,1,2,1,2,1,2,1,2,1,2,1,2,1,2,1,2,1,2,1,2,1,2,1,2,1,2,1,2,1,2,1,2,1,2,1,2,1,2,1,2,1,2,1,2,1,2,1,2,1,2,1,2,1,2,1,2,1,2,1,2,1,2,1,2,1,2,1,2,1,2,1,2,1,2,1,2,1,2,1,2,1,2,1,2,1,2,1,2,1,2,1,2,1,2,1,2,1,2,1,2,1,2,1,2,1,2,1,2,1,2,1,2,1,2,1,2,1,2,1,2,1,2,1,2,1,2,1,2,1,2,1,2,1,2,1,2,1,2,1,2,1,2,1,2,1,2,1,2,1,2,1,2,1,2,1,2,1,2,1,2,1,2,1,2,1,2,1,2,1,2,1,2,1,2,1,2,1,2,1,2,1,2,1,2,1,2,1,2,1,2,1,2,1,2,1,2,1,2,1,2,1,2,1,2,1,2,1,2,1,2,1,2,1,2,1,2,1,2,1,2,1,2,1,2,1,2,1,2,1,2,1,2,1,2,1,2,1,2,1,2,1,2,1,2,1,2,1,2,1,2,1,2,1,2,1,2,1,2,1,2,1,2,1,2,1,2,1,2,1,2,1,2,1,2,1,2,1,2,1,2,1,2,1,2,1,2,1,2,1,2,1,2,1,2,1,2,1,2,1,2,1,2,1,2,1,2,1,2,1,2,1,2,1,2,1,2,1,2,1,2,1,2,1,2,1,6,12,13,12,13,12,103,111,112,111,112,111,112,113,114,113,114,113,114,113,114,113,114,104,13,21,2,1,2,1,2,1,2,1,2,1,2,1,2,1,2,1,2,1,2,1,2,1,2,1,2,1,2,1,2,1,2,1,2,1,2,1,2,1,2,1,2,1,2,1,6,12,13,12,13,12,13,12,13,12,103,111,112,113,114,113,114,113,114,111,112,111,112,111,112,111,112,113,114,113,114,104,13,12,13,12,13,12,13,12,13,12,13,12,13,12,13,12,13,12,13,21,2,1,2,1,2,1,2,1,2,1,2,1,2,1,2,1,2,1,2,1,2,1,2,1,2,1,2,1,2,1,2,1,2,1,2,1,2,1,2,
3,4,3,4,3,4,3,4,3,4,3,4,3,4,3,4,3,4,3,4,3,4,3,4,3,4,3,4,3,4,3,4,3,4,3,4,3,4,3,4,3,4,3,4,3,4,3,4,3,4,3,4,3,4,3,4,3,4,3,4,3,4,3,4,3,4,3,4,3,4,3,4,3,4,3,4,3,4,3,4,3,4,3,4,3,4,3,4,3,4,3,4,3,4,3,4,3,4,3,4,3,4,3,4,3,4,3,4,3,4,3,4,3,4,3,4,3,4,3,4,3,4,3,4,3,4,3,4,3,4,3,4,3,4,3,4,3,4,3,4,3,4,3,4,3,4,3,4,3,4,3,4,3,4,3,4,3,4,3,4,3,4,3,4,3,4,3,4,3,4,3,4,3,4,3,4,3,4,3,4,3,4,3,4,3,4,3,4,3,4,3,4,3,4,3,4,3,4,3,4,3,4,3,4,3,4,3,4,3,4,3,4,3,4,3,4,3,4,3,4,3,4,3,4,3,4,3,4,3,4,3,4,3,4,3,4,3,4,3,4,3,4,3,4,3,4,3,4,3,4,3,4,3,4,3,4,3,4,3,4,3,4,3,4,3,4,3,4,3,4,3,4,3,4,3,4,3,4,3,4,3,4,3,4,3,4,3,4,3,4,3,4,3,4,3,4,3,4,3,4,3,4,3,4,3,4,3,4,3,4,3,4,3,4,3,4,3,4,3,4,3,4,3,4,3,4,3,4,3,4,3,4,3,4,3,4,3,4,3,4,3,4,3,4,3,4,3,4,3,4,8,9,16,17,16,17,105,106,107,106,107,106,107,106,107,106,107,106,107,106,107,106,107,106,107,108,16,26,22,23,24,25,5,3,4,3,4,3,4,3,4,3,4,3,4,3,4,3,4,3,4,3,4,3,4,3,4,3,4,3,4,3,4,3,4,4,22,23,24,25,8,9,16,17,16,17,16,17,16,17,105,106,107,106,107,106,107,106,107,106,107,106,107,106,107,106,107,106,107,106,107,106,107,108,16,17,16,17,16,17,16,17,16,17,16,17,16,17,16,17,16,17,16,26,5,3,4,3,4,3,4,3,4,3,4,4,5,3,4,3,4,3,4,3,4,3,4,3,4,3,4,3,4,3,4,3,4,3,4,3,4,3,
1,2,1,2,1,2,1,2,1,2,1,2,1,2,1,2,1,2,1,2,1,2,1,2,1,2,1,2,1,2,1,2,1,2,1,2,1,2,1,2,1,2,1,2,1,2,1,2,1,2,1,2,1,2,1,2,1,2,1,2,1,2,1,2,1,2,1,2,1,2,1,2,1,2,1,2,1,2,1,2,1,2,1,2,1,2,1,2,1,2,1,2,1,2,1,2,1,2,1,2,1,2,1,2,1,2,1,2,1,2,1,2,1,2,1,2,1,2,1,2,1,2,1,2,1,2,1,2,1,2,1,2,1,2,1,2,1,2,1,2,1,2,1,2,1,2,1,2,1,2,1,2,1,2,1,2,1,2,1,2,1,2,1,2,1,2,1,2,1,2,1,2,1,2,1,2,1,2,1,2,1,2,1,2,1,2,1,2,1,2,1,2,1,2,1,2,1,2,1,2,1,2,1,2,1,2,1,2,1,2,1,2,1,2,1,2,1,2,1,2,1,2,1,2,1,2,1,2,1,2,1,2,1,2,1,2,1,2,1,2,1,2,1,2,1,2,1,2,1,2,1,2,1,2,1,2,1,2,1,2,1,2,1,2,1,2,1,2,1,2,1,2,1,2,1,2,1,2,1,2,1,2,1,2,1,2,1,2,1,2,1,2,1,2,1,2,1,2,1,2,1,2,1,2,1,2,1,2,1,2,1,2,1,2,1,2,1,2,1,2,1,2,1,2,1,2,1,2,1,2,1,2,1,2,1,2,1,2,1,2,1,2,1,2,1,2,1,2,1,27,28,29,12,13,12,103,113,114,113,114,113,114,113,114,113,114,113,114,113,114,113,114,113,114,113,114,104,13,12,13,12,13,21,2,1,2,1,2,1,2,1,2,1,2,1,2,1,2,1,2,1,2,1,2,1,2,1,2,1,2,1,2,1,2,1,6,12,13,12,13,12,13,12,13,12,13,12,13,12,103,113,114,113,114,113,114,113,114,113,114,113,114,113,114,113,114,113,114,113,114,113,114,113,114,111,112,104,13,12,13,12,13,12,13,12,13,12,13,12,13,12,13,12,13,7,2,1,2,1,2,1,2,1,2,1,6,14,2,1,2,1,2,1,2,1,2,1,2,1,2,1,2,1,2,1,2,1,2,1,2,1,2,
3,4,3,4,3,4,3,4,3,4,3,4,3,4,3,4,3,4,3,4,3,4,3,4,3,4,3,4,3,4,3,4,3,4,3,4,3,4,3,4,3,4,3,4,3,4,3,4,3,4,3,4,3,4,3,4,3,4,3,4,3,4,3,4,3,4,3,4,3,4,3,4,3,4,3,4,3,4,3,4,3,4,3,4,3,4,3,4,3,4,3,4,3,4,3,4,3,4,3,4,3,4,3,4,3,4,3,4,3,4,3,4,3,4,3,4,3,4,3,4,3,4,3,4,3,4,3,4,3,4,3,4,3,4,3,4,3,4,3,4,3,4,3,4,3,4,3,4,3,4,3,4,3,4,3,4,3,4,3,4,3,4,3,4,3,4,3,4,3,4,3,4,3,4,3,4,3,4,3,4,3,4,3,4,3,4,3,4,3,4,3,4,3,4,3,4,3,4,3,4,3,4,3,4,3,4,3,4,3,4,3,4,3,4,3,4,3,4,3,4,3,4,3,4,3,4,3,4,3,4,3,4,3,4,3,4,3,4,3,4,3,4,3,4,3,4,3,4,3,4,3,4,3,4,3,4,3,4,3,4,3,4,3,4,3,4,3,4,3,4,3,4,3,4,3,4,3,4,3,4,3,4,3,4,3,4,3,4,3,4,3,4,3,4,3,4,3,4,3,4,3,4,3,4,3,4,3,4,3,4,3,4,3,4,3,4,3,4,3,4,3,4,3,4,3,4,3,4,3,4,3,4,3,4,3,4,3,4,3,4,3,4,3,4,3,4,3,4,3,4,34,28,16,17,105,106,107,106,107,106,107,106,107,106,107,106,107,106,107,106,107,106,107,106,107,106,107,108,16,17,16,17,16,26,5,3,4,3,4,3,4,3,4,3,4,3,4,3,4,3,4,3,4,3,4,3,4,3,4,4,22,23,24,25,8,9,16,17,16,17,16,17,16,17,16,17,16,17,105,106,107,106,107,106,107,106,107,106,107,106,107,106,107,106,107,106,107,106,107,106,107,106,107,106,107,106,107,108,16,17,16,17,16,17,16,17,16,17,16,17,16,17,16,17,10,3,4,3,4,3,4,3,4,4,8,9,18,3,4,3,4,3,4,3,4,3,4,3,4,3,4,3,4,3,4,3,4,3,4,3,4,3,
1,2,1,2,1,2,1,2,1,2,1,2,1,2,1,2,1,2,1,2,1,2,1,2,1,2,1,2,1,2,1,2,1,2,1,2,1,2,1,2,1,2,1,2,1,2,1,2,1,2,1,2,1,2,1,2,1,2,1,2,1,2,1,2,1,2,1,2,1,2,1,2,1,2,1,2,1,2,1,2,1,2,1,2,1,2,1,2,1,2,1,2,1,2,1,2,1,2,1,2,1,2,1,2,1,2,1,2,1,2,1,2,1,2,1,2,1,2,1,2,1,2,1,2,1,2,1,2,1,2,1,2,1,2,1,2,1,2,1,2,1,2,1,2,1,2,1,2,1,2,1,2,1,2,1,2,1,2,1,2,1,2,1,2,1,2,1,2,1,2,1,2,1,2,1,2,1,2,1,2,1,2,1,2,1,2,1,2,1,2,1,2,1,2,1,2,1,2,1,2,1,2,1,2,1,2,1,2,1,2,1,2,1,2,1,2,1,2,1,2,1,2,1,2,1,2,1,2,1,2,1,2,1,2,1,2,1,2,1,2,1,2,1,2,1,2,1,2,1,2,1,2,1,2,1,2,1,2,1,2,1,2,1,2,1,2,1,2,1,2,1,2,1,2,1,2,1,2,1,2,1,2,1,2,1,2,1,2,1,2,1,2,1,2,1,2,1,2,1,2,1,2,1,2,1,2,1,2,1,2,1,2,1,2,1,2,1,2,1,2,1,2,1,2,1,2,1,2,1,2,1,2,1,2,1,2,1,2,1,2,1,2,1,2,1,2,1,2,1,2,1,11,12,13,122,114,113,114,113,114,113,114,113,114,113,114,113,114,113,114,113,114,113,114,113,114,113,114,111,112,104,13,12,13,21,2,1,2,1,2,1,2,1,2,1,2,1,2,1,2,1,2,1,2,1,2,1,2,1,6,12,13,12,13,12,13,12,13,12,13,12,13,12,13,12,103,111,112,113,114,113,114,113,114,113,114,113,114,113,114,113,114,113,114,113,114,113,114,113,114,113,114,113,114,113,114,113,114,111,112,104,13,12,13,12,13,12,13,12,13,12,13,12,13,21,2,1,2,1,2,1,2,1,6,12,13,7,2,1,2,1,2,1,2,1,2,1,2,1,2,1,2,1,2,1,2,1,2,1,2,1,2,
3,4,3,4,3,4,3,4,3,4,3,4,3,4,3,4,3,4,3,4,3,4,3,4,3,4,3,4,3,4,3,4,3,4,3,4,3,4,3,4,3,4,3,4,3,4,3,4,3,4,3,4,3,4,3,4,3,4,3,4,3,4,3,4,3,4,3,4,3,4,3,4,3,4,3,4,3,4,3,4,3,4,3,4,3,4,3,4,3,4,3,4,3,4,3,4,3,4,3,4,3,4,3,4,3,4,3,4,3,4,3,4,3,4,3,4,3,4,3,4,3,4,3,4,3,4,3,4,3,4,3,4,3,4,3,4,3,4,3,4,3,4,3,4,3,4,3,4,3,4,3,4,3,4,3,4,3,4,3,4,3,4,3,4,3,4,3,4,3,4,3,4,3,4,3,4,3,4,3,4,3,4,3,4,3,4,3,4,3,4,3,4,3,4,3,4,3,4,3,4,3,4,3,4,3,4,3,4,3,4,3,4,3,4,3,4,3,4,3,4,3,4,3,4,3,4,3,4,3,4,3,4,3,4,3,4,3,4,3,4,3,4,3,4,3,4,3,4,3,4,3,4,3,4,3,4,3,4,3,4,3,4,3,4,3,4,3,4,3,4,3,4,3,4,3,4,3,4,3,4,3,4,3,4,3,4,3,4,3,4,3,4,3,4,3,4,3,4,3,4,3,4,3,4,3,4,3,4,3,4,3,4,3,4,3,4,3,4,3,4,3,4,3,4,3,4,3,4,3,4,3,4,3,4,3,4,3,4,3,4,3,4,3,4,3,4,3,4,3,4,3,15,35,17,16,124,107,106,107,106,107,106,107,106,107,106,107,106,107,106,107,106,107,106,107,106,107,106,107,106,107,108,16,17,16,26,22,23,24,25,5,3,4,3,4,3,4,3,4,3,4,3,4,3,4,3,4,4,8,9,16,17,16,17,16,17,16,17,16,17,16,17,16,17,105,106,107,106,107,106,107,106,107,106,107,106,107,106,107,106,107,106,107,106,107,106,107,106,107,106,107,106,107,106,107,106,107,106,107,106,107,108,16,17,16,17,16,17,16,17,16,17,16,17,16,26,22,23,24,25,22,23,8,9,17,35,10,3,4,3,4,3,4,3,4,3,4,3,4,3,4,3,4,3,4,3,4,3,4,3,4,3,
1,2,1,2,1,2,1,2,1,2,1,2,1,2,1,2,1,2,1,2,1,2,1,2,1,2,1,2,1,2,1,2,1,2,1,2,1,2,1,2,1,2,1,2,1,2,1,2,1,2,1,2,1,2,1,2,1,2,1,2,1,2,1,2,1,2,1,2,1,2,1,2,1,2,1,2,1,2,1,2,1,2,1,2,1,2,1,2,1,2,1,2,1,2,1,2,1,2,1,2,1,2,1,2,1,2,1,2,1,2,1,2,1,2,1,2,1,2,1,2,1,2,1,2,1,2,1,2,1,2,1,2,1,2,1,2,1,2,1,2,1,2,1,2,1,2,1,2,1,2,1,2,1,2,1,2,1,2,1,2,1,2,1,2,1,2,1,2,1,2,1,2,1,2,1,2,1,2,1,2,1,2,1,2,1,2,1,2,1,2,1,2,1,2,1,2,1,2,1,2,1,2,1,2,1,2,1,2,1,2,1,2,1,2,1,2,1,2,1,2,1,2,1,2,1,2,1,2,1,2,1,2,1,2,1,2,1,2,1,2,1,2,1,2,1,2,1,2,1,2,1,2,1,2,1,2,1,2,1,2,1,2,1,2,1,2,1,2,1,2,1,2,1,2,1,2,1,2,1,2,1,2,1,2,1,2,1,2,1,2,1,2,1,2,1,2,1,2,1,2,1,2,1,2,1,2,1,2,1,2,1,2,1,2,1,2,1,2,1,2,1,2,1,2,1,2,1,2,1,2,1,2,1,2,1,2,1,2,1,2,1,2,1,2,1,2,1,2,1,2,1,27,28,29,12,13,113,114,113,114,113,114,113,114,113,114,113,114,113,114,113,114,113,114,113,114,113,114,113,114,113,114,104,13,12,13,12,13,12,13,21,2,1,2,1,2,1,2,1,2,1,2,1,2,1,2,1,19,12,13,12,13,12,13,12,13,12,13,12,103,111,112,111,112,113,114,113,114,113,114,113,114,113,114,113,114,113,114,113,114,113,114,111,114,111,114,111,114,113,114,113,114,113,114,113,114,113,114,113,114,113,114,111,112,104,13,12,13,12,13,12,13,12,13,12,13,12,13,12,13,12,13,12,13,54,55,56,2,1,2,1,2,1,2,1,2,1,2,1,2,1,2,1,2,1,2,1,2,1,2,1,2,
3,4,3,4,3,4,3,4,3,4,3,4,3,4,3,4,3,4,3,4,3,4,3,4,3,4,3,4,3,4,3,4,3,4,3,4,3,4,3,4,3,4,3,4,3,4,3,4,3,4,3,4,3,4,3,4,3,4,3,4,3,4,3,4,3,4,3,4,3,4,3,4,3,4,3,4,3,4,3,4,3,4,3,4,3,4,3,4,3,4,3,4,3,4,3,4,3,4,3,4,3,4,3,4,3,4,3,4,3,4,3,4,3,4,3,4,3,4,3,4,3,4,3,4,3,4,3,4,3,4,3,4,3,4,3,4,3,4,3,4,3,4,3,4,3,4,3,4,3,4,3,4,3,4,3,4,3,4,3,4,3,4,3,4,3,4,3,4,3,4,3,4,3,4,3,4,3,4,3,4,3,4,3,4,3,4,3,4,3,4,3,4,3,4,3,4,3,4,3,4,3,4,3,4,3,4,3,4,3,4,3,4,3,4,3,4,3,4,3,4,3,4,3,4,3,4,3,4,3,4,3,4,3,4,3,4,3,4,3,4,3,4,3,4,3,4,3,4,3,4,3,4,3,4,3,4,3,4,3,4,3,4,3,4,3,4,3,4,3,4,3,4,3,4,3,4,3,4,3,4,3,4,3,4,3,4,3,4,3,4,3,4,3,4,3,4,3,4,3,4,3,4,3,4,3,4,3,4,3,4,3,4,3,4,3,4,3,4,3,4,3,4,3,4,3,4,3,4,3,4,3,4,3,4,3,4,3,4,3,4,3,4,3,4,3,4,3,4,3,4,3,4,34,28,16,17,116,106,107,106,107,106,107,106,107,106,107,106,107,106,107,106,107,106,107,106,107,106,107,106,107,106,107,108,16,17,16,17,16,17,16,26,5,3,4,3,4,3,4,3,4,3,4,3,4,3,4,20,16,17,16,17,16,17,16,17,16,17,105,106,107,106,107,106,107,106,107,106,107,106,107,106,107,106,107,106,107,106,107,106,107,106,118,119,118,119,118,119,107,106,107,106,107,106,107,106,107,106,107,106,107,106,107,106,107,108,16,17,16,17,16,17,16,17,16,17,16,17,16,17,16,17,16,17,55,57,3,4,3,4,3,4,3,4,3,4,3,4,3,4,3,4,3,4,3,4,3,4,3,4,3,4,
1,2,1,2,1,2,1,2,1,2,1,2,1,2,1,2,1,2,1,2,1,2,1,2,1,2,1,2,1,2,1,2,1,2,1,2,1,2,1,2,1,2,1,2,1,2,1,2,1,2,1,2,1,2,1,2,1,2,1,2,1,2,1,2,1,2,1,2,1,2,1,2,1,2,1,2,1,2,1,2,1,2,1,2,1,2,1,2,1,2,1,2,1,2,1,2,1,2,1,2,1,2,1,2,1,2,1,2,1,2,1,2,1,2,1,2,1,2,1,2,1,2,1,2,1,2,1,2,1,2,1,2,1,2,1,2,1,2,1,2,1,2,1,2,1,2,1,2,1,2,1,2,1,2,1,2,1,2,1,2,1,2,1,2,1,2,1,2,1,2,1,2,1,2,1,2,1,2,1,2,1,2,1,2,1,2,1,2,1,2,1,2,1,2,1,2,1,2,1,2,1,2,1,2,1,2,1,2,1,2,1,2,1,2,1,2,1,2,1,2,1,2,1,2,1,2,1,2,1,2,1,2,1,2,1,2,1,2,1,2,1,2,1,2,1,2,1,2,1,2,1,2,1,2,1,2,1,2,1,2,1,2,1,2,1,2,1,2,1,2,1,2,1,2,1,2,1,2,1,2,1,2,1,2,1,2,1,2,1,2,1,2,1,2,1,2,1,2,1,2,1,2,1,2,1,2,1,2,1,2,1,2,1,2,1,2,1,2,1,2,1,2,1,2,1,2,1,2,1,2,1,2,1,2,1,2,1,2,1,2,1,2,1,2,1,2,1,2,1,2,1,2,1,27,28,29,113,114,113,114,113,114,113,114,113,114,113,114,113,114,113,114,113,114,113,114,113,114,113,114,113,114,113,114,111,112,104,13,12,13,12,13,14,2,1,2,1,2,1,2,1,2,1,2,1,2,1,11,12,13,12,13,12,13,12,13,12,13,113,114,113,114,113,114,113,114,113,114,113,114,113,114,113,114,113,114,113,114,113,114,111,121,12,13,12,13,12,13,122,114,113,114,113,114,113,114,113,114,113,114,113,114,113,114,111,117,12,13,12,13,12,13,12,13,12,13,12,13,12,13,12,13,12,13,14,2,1,2,1,2,1,2,1,2,1,2,1,2,1,2,1,2,1,2,1,2,1,2,1,2,1,2,
3,4,3,4,3,4,3,4,3,4,3,4,3,4,3,4,3,4,3,4,3,4,3,4,3,4,3,4,3,4,3,4,3,4,3,4,3,4,3,4,3,4,3,4,3,4,3,4,3,4,3,4,3,4,3,4,3,4,3,4,3,4,3,4,3,4,3,4,3,4,3,4,3,4,3,4,3,4,3,4,3,4,3,4,3,4,3,4,3,4,3,4,3,4,3,4,3,4,3,4,3,4,3,4,3,4,3,4,3,4,3,4,3,4,3,4,3,4,3,4,3,4,3,4,3,4,3,4,3,4,3,4,3,4,3,4,3,4,3,4,3,4,3,4,3,4,3,4,3,4,3,4,3,4,3,4,3,4,3,4,3,4,3,4,3,4,3,4,3,4,3,4,3,4,3,4,3,4,3,4,3,4,3,4,3,4,3,4,3,4,3,4,3,4,3,4,3,4,3,4,3,4,3,4,3,4,3,4,3,4,3,4,3,4,3,4,3,4,3,4,3,4,3,4,3,4,3,4,3,4,3,4,3,4,3,4,3,4,3,4,3,4,3,4,3,4,3,4,3,4,3,4,3,4,3,4,3,4,3,4,3,4,3,4,3,4,3,4,3,4,3,4,3,4,3,4,3,4,3,4,3,4,3,4,3,4,3,4,3,4,3,4,3,4,3,4,3,4,3,4,3,4,3,4,3,4,3,4,3,4,3,4,3,4,3,4,3,4,3,4,3,4,3,4,3,4,3,4,3,4,3,4,3,4,3,4,22,23,5,3,4,3,4,3,4,3,4,3,4,3,4,3,4,3,34,28,116,106,107,106,107,106,107,106,107,106,107,106,107,106,107,106,107,106,107,106,107,106,107,106,107,106,107,106,107,106,107,108,16,17,16,17,18,3,4,3,4,3,4,3,4,3,4,3,4,3,4,15,16,17,16,17,16,17,16,17,16,17,116,106,107,106,107,106,107,106,107,106,107,106,107,106,107,106,107,106,107,106,107,106,123,17,16,17,16,17,16,17,16,124,107,106,107,106,107,106,107,106,107,106,107,106,107,106,107,120,16,17,16,17,16,17,16,17,16,17,16,17,16,17,16,17,16,17,18,3,4,3,4,3,4,3,4,3,4,3,4,3,4,3,4,3,4,3,4,3,4,3,4,3,4,3,
1,2,1,2,1,2,1,2,1,2,1,2,1,2,1,2,1,2,1,2,1,2,1,2,1,2,1,2,1,2,1,2,1,2,1,2,1,2,1,2,1,2,1,2,1,2,1,2,1,2,1,2,1,2,1,2,1,2,1,2,1,2,1,2,1,2,1,2,1,2,1,2,1,2,1,2,1,2,1,2,1,2,1,2,1,2,1,2,1,2,1,2,1,2,1,2,1,2,1,2,1,2,1,2,1,2,1,2,1,2,1,2,1,2,1,2,1,2,1,2,1,2,1,2,1,2,1,2,1,2,1,2,1,2,1,2,1,2,1,2,1,2,1,2,1,2,1,2,1,2,1,2,1,2,1,2,1,2,1,2,1,2,1,2,1,2,1,2,1,2,1,2,1,2,1,2,1,2,1,2,1,2,1,2,1,2,1,2,1,2,1,2,1,2,1,2,1,2,1,2,1,2,1,2,1,2,1,2,1,2,1,2,1,2,1,2,1,2,1,2,1,2,1,2,1,2,1,2,1,2,1,2,1,2,1,2,1,2,1,2,1,2,1,2,1,2,1,2,1,2,1,2,1,2,1,2,1,2,1,2,1,2,1,2,1,2,1,2,1,2,1,2,1,2,1,2,1,2,1,2,1,2,1,2,1,2,1,2,1,2,1,2,1,2,1,2,1,2,1,2,1,2,1,2,1,2,1,2,1,2,1,2,1,2,1,2,1,2,1,2,1,2,1,2,1,2,1,2,1,2,1,2,1,2,1,27,28,29,21,2,1,2,1,2,1,2,1,2,1,2,1,2,1,2,1,19,122,114,113,114,113,114,113,114,113,114,113,114,113,114,113,114,113,114,113,114,113,114,113,114,113,114,113,114,113,114,113,114,104,13,12,13,7,2,1,2,1,2,1,2,1,2,1,2,1,2,1,6,12,13,12,13,12,13,12,103,111,112,113,114,113,114,113,114,113,114,113,114,113,114,113,114,113,114,113,114,113,114,111,121,12,13,12,13,12,13,12,13,12,13,122,114,113,114,113,114,113,114,113,114,113,114,113,114,113,114,104,13,12,13,54,55,44,45,68,69,42,43,68,69,28,29,12,13,21,2,1,2,1,2,1,2,1,2,1,2,1,2,1,2,1,2,1,2,1,2,1,2,1,2,1,2,
3,4,3,4,3,4,3,4,3,4,3,4,3,4,3,4,3,4,3,4,3,4,3,4,3,4,3,4,3,4,3,4,3,4,3,4,3,4,3,4,3,4,3,4,3,4,3,4,3,4,3,4,3,4,3,4,3,4,3,4,3,4,3,4,3,4,3,4,3,4,3,4,3,4,3,4,3,4,3,4,3,4,3,4,3,4,3,4,3,4,3,4,3,4,3,4,3,4,3,4,3,4,3,4,3,4,3,4,3,4,3,4,3,4,3,4,3,4,3,4,3,4,3,4,3,4,3,4,3,4,3,4,3,4,3,4,3,4,3,4,3,4,3,4,3,4,3,4,3,4,3,4,3,4,3,4,3,4,3,4,3,4,3,4,3,4,3,4,3,4,3,4,3,4,3,4,3,4,3,4,3,4,3,4,3,4,3,4,3,4,3,4,3,4,3,4,3,4,3,4,3,4,3,4,3,4,3,4,3,4,3,4,3,4,3,4,3,4,3,4,3,4,3,4,3,4,3,4,3,4,3,4,3,4,3,4,3,4,3,4,3,4,3,4,3,4,3,4,3,4,3,4,3,4,3,4,3,4,3,4,3,4,3,4,3,4,3,4,3,4,3,4,3,4,3,4,3,4,3,4,3,4,3,4,3,4,3,4,3,4,3,4,3,4,3,4,3,4,3,4,3,4,3,4,3,4,3,4,3,4,3,4,3,4,3,4,3,4,3,4,3,4,3,4,3,4,3,4,3,4,3,4,3,4,3,4,34,28,16,26,5,3,4,3,4,3,4,3,4,4,22,23,5,3,4,20,16,124,107,106,107,106,107,106,107,106,107,106,107,106,107,106,107,106,107,106,107,106,107,106,107,106,107,106,107,106,107,106,107,108,16,17,10,3,4,3,4,3,4,3,4,4,22,23,24,25,8,9,16,17,16,17,16,17,105,106,107,106,107,106,107,106,107,106,107,106,107,106,107,106,107,106,107,106,107,106,107,106,123,17,16,17,16,17,16,17,16,17,16,17,16,124,107,106,107,106,107,106,107,106,107,106,107,106,107,106,107,108,16,17,55,57,58,57,3,4,3,57,3,4,34,28,16,17,16,26,5,3,4,3,4,3,4,3,4,3,4,3,4,3,4,3,4,3,4,3,4,3,4,3,4,3,
1,2,1,2,1,2,1,2,1,2,1,2,1,2,1,2,1,2,1,2,1,2,1,2,1,2,1,2,1,2,1,2,1,2,1,2,1,2,1,2,1,2,1,2,1,2,1,2,1,2,1,2,1,2,1,2,1,2,1,2,1,2,1,2,1,2,1,2,1,2,1,2,1,2,1,2,1,2,1,2,1,2,1,2,1,2,1,2,1,2,1,2,1,2,1,2,1,2,1,2,1,2,1,2,1,2,1,2,1,2,1,2,1,2,1,2,1,2,1,2,1,2,1,2,1,2,1,2,1,2,1,2,1,2,1,2,1,2,1,2,1,2,1,2,1,2,1,2,1,2,1,2,1,2,1,2,1,2,1,2,1,2,1,2,1,2,1,2,1,2,1,2,1,2,1,2,1,2,1,2,1,2,1,2,1,2,1,2,1,2,1,2,1,2,1,2,1,2,1,2,1,2,1,2,1,2,1,2,1,2,1,2,1,2,1,2,1,2,1,2,1,2,1,2,1,2,1,2,1,2,1,2,1,2,1,2,1,2,1,2,1,2,1,2,1,2,1,2,1,2,1,2,1,2,1,2,1,2,1,2,1,2,1,2,1,2,1,2,1,2,1,2,1,2,1,2,1,2,1,2,1,2,1,2,1,2,1,2,1,2,1,2,1,2,1,2,1,2,1,2,1,2,1,2,1,2,1,2,1,2,1,2,1,2,1,2,1,2,1,2,1,2,1,2,1,2,1,2,1,2,1,2,1,2,1,2,1,27,28,29,21,2,1,2,1,2,1,2,1,19,54,55,56,2,1,11,12,13,113,114,113,114,113,114,113,114,113,114,113,114,113,114,113,114,113,114,111,114,111,114,111,114,111,114,113,114,113,114,111,117,12,13,21,2,1,2,1,2,1,2,1,6,12,13,12,13,12,13,12,13,12,13,12,103,113,114,113,114,113,114,113,114,113,114,113,114,113,114,113,114,113,114,113,114,113,114,111,121,12,13,12,13,12,13,12,13,12,13,12,13,12,13,113,114,113,114,113,114,113,114,113,114,113,114,113,114,113,114,104,13,21,2,1,2,1,2,1,2,1,2,1,11,12,13,12,13,14,2,1,2,1,2,1,2,1,2,1,2,1,2,1,2,1,2,1,2,1,2,1,2,1,2,
3,4,3,4,3,4,3,4,3,4,3,4,3,4,3,4,3,4,3,4,3,4,3,4,3,4,3,4,3,4,3,4,3,4,3,4,3,4,3,4,3,4,3,4,3,4,3,4,3,4,3,4,3,4,3,4,3,4,3,4,3,4,5,3,4,3,4,3,4,3,4,3,4,3,4,3,4,3,4,3,4,3,4,3,4,3,4,3,4,3,4,3,4,3,4,3,4,3,4,3,4,3,4,3,4,3,4,3,4,3,4,3,4,3,4,3,4,3,4,3,4,3,4,3,4,3,4,3,4,3,4,3,4,3,4,3,4,3,4,3,4,3,4,3,4,3,4,3,4,3,4,3,4,3,4,3,4,3,4,3,4,3,4,3,4,3,4,3,4,3,4,3,4,3,4,3,4,3,4,3,4,3,4,3,4,3,4,3,4,3,4,3,4,3,4,3,4,3,4,3,4,3,4,3,4,3,4,3,4,3,4,3,4,3,4,3,4,3,4,3,4,3,4,3,4,3,4,3,4,3,4,3,4,3,4,3,4,3,4,3,4,3,4,3,4,3,4,3,4,3,4,3,4,3,4,3,4,3,4,3,4,3,4,3,4,3,4,3,4,3,4,3,4,3,4,3,4,3,4,3,4,3,4,3,4,3,4,3,4,3,4,3,4,3,4,3,4,3,4,3,4,3,4,3,4,3,4,3,4,3,4,3,4,3,4,3,4,3,4,3,4,3,4,3,4,3,4,3,4,3,4,3,4,3,4,3,4,3,34,28,16,26,5,3,4,3,4,3,4,20,55,57,3,4,3,15,16,17,116,106,107,106,107,106,107,106,107,106,107,106,107,106,107,106,107,106,118,119,118,119,118,119,118,119,107,106,107,106,107,120,16,17,16,26,22,23,24,25,22,23,8,9,16,17,16,17,16,17,16,17,16,17,105,106,107,106,107,106,107,106,107,106,107,106,107,106,107,106,107,106,107,106,107,106,107,106,123,17,16,17,16,17,16,17,16,17,16,17,16,17,16,17,116,106,107,106,107,106,107,106,107,106,107,106,107,106,107,106,107,108,16,26,22,23,24,25,5,3,4,3,4,15,35,17,16,17,18,3,4,3,4,3,4,3,4,3,4,3,4,3,4,3,4,3,4,3,4,3,4,3,4,3,
1,2,1,2,1,2,1,2,1,2,1,2,1,2,1,2,1,2,1,2,1,2,1,2,1,2,1,2,1,2,1,2,1,2,1,2,1,2,1,2,1,2,1,2,1,2,1,2,1,2,1,2,1,2,1,2,1,2,1,2,1,6,7,2,1,2,1,2,1,2,1,2,1,2,1,2,1,2,1,2,1,2,1,2,1,2,1,2,1,2,1,2,1,2,1,2,1,2,1,2,1,2,1,2,1,2,1,2,1,2,1,2,1,2,1,2,1,2,1,2,1,2,1,2,1,2,1,2,1,2,1,2,1,2,1,2,1,2,1,2,1,2,1,2,1,2,1,2,1,2,1,2,1,2,1,2,1,2,1,2,1,2,1,2,1,2,1,2,1,2,1,2,1,2,1,2,1,2,1,2,1,2,1,2,1,2,1,2,1,2,1,2,1,2,1,2,1,2,1,2,1,2,1,2,1,2,1,2,1,2,1,2,1,2,1,2,1,2,1,2,1,2,1,2,1,2,1,2,1,2,1,2,1,2,1,2,1,2,1,2,1,2,1,2,1,2,1,2,1,2,1,2,1,2,1,2,1,2,1,2,1,2,1,2,1,2,1,2,1,2,1,2,1,2,1,2,1,2,1,2,1,2,1,2,1,2,1,2,1,2,1,2,1,2,1,2,1,2,1,2,1,2,1,2,1,2,1,2,1,2,1,2,1,2,1,2,1,2,1,2,1,2,1,2,1,2,1,2,1,2,1,2,1,2,1,2,1,2,1,19,12,13,14,2,1,2,1,2,1,6,14,2,1,2,1,19,12,13,113,114,113,114,113,114,113,114,113,114,113,114,113,114,113,114,111,121,54,55,28,29,12,13,12,13,122,114,111,114,111,121,12,183,184,185,186,13,12,13,12,13,12,13,12,13,12,13,12,13,12,13,12,13,113,114,113,114,113,114,113,114,113,114,113,114,113,114,113,114,113,114,113,114,113,114,111,121,12,13,12,13,12,13,12,13,12,30,33,13,12,13,12,13,122,114,113,114,113,114,113,114,113,114,113,114,113,114,113,114,111,117,12,13,12,13,12,13,21,2,1,2,1,27,28,29,12,13,21,2,1,2,1,2,1,2,1,2,1,2,1,2,1,2,1,2,1,2,1,2,1,2,1,2,
3,4,3,4,3,4,3,4,3,4,3,4,3,4,3,4,3,4,3,4,3,4,3,4,3,4,3,4,3,4,3,4,3,4,3,4,3,4,3,4,3,4,3,4,3,4,3,4,3,4,3,4,3,4,3,4,3,4,3,4,8,9,10,3,4,3,4,3,4,3,4,3,4,3,4,3,4,3,4,3,4,3,4,3,4,3,4,3,4,3,4,3,4,3,4,3,4,3,4,3,4,3,4,3,4,3,4,3,4,3,4,3,4,3,4,3,4,3,4,3,4,3,4,3,4,3,4,3,4,3,4,3,4,3,4,3,4,3,4,3,4,3,4,3,4,3,4,3,4,3,4,3,4,3,4,3,4,3,4,3,4,3,4,3,4,3,4,3,4,3,4,3,4,3,4,3,4,3,4,3,4,3,4,3,4,3,4,3,4,3,4,3,4,3,4,3,4,3,4,3,4,3,4,3,4,3,4,3,4,3,4,3,4,3,4,3,4,3,4,3,4,3,4,3,4,3,4,3,4,3,4,3,4,3,4,3,4,3,4,3,4,3,4,3,4,3,4,3,4,3,4,3,4,3,4,3,4,3,4,3,4,3,4,3,4,3,4,3,4,3,4,3,4,3,4,3,4,3,4,3,4,3,4,3,4,3,4,3,4,3,4,3,4,3,4,3,4,3,4,3,4,3,4,3,4,3,4,3,4,3,4,3,4,3,4,3,4,3,4,3,4,3,4,3,4,3,4,3,4,3,4,3,4,3,4,3,4,3,4,20,16,17,18,3,4,3,4,4,8,9,18,3,4,3,4,20,16,17,116,106,107,106,107,106,107,106,107,106,107,106,107,106,107,106,123,17,55,57,34,28,35,17,16,17,16,124,118,119,123,17,187,188,189,189,190,191,16,17,16,17,16,17,16,17,16,17,16,17,16,17,16,17,116,106,107,106,107,106,107,106,107,106,107,106,107,106,107,106,107,106,107,106,107,106,123,17,16,17,16,17,16,17,16,17,36,37,40,41,16,17,16,17,16,124,107,106,107,106,107,106,107,106,107,106,107,106,107,106,107,120,16,17,16,17,16,17,16,26,5,3,4,3,34,28,16,17,16,26,5,3,4,3,4,3,4,3,4,3,4,3,4,3,4,3,4,3,4,3,4,3,4,3,
1,2,1,2,1,2,1,2,1,2,1,2,1,2,1,2,1,2,1,2,1,2,1,2,1,2,1,2,1,2,1,2,1,2,1,2,1,2,1,2,1,2,1,2,1,2,1,2,1,2,1,2,1,2,1,2,1,2,1,19,12,13,14,2,1,2,1,2,1,2,1,2,1,2,1,2,1,2,1,2,1,2,1,2,1,2,1,2,1,2,1,2,1,2,1,2,1,2,1,2,1,2,1,2,1,2,1,2,1,2,1,2,1,2,1,2,1,2,1,2,1,2,1,2,1,2,1,2,1,2,1,2,1,2,1,2,1,2,1,2,1,2,1,2,1,2,1,2,1,2,1,2,1,2,1,2,1,2,1,2,1,2,1,2,1,2,1,2,1,2,1,2,1,2,1,2,1,2,1,2,1,2,1,2,1,2,1,2,1,2,1,2,1,2,1,2,1,2,1,2,1,2,1,2,1,2,1,2,1,2,1,2,1,2,1,2,1,2,1,2,1,2,1,2,1,2,1,2,1,2,1,2,1,2,1,2,1,2,1,2,1,2,1,2,1,2,1,2,1,2,1,2,1,2,1,2,1,2,1,2,1,2,1,2,1,2,1,2,1,2,1,2,1,2,1,2,1,2,1,2,1,2,1,2,1,2,1,2,1,2,1,2,1,2,1,2,1,2,1,2,1,2,1,2,1,2,1,2,1,2,1,2,1,2,1,2,1,2,1,2,1,2,1,2,1,2,1,2,1,2,1,2,1,2,1,2,1,2,1,11,12,13,7,2,1,2,1,19,12,13,7,2,1,2,1,11,12,13,122,114,113,114,113,114,113,114,113,114,113,114,113,114,111,117,54,55,56,2,1,27,44,45,68,69,28,29,12,13,12,13,199,189,189,189,189,213,184,185,184,185,184,185,184,185,186,13,12,13,12,13,12,13,113,114,113,114,113,114,113,114,113,114,113,114,113,114,113,114,113,114,113,114,111,117,12,13,12,13,12,13,12,30,31,32,48,49,48,49,33,13,12,13,12,13,122,114,113,114,113,114,113,114,113,114,113,114,113,114,111,117,12,13,12,13,12,13,54,55,56,2,1,2,1,27,28,29,12,13,14,2,1,2,1,2,1,2,1,2,1,2,1,2,1,2,1,2,1,2,1,2,1,2,
3,4,3,4,3,4,3,4,3,4,3,4,3,4,3,4,3,4,3,4,3,4,3,4,3,4,3,4,3,4,3,4,3,4,3,4,3,4,3,4,3,4,3,4,3,4,3,4,3,4,3,4,3,4,3,4,3,4,3,20,16,17,18,3,4,3,4,3,4,3,4,3,4,3,4,3,4,3,4,3,4,3,4,3,4,3,4,3,4,3,4,3,4,3,4,3,4,3,4,3,4,3,4,3,4,3,4,3,4,3,4,3,4,3,4,3,4,3,4,3,4,3,4,3,4,3,4,3,4,3,4,3,4,3,4,3,4,3,4,3,4,3,4,3,4,3,4,3,4,3,4,3,4,3,4,3,4,3,4,3,4,3,4,3,4,3,4,3,4,3,4,3,4,3,4,3,4,3,4,3,4,3,4,3,4,3,4,3,4,3,4,3,4,3,4,3,4,3,4,3,4,3,4,3,4,3,4,3,4,3,4,3,4,3,4,3,4,3,4,3,4,3,4,3,4,3,4,3,4,3,4,3,4,3,4,3,4,3,4,3,4,3,4,3,4,3,4,3,4,3,4,3,4,3,4,3,4,3,4,3,4,3,4,3,4,3,4,3,4,3,4,3,4,3,4,3,4,3,4,3,4,3,4,3,4,3,4,3,4,3,4,3,4,3,4,3,4,3,4,3,4,3,4,3,4,3,4,3,4,3,4,3,4,3,4,3,4,3,4,3,4,3,4,3,4,3,4,3,4,3,4,3,4,3,4,3,4,3,4,15,16,17,10,3,4,3,4,20,16,17,10,3,4,3,4,15,16,17,16,124,107,106,107,106,107,106,107,106,107,106,107,106,107,120,55,57,3,4,3,4,58,57,3,4,34,28,35,17,16,17,200,189,189,189,189,189,189,189,189,189,189,189,189,189,190,191,16,17,16,17,16,17,116,106,107,106,107,106,107,106,107,106,107,106,107,106,107,106,107,106,107,106,107,120,16,17,16,17,16,17,36,37,38,39,61,62,61,62,40,41,16,17,16,17,16,124,107,106,107,106,107,106,107,106,107,106,107,106,107,120,16,17,16,17,16,17,55,57,3,4,3,4,3,4,34,28,35,17,18,3,4,3,4,3,4,3,4,3,4,3,4,3,4,3,4,3,4,3,4,3,4,3,
1,2,1,2,1,2,1,2,1,2,1,2,1,2,1,2,1,2,1,2,1,2,1,2,1,2,1,2,1,2,1,2,1,2,1,2,1,2,1,2,1,2,1,2,1,2,1,2,1,2,1,2,1,2,1,2,1,2,1,19,12,13,21,2,1,2,1,2,1,2,1,2,1,2,1,2,1,2,1,2,1,2,1,2,1,2,1,2,1,2,1,2,1,2,1,2,1,2,1,2,1,2,1,2,1,2,1,2,1,2,1,2,1,2,1,2,1,2,1,2,1,2,1,2,1,2,1,2,1,2,1,2,1,2,1,2,1,2,1,2,1,2,1,2,1,2,1,2,1,2,1,2,1,2,1,2,1,2,1,2,1,2,1,2,1,2,1,2,1,2,1,2,1,2,1,2,1,2,1,2,1,2,1,2,1,2,1,2,1,2,1,2,1,2,1,2,1,2,1,2,1,2,1,2,1,2,1,2,1,2,1,2,1,2,1,2,1,2,1,2,1,2,1,2,1,2,1,2,1,2,1,2,1,2,1,2,1,2,1,2,1,2,1,2,1,2,1,2,1,2,1,2,1,2,1,2,1,2,1,2,1,2,1,2,1,2,1,2,1,2,1,2,1,2,1,2,1,2,1,2,1,2,1,2,1,2,1,2,1,2,1,2,1,2,1,2,1,2,1,2,1,2,1,2,1,2,1,2,1,2,1,2,1,2,1,2,1,2,1,2,1,2,1,2,1,2,1,2,1,2,1,2,1,2,1,2,1,2,1,19,12,13,14,2,1,2,1,11,12,13,14,2,1,2,1,11,12,13,12,13,122,114,113,114,113,114,113,114,113,114,113,114,111,117,21,2,1,2,1,2,1,2,1,2,1,27,28,29,12,13,201,202,189,189,189,189,189,189,189,189,189,189,189,189,189,213,184,185,186,13,12,13,113,114,113,114,113,114,113,114,113,114,113,114,113,114,113,114,113,114,113,114,111,121,12,13,12,13,12,13,46,47,48,49,48,49,48,49,48,49,33,13,12,13,12,13,122,114,113,114,113,114,113,114,113,114,113,114,113,114,104,13,12,13,12,13,21,2,1,2,1,2,1,2,1,27,28,29,7,2,1,2,1,2,1,2,1,2,1,2,1,2,1,2,1,2,1,2,1,2,1,2,
3,4,3,4,3,4,3,4,3,4,3,4,3,4,3,4,3,4,3,4,3,4,3,4,3,4,3,4,3,4,3,4,3,4,3,4,3,4,3,4,3,4,3,4,3,4,3,4,3,4,3,4,3,4,3,4,3,4,3,20,16,17,16,26,5,3,4,3,4,3,4,3,4,3,4,3,4,3,4,3,4,4,22,23,24,25,22,23,24,25,5,3,4,3,4,3,4,3,4,3,4,3,4,3,4,3,4,3,4,3,4,3,4,3,4,3,4,3,4,3,4,3,4,3,4,3,4,3,4,3,4,3,4,3,4,3,4,3,4,3,4,3,4,3,4,3,4,3,4,3,4,3,4,3,4,3,4,3,4,3,4,3,4,3,4,3,4,3,4,3,4,3,4,3,4,3,4,3,4,3,4,3,4,3,4,3,4,3,4,3,4,3,4,3,4,3,4,3,4,3,4,3,4,3,4,3,4,3,4,3,4,3,4,3,4,3,4,3,4,3,4,3,4,3,4,3,4,3,4,3,4,3,4,3,4,3,4,3,4,3,4,3,4,3,4,3,4,3,4,3,4,3,4,3,4,3,4,3,4,3,4,3,4,3,4,3,4,3,4,3,4,3,4,3,4,3,4,3,4,3,4,3,4,3,4,3,4,3,4,3,4,3,4,3,4,3,4,3,4,3,4,3,4,3,4,3,4,3,4,3,4,3,4,3,4,3,4,3,4,3,4,3,4,3,4,3,4,3,4,3,4,3,4,3,4,3,4,3,4,20,16,17,18,3,4,3,4,15,17,35,18,3,4,3,4,15,35,17,16,17,16,124,107,106,107,106,107,106,107,106,107,106,107,120,16,26,5,3,4,3,4,3,4,3,4,3,34,28,35,17,16,203,197,198,204,189,189,189,189,189,189,189,189,189,189,189,189,189,190,191,16,17,116,106,107,106,107,106,107,106,107,106,107,106,107,106,107,106,107,106,107,106,123,17,16,17,16,17,16,17,59,60,61,62,61,62,61,62,61,62,40,41,16,17,16,17,16,124,107,106,107,106,107,106,107,106,107,106,107,106,107,108,16,17,16,17,16,26,5,3,4,3,4,3,4,3,34,28,10,3,4,3,4,3,4,3,4,3,4,3,4,3,4,3,4,3,4,3,4,3,4,3,
1,2,1,2,1,2,1,2,1,2,1,2,1,2,1,2,1,2,1,2,1,2,1,2,1,2,1,2,1,2,1,2,1,2,1,2,1,2,1,2,1,2,1,2,1,2,1,2,1,2,1,2,1,2,1,2,1,2,1,11,12,13,12,13,14,2,1,2,1,2,1,2,1,2,1,2,1,2,1,2,1,6,12,13,12,13,12,13,54,55,56,2,1,2,1,2,1,2,1,2,1,2,1,2,1,2,1,2,1,2,1,2,1,2,1,2,1,2,1,2,1,2,1,2,1,2,1,2,1,2,1,2,1,2,1,2,1,2,1,2,1,2,1,2,1,2,1,2,1,2,1,2,1,2,1,2,1,2,1,2,1,2,1,2,1,2,1,2,1,2,1,2,1,2,1,2,1,2,1,2,1,2,1,2,1,2,1,2,1,2,1,2,1,2,1,2,1,2,1,2,1,2,1,2,1,2,1,2,1,2,1,2,1,2,1,2,1,2,1,2,1,2,1,2,1,2,1,2,1,2,1,2,1,2,1,2,1,2,1,2,1,2,1,2,1,2,1,2,1,2,1,2,1,2,1,2,1,2,1,2,1,2,1,2,1,2,1,2,1,2,1,2,1,2,1,2,1,2,1,2,1,2,1,2,1,2,1,2,1,2,1,2,1,2,1,2,1,2,1,2,1,2,1,2,1,2,1,2,1,2,1,2,1,2,1,2,1,2,1,2,1,2,1,2,1,2,1,2,1,2,1,2,1,2,1,2,1,2,1,11,12,13,7,2,1,2,1,6,54,55,56,2,1,2,1,27,28,29,12,13,12,13,122,114,111,114,113,114,113,114,113,114,111,117,12,13,14,2,1,2,1,2,1,2,1,2,1,27,42,43,44,45,28,29,199,189,189,189,189,189,189,189,189,189,189,189,189,189,195,13,12,13,113,114,113,114,113,114,113,114,113,114,113,114,113,114,113,114,113,114,111,121,12,13,12,13,12,13,12,30,48,49,48,49,48,49,48,49,48,49,48,49,33,13,12,13,12,13,113,114,113,114,113,114,113,114,113,114,113,114,111,117,12,13,12,13,54,55,56,2,1,2,1,2,1,2,1,27,56,2,1,2,1,2,1,2,1,2,1,2,1,2,1,2,1,2,1,2,1,2,1,2,
3,4,3,4,3,4,3,4,3,4,3,4,3,4,3,4,3,4,3,4,3,4,3,4,3,4,3,4,3,4,3,4,3,4,3,4,3,4,3,4,3,4,3,4,3,4,3,4,3,4,3,4,3,4,3,4,3,4,3,15,16,17,16,17,18,3,4,3,4,3,4,3,4,3,4,3,4,3,4,4,8,9,16,17,16,17,16,17,55,57,3,4,3,4,3,4,3,4,3,4,3,4,3,4,3,4,3,4,3,4,3,4,3,4,3,4,3,4,3,4,3,4,3,4,3,4,3,4,3,4,3,4,3,4,3,4,3,4,3,4,3,4,3,4,3,4,3,4,3,4,3,4,3,4,3,4,3,4,3,4,3,4,3,4,3,4,3,4,3,4,3,4,3,4,3,4,3,4,3,4,3,4,3,4,3,4,3,4,3,4,3,4,3,4,3,4,3,4,3,4,3,4,3,4,3,4,3,4,3,4,3,4,3,4,3,4,3,4,3,4,3,4,3,4,3,4,3,4,3,4,3,4,3,4,3,4,3,4,3,4,3,4,3,4,3,4,3,4,3,4,3,4,3,4,3,4,3,4,3,4,3,4,3,4,3,4,3,4,3,4,3,4,3,4,3,4,3,4,3,4,3,4,3,4,3,4,3,4,3,4,3,4,3,4,3,4,3,4,3,4,3,4,3,4,3,4,3,4,3,4,3,4,3,4,3,4,3,4,3,4,3,4,3,4,3,4,3,4,3,4,3,4,3,4,3,4,3,4,3,15,17,35,10,3,4,4,8,9,55,57,3,4,3,4,3,4,34,28,35,17,16,17,16,124,118,119,107,106,107,106,107,106,107,120,16,17,18,3,4,3,4,3,4,3,4,3,4,3,4,57,58,57,34,28,200,189,189,189,189,189,189,189,189,196,197,198,197,198,16,17,16,17,116,106,107,106,107,106,107,106,107,106,107,106,107,106,107,106,107,106,123,17,16,17,16,17,16,17,36,37,61,62,61,62,61,62,61,62,61,62,61,62,40,41,16,17,16,17,116,106,107,106,107,106,107,106,107,106,107,106,107,120,16,17,16,17,55,57,3,4,3,4,3,4,3,4,3,4,3,4,3,4,3,4,3,4,3,4,3,4,3,4,3,4,3,4,3,4,3,4,3,4,
1,2,1,2,1,2,1,2,1,2,1,2,1,2,1,2,1,2,1,2,1,2,1,2,1,2,1,2,1,2,1,2,1,2,1,2,1,2,1,2,1,2,1,2,1,2,1,2,1,2,1,2,1,2,1,2,1,2,1,19,12,13,12,13,7,2,1,2,1,2,1,2,1,2,1,2,1,2,1,6,12,13,12,13,54,55,44,45,56,2,1,2,1,2,1,2,1,2,1,2,1,2,1,2,1,2,1,2,1,2,1,2,1,2,1,2,1,2,1,2,1,2,1,2,1,2,1,2,1,2,1,2,1,2,1,2,1,2,1,2,1,2,1,2,1,2,1,2,1,2,1,2,1,2,1,2,1,2,1,2,1,2,1,2,1,2,1,2,1,2,1,2,1,2,1,2,1,2,1,2,1,2,1,2,1,2,1,2,1,2,1,2,1,2,1,2,1,2,1,2,1,2,1,2,1,2,1,2,1,2,1,2,1,2,1,2,1,2,1,2,1,2,1,2,1,2,1,2,1,2,1,2,1,2,1,2,1,2,1,2,1,2,1,2,1,2,1,2,1,2,1,2,1,2,1,2,1,2,1,2,1,2,1,2,1,2,1,2,1,2,1,2,1,2,1,2,1,2,1,2,1,2,1,2,1,2,1,2,1,2,1,2,1,2,1,2,1,2,1,2,1,2,1,2,1,2,1,2,1,2,1,2,1,2,1,2,1,2,1,2,1,2,1,2,1,2,1,2,1,2,1,2,1,2,1,2,1,2,1,19,54,55,56,2,1,27,42,43,56,2,1,2,1,2,1,2,1,27,42,43,28,29,12,13,12,13,122,114,113,114,113,114,113,114,104,13,7,2,1,2,1,2,1,2,1,2,1,2,1,2,1,2,1,11,201,202,189,189,189,189,189,189,195,13,12,13,12,13,12,13,12,13,113,114,113,114,113,114,113,114,113,114,113,114,113,114,113,114,111,117,12,13,12,13,12,13,12,30,48,49,48,49,48,49,48,49,48,49,48,49,48,49,48,49,33,13,12,13,113,114,113,114,113,114,113,114,113,114,113,114,111,117,12,13,12,13,21,2,1,2,1,2,1,2,1,2,1,2,1,2,1,2,1,2,1,2,1,2,1,2,1,2,1,2,1,2,1,2,1,2,1,2,
3,4,3,4,3,4,3,4,3,4,3,4,3,4,3,4,3,4,3,4,3,4,3,4,3,4,3,4,3,4,3,4,3,4,3,4,3,4,3,4,3,4,3,4,3,4,3,4,3,4,3,4,3,4,3,4,3,4,3,20,16,17,16,17,10,3,4,3,4,3,4,3,4,3,4,3,4,4,8,9,16,17,16,17,55,57,58,57,3,4,3,4,3,4,3,4,3,4,3,4,3,4,3,4,3,4,3,4,3,4,3,4,3,4,3,4,3,4,3,4,3,4,3,4,3,4,3,4,3,4,3,4,3,4,3,4,3,4,3,4,3,4,3,4,3,4,3,4,3,4,3,4,3,4,3,4,3,4,3,4,3,4,3,4,3,4,3,4,3,4,3,4,3,4,3,4,3,4,3,4,3,4,3,4,3,4,3,4,3,4,3,4,3,4,3,4,3,4,3,4,3,4,3,4,3,4,3,4,3,4,3,4,3,4,3,4,3,4,3,4,3,4,3,4,3,4,3,4,3,4,3,4,3,4,3,4,3,4,3,4,3,4,3,4,3,4,3,4,3,4,3,4,3,4,3,4,3,4,3,4,3,4,3,4,3,4,3,4,3,4,3,4,3,4,3,4,3,4,3,4,3,4,3,4,3,4,3,4,3,4,3,4,3,4,3,4,3,4,3,4,3,4,3,4,3,4,3,4,3,4,3,4,3,4,3,4,3,4,3,4,3,4,3,4,3,4,3,4,3,4,3,4,3,4,3,4,3,4,3,20,55,57,3,4,3,4,3,57,3,4,3,4,3,4,3,4,3,4,3,57,34,28,35,17,16,17,16,124,107,106,107,106,107,106,107,108,10,3,4,3,4,3,4,3,4,3,4,3,4,3,4,3,4,15,16,203,204,189,189,189,189,196,16,17,16,17,16,17,16,17,16,17,116,106,107,106,107,106,107,106,107,106,107,106,107,106,107,106,107,120,16,17,16,17,16,17,36,37,61,62,61,62,61,62,61,62,61,62,61,62,61,62,61,62,40,41,16,17,116,106,107,106,107,106,107,106,107,106,107,106,107,120,16,17,16,17,16,26,24,25,22,23,5,3,4,3,4,3,4,3,4,3,4,3,4,3,4,3,4,3,4,3,4,3,4,3,4,3,4,3,4,3,
1,2,1,2,1,2,1,2,1,2,1,2,1,2,1,2,1,2,1,2,1,2,1,2,1,2,1,2,1,2,1,2,1,2,1,2,1,2,1,2,1,2,1,2,1,2,1,2,1,2,1,2,1,2,1,2,1,2,1,11,12,13,12,13,21,2,1,2,1,2,1,2,1,2,1,2,1,11,12,13,12,13,54,55,56,2,1,2,1,2,1,2,1,2,1,2,1,2,1,2,1,2,1,2,1,2,1,2,1,2,1,2,1,2,1,2,1,2,1,2,1,2,1,2,1,2,1,2,1,2,1,2,1,2,1,2,1,2,1,2,1,2,1,2,1,2,1,2,1,2,1,2,1,2,1,2,1,2,1,2,1,2,1,2,1,2,1,2,1,2,1,2,1,2,1,2,1,2,1,2,1,2,1,2,1,2,1,2,1,2,1,2,1,2,1,2,1,2,1,2,1,2,1,2,1,2,1,2,1,2,1,2,1,2,1,2,1,2,1,2,1,2,1,2,1,2,1,2,1,2,1,2,1,2,1,2,1,2,1,2,1,2,1,2,1,2,1,2,1,2,1,2,1,2,1,2,1,2,1,2,1,2,1,2,1,2,1,2,1,2,1,2,1,2,1,2,1,2,1,2,1,2,1,2,1,2,1,2,1,2,1,2,1,2,1,2,1,2,1,2,1,2,1,2,1,2,1,2,1,2,1,2,1,2,1,2,1,2,1,2,1,2,1,2,1,2,1,2,1,2,1,2,1,2,1,2,1,2,1,6,14,2,1,2,1,2,1,2,1,2,1,2,1,2,1,2,1,2,1,2,1,27,68,69,44,45,28,29,113,114,113,114,113,114,111,117,14,2,1,2,1,2,1,2,1,2,1,2,1,2,1,2,1,11,12,13,199,189,189,189,195,13,54,55,68,69,44,45,44,45,28,29,122,114,113,114,113,114,113,114,113,114,113,114,113,114,113,114,111,117,12,13,12,13,12,30,48,49,48,49,48,49,48,49,48,49,48,49,48,49,48,49,48,49,48,49,33,13,113,114,113,114,113,114,113,114,113,114,113,114,111,117,12,13,12,13,12,30,31,32,33,13,21,2,1,2,1,2,1,2,1,2,1,2,1,2,1,2,1,2,1,2,1,2,1,2,1,2,1,2,1,2,
3,4,3,4,3,4,3,4,3,4,3,4,3,4,3,4,3,4,3,4,3,4,3,4,3,4,3,4,3,4,3,4,3,4,3,4,3,4,3,4,3,4,3,4,3,4,3,4,3,4,3,4,3,4,3,4,3,4,3,15,16,17,16,17,16,26,22,23,5,3,4,3,4,3,4,3,4,15,16,17,16,17,55,57,3,4,3,4,3,4,3,4,3,4,3,4,3,4,3,4,3,4,3,4,3,4,3,4,3,4,3,4,3,4,3,4,3,4,3,4,3,4,3,4,3,4,3,4,3,4,3,4,3,4,3,4,3,4,3,4,3,4,3,4,3,4,3,4,3,4,3,4,3,4,3,4,3,4,3,4,3,4,3,4,3,4,3,4,3,4,3,4,3,4,3,4,3,4,3,4,3,4,3,4,3,4,3,4,3,4,3,4,3,4,3,4,3,4,3,4,3,4,3,4,3,4,3,4,3,4,3,4,3,4,3,4,3,4,3,4,3,4,3,4,3,4,3,4,3,4,3,4,3,4,3,4,3,4,3,4,3,4,3,4,3,4,3,4,3,4,3,4,3,4,3,4,3,4,3,4,3,4,3,4,3,4,3,4,3,4,3,4,3,4,3,4,3,4,3,4,3,4,3,4,3,4,3,4,3,4,3,4,3,4,3,4,3,4,3,4,3,4,3,4,3,4,22,23,22,23,24,25,22,23,24,25,5,3,4,3,4,3,4,4,22,23,5,3,4,3,4,3,4,3,4,3,4,4,8,9,18,3,4,3,4,3,4,4,22,23,24,25,22,23,24,25,5,3,4,3,4,3,4,3,58,57,34,28,116,106,107,106,107,106,107,120,18,3,4,3,4,3,4,3,4,3,4,3,4,3,4,3,4,15,35,17,200,189,189,196,16,17,55,57,3,4,58,57,58,57,34,28,16,124,107,106,107,106,107,106,107,106,107,106,107,106,107,106,107,120,16,17,16,17,36,37,61,62,61,62,61,62,61,62,61,62,128,62,61,62,61,62,61,62,61,62,40,41,116,106,107,106,107,106,107,106,107,106,107,106,107,120,16,17,16,17,36,37,38,39,40,41,16,26,5,3,4,3,4,3,4,3,4,3,4,3,4,3,4,3,4,3,4,3,4,3,4,3,4,3,4,3,
1,2,1,2,1,2,1,2,1,2,1,2,1,2,1,2,1,2,1,2,1,2,1,2,1,2,1,2,1,2,1,2,1,2,1,2,1,2,1,2,1,2,1,2,1,2,1,2,1,2,1,2,1,2,1,2,1,2,1,19,12,13,12,13,12,13,12,13,21,2,1,2,1,2,1,2,1,6,12,13,12,13,14,2,1,2,1,2,1,2,1,2,1,2,1,2,1,2,1,2,1,2,1,2,1,2,1,2,1,2,1,2,1,2,1,2,1,2,1,2,1,2,1,2,1,2,1,2,1,2,1,2,1,2,1,2,1,2,1,2,1,2,1,2,1,2,1,2,1,2,1,2,1,2,1,2,1,2,1,2,1,2,1,2,1,2,1,2,1,2,1,2,1,2,1,2,1,2,1,2,1,2,1,2,1,2,1,2,1,2,1,2,1,2,1,2,1,2,1,2,1,2,1,2,1,2,1,2,1,2,1,2,1,2,1,2,1,2,1,2,1,2,1,2,1,2,1,2,1,2,1,2,1,2,1,2,1,2,1,2,1,2,1,2,1,2,1,2,1,2,1,2,1,2,1,2,1,2,1,2,1,2,1,2,1,2,1,2,1,2,1,2,1,2,1,2,1,2,1,2,1,2,1,2,1,2,1,2,1,2,1,2,1,2,1,2,1,2,1,2,1,2,1,2,1,6,12,13,12,13,12,13,12,13,12,13,21,2,1,2,1,2,1,6,12,13,21,2,1,2,1,2,1,2,1,2,1,19,54,55,56,2,1,2,1,2,1,6,12,13,12,13,12,13,12,13,21,2,1,2,1,2,1,2,1,2,1,11,122,114,113,114,113,114,111,121,7,2,1,2,1,2,1,2,1,2,1,2,1,2,1,2,1,27,28,29,201,202,195,13,54,55,56,2,1,2,1,2,1,2,1,11,12,13,122,114,113,114,113,114,113,114,113,114,113,114,113,114,113,114,104,13,12,13,109,110,48,49,48,49,48,49,48,49,48,49,129,130,48,49,48,49,50,51,50,51,52,53,113,114,113,114,113,114,113,114,113,114,113,114,111,121,12,30,31,32,48,49,48,49,66,67,12,13,14,2,1,2,1,2,1,2,1,2,1,2,1,2,1,2,1,2,1,2,1,2,1,2,1,2,1,2,
3,4,3,4,3,4,3,4,3,4,3,4,3,4,3,4,3,4,3,4,3,4,3,4,3,4,3,4,3,4,3,4,3,4,3,4,3,4,3,4,3,4,3,4,3,4,3,4,3,4,3,4,3,4,3,4,3,4,3,20,16,17,16,17,16,17,16,17,16,26,22,23,24,25,24,25,8,9,16,17,16,17,18,3,4,3,4,3,4,3,4,3,4,3,4,3,4,3,4,3,4,3,4,3,4,3,4,3,4,3,4,4,22,23,24,25,22,23,24,25,22,23,24,25,22,23,24,25,5,3,4,3,4,3,4,3,4,3,4,3,4,3,4,3,4,3,4,3,4,3,4,3,4,3,4,3,4,3,4,3,4,3,4,3,4,3,4,3,4,3,4,3,4,3,4,3,4,3,4,3,4,3,4,3,4,3,4,3,4,3,4,3,4,3,4,3,4,3,4,3,4,3,4,3,4,3,4,3,4,3,4,3,4,3,4,3,4,3,4,3,4,3,4,3,4,3,4,3,4,3,4,3,4,3,4,3,4,3,4,3,4,3,4,3,4,3,4,3,4,3,4,3,4,3,4,3,4,3,4,3,4,3,4,3,4,3,4,3,4,3,4,3,4,3,4,3,4,3,4,3,4,3,4,3,4,3,4,3,4,3,4,3,4,3,4,3,4,3,4,3,4,4,22,23,8,9,16,17,16,17,16,17,16,17,16,17,16,26,22,23,24,25,8,9,16,17,16,26,5,3,4,3,4,3,4,3,4,20,55,57,3,4,3,4,3,4,8,9,16,17,16,17,16,17,16,17,16,26,22,23,5,3,4,3,4,3,4,15,16,124,107,106,107,106,123,17,10,3,4,3,4,3,4,3,4,3,4,3,4,3,4,3,4,3,34,28,16,203,16,17,55,57,3,4,3,4,3,4,3,4,3,15,16,17,16,124,107,106,107,106,107,106,107,106,107,106,107,106,107,106,107,108,16,17,16,115,61,62,61,62,61,62,61,62,61,62,128,62,61,62,61,62,63,64,63,64,65,17,116,106,107,106,107,106,107,106,107,106,107,106,123,17,36,37,38,39,61,62,61,62,70,71,16,17,18,3,4,3,4,3,4,3,4,3,4,4,5,3,4,3,4,3,4,3,4,3,4,3,4,3,4,3,
1,2,1,2,1,2,1,2,1,2,1,2,1,2,1,2,1,2,1,2,1,2,1,2,1,2,1,2,1,2,1,2,1,2,1,2,1,2,1,2,1,2,1,2,1,2,1,2,1,2,1,2,1,2,1,2,1,2,1,11,12,13,12,13,12,13,12,13,12,13,12,13,12,13,12,13,12,13,12,13,12,13,7,2,1,2,1,2,1,2,1,2,1,2,1,2,1,2,1,2,1,2,1,2,1,2,1,2,1,2,1,6,12,30,31,32,31,32,31,32,31,32,31,32,31,32,33,13,21,2,1,2,1,2,1,2,1,2,1,2,1,2,1,2,1,2,1,2,1,2,1,2,1,2,1,2,1,2,1,2,1,2,1,2,1,2,1,2,1,2,1,2,1,2,1,2,1,2,1,2,1,2,1,2,1,2,1,2,1,2,1,2,1,2,1,2,1,2,1,2,1,2,1,2,1,2,1,2,1,2,1,2,1,2,1,2,1,2,1,2,1,2,1,2,1,2,1,2,1,2,1,2,1,2,1,2,1,2,1,2,1,2,1,2,1,2,1,2,1,2,1,2,1,2,1,2,1,2,1,2,1,2,1,2,1,2,1,2,1,2,1,2,1,2,1,2,1,2,1,2,1,2,1,2,1,2,1,2,1,2,1,2,1,2,1,2,1,2,1,2,1,6,12,13,12,13,12,13,12,13,12,13,12,13,12,13,12,13,209,210,212,211,12,13,12,13,12,13,21,2,1,2,1,2,1,2,1,11,14,2,1,2,1,2,1,19,12,13,12,13,12,13,12,13,12,13,12,13,12,13,21,2,1,2,1,2,1,11,12,13,122,114,111,121,12,13,14,2,1,2,1,2,1,2,1,2,1,2,1,2,1,2,1,2,1,27,42,43,44,45,56,2,1,2,1,2,1,2,1,2,1,19,12,13,12,13,113,114,113,114,113,114,113,114,113,114,113,114,113,114,113,114,104,13,12,13,109,110,50,51,48,49,48,49,48,49,129,130,50,51,52,53,12,13,12,13,12,13,113,114,113,114,113,114,113,114,113,114,111,121,12,13,46,47,48,49,48,49,48,49,66,67,12,13,21,2,1,2,1,2,1,2,1,2,1,6,14,2,1,2,1,2,1,2,1,2,1,2,1,2,1,2,
3,4,3,4,3,4,3,4,3,4,3,4,3,4,3,4,3,4,3,4,3,4,3,4,3,4,3,4,3,4,3,4,3,4,3,4,3,4,3,4,3,4,3,4,3,4,3,4,3,4,3,4,3,4,3,4,3,4,3,15,16,17,16,17,16,17,16,17,16,17,16,17,16,17,16,17,16,17,16,17,16,17,10,3,4,3,4,3,4,3,4,3,4,3,4,3,4,3,4,3,4,3,4,3,4,3,4,3,4,4,8,9,36,37,38,39,38,39,38,39,38,39,38,39,38,39,40,41,16,26,5,3,4,3,4,3,4,3,4,3,4,3,4,3,4,3,4,3,4,3,4,3,4,3,4,3,4,3,4,3,4,3,4,3,4,3,4,3,4,3,4,3,4,3,4,3,4,3,4,3,4,3,4,3,4,3,4,3,4,3,4,3,4,3,4,3,4,3,4,3,4,3,4,3,4,3,4,3,4,3,4,3,4,3,4,3,4,3,4,3,4,3,4,3,4,3,4,3,4,3,4,3,4,3,4,3,4,3,4,3,4,3,4,3,4,3,4,3,4,3,4,3,4,3,4,3,4,3,4,3,4,3,4,3,4,3,4,3,4,3,4,3,4,3,4,3,4,3,4,3,4,3,4,3,4,3,4,3,4,3,4,3,4,3,4,3,4,3,4,4,8,9,16,17,16,17,16,17,16,17,16,17,16,17,16,17,16,17,211,17,211,209,16,17,16,17,16,17,16,26,5,3,4,3,4,3,4,15,18,3,4,3,4,3,4,20,16,17,16,17,16,17,16,17,16,17,16,17,16,17,16,26,5,3,4,3,4,15,16,17,16,124,123,17,16,17,18,3,4,3,4,3,4,3,4,3,4,3,4,3,4,3,4,3,4,3,4,57,58,57,3,4,3,4,3,4,3,4,3,4,3,20,16,17,16,17,116,106,107,106,107,106,107,106,107,106,107,106,107,106,107,106,107,108,16,17,16,115,63,64,61,62,61,62,61,62,131,64,63,64,65,17,16,17,16,17,16,17,116,106,107,106,107,106,107,106,107,106,123,17,16,17,59,60,61,62,61,62,61,62,70,71,16,17,16,26,5,3,4,3,4,3,4,4,8,9,18,3,4,3,4,3,4,3,4,3,4,3,4,3,4,3,
1,2,1,2,1,2,1,2,1,2,1,2,1,2,1,2,1,2,1,2,1,2,1,2,1,2,1,2,1,2,1,2,1,2,1,2,1,2,1,2,1,2,1,2,1,2,1,2,1,2,1,2,1,2,1,2,1,2,1,6,12,13,12,13,12,13,12,13,12,13,12,13,12,13,12,13,12,13,12,13,12,13,14,2,1,2,1,2,1,2,1,2,1,2,1,2,1,2,1,2,1,2,1,2,1,2,1,2,1,6,12,30,48,49,48,49,48,49,48,49,48,49,48,49,48,49,48,49,33,13,21,2,1,2,1,2,1,2,1,2,1,2,1,2,1,2,1,2,1,2,1,2,1,2,1,2,1,2,1,2,1,2,1,2,1,2,1,2,1,2,1,2,1,2,1,2,1,2,1,2,1,2,1,2,1,2,1,2,1,2,1,2,1,2,1,2,1,2,1,2,1,2,1,2,1,2,1,2,1,2,1,2,1,2,1,2,1,2,1,2,1,2,1,2,1,2,1,2,1,2,1,2,1,2,1,2,1,2,1,2,1,2,1,2,1,2,1,2,1,2,1,2,1,2,1,2,1,2,1,2,1,2,1,2,1,2,1,2,1,2,1,2,1,2,1,2,1,2,1,2,1,2,1,2,1,2,1,2,1,2,1,2,1,2,1,2,1,2,1,11,12,13,12,13,12,13,54,55,44,45,42,43,44,45,68,69,28,29,12,13,12,13,12,13,12,13,12,13,12,13,21,2,1,2,1,2,1,27,56,2,1,2,1,2,1,11,12,13,12,13,12,13,12,13,12,13,12,13,12,13,12,13,14,2,1,2,1,11,12,13,12,13,12,13,12,13,21,2,1,2,1,2,1,2,1,2,1,2,1,2,1,2,1,2,1,2,1,2,1,2,1,2,1,2,1,2,1,2,1,2,1,11,12,13,12,13,113,114,113,114,113,114,113,114,113,114,113,114,113,114,113,114,113,114,104,13,12,13,12,13,109,110,50,51,52,53,12,13,12,13,12,13,12,13,12,103,111,112,113,114,113,114,113,114,113,114,111,121,12,13,12,13,109,110,50,51,50,51,48,49,48,49,33,13,12,13,14,2,1,2,1,2,1,11,12,13,7,2,1,2,1,2,1,2,1,2,1,2,1,2,1,2,
3,4,3,4,3,4,3,4,3,4,3,4,3,4,3,4,3,4,3,4,3,4,3,4,3,4,3,4,3,4,3,4,3,4,3,4,3,4,3,4,3,4,3,4,3,4,3,4,3,4,3,4,3,4,3,4,24,25,8,9,16,17,16,17,16,17,16,17,16,17,16,17,16,17,16,17,16,17,16,17,16,17,18,3,4,3,4,3,4,3,4,3,4,3,4,3,4,3,4,3,4,3,4,4,22,23,24,25,8,9,36,37,61,62,61,62,61,62,61,62,61,62,61,62,61,62,61,62,40,41,16,26,5,3,4,3,4,3,4,3,4,3,4,3,4,3,4,3,4,3,4,3,4,3,4,3,4,3,4,3,4,3,4,3,4,3,4,3,4,3,4,3,4,3,4,3,4,3,4,3,4,3,4,3,4,3,4,3,4,3,4,3,4,3,4,3,4,3,4,3,4,3,4,3,4,3,4,3,4,3,4,3,4,3,4,3,4,3,4,3,4,3,4,3,4,3,4,3,4,3,4,3,4,3,4,3,4,3,4,3,4,3,4,3,4,3,4,3,4,3,4,3,4,3,4,3,4,3,4,3,4,3,4,3,4,3,4,3,4,3,4,3,4,3,4,3,4,3,4,3,4,3,4,3,4,3,4,3,4,3,4,3,4,3,4,3,4,3,4,15,35,17,16,17,17,35,55,57,58,57,3,57,58,57,3,4,34,28,16,17,16,17,16,17,16,17,16,17,16,17,16,26,5,3,4,3,4,3,4,3,4,3,4,3,4,15,16,17,16,17,16,17,16,17,16,17,16,17,16,17,16,17,18,3,4,3,4,15,16,17,16,17,16,17,16,17,16,26,5,3,4,3,4,3,4,3,4,3,4,3,4,3,4,3,4,3,4,3,4,3,4,3,4,3,4,3,4,3,4,3,4,15,16,17,16,17,116,106,107,106,107,106,107,106,107,106,107,106,107,106,107,106,107,106,107,108,16,17,16,17,16,115,63,64,65,17,16,17,16,17,16,17,16,17,105,106,107,106,107,106,107,106,107,106,107,106,123,17,16,17,16,17,16,115,63,64,63,64,61,62,61,62,40,41,16,17,18,3,4,3,4,3,4,15,16,17,10,3,4,3,4,3,4,3,4,3,4,3,4,3,4,3,
1,2,1,2,1,2,1,2,1,2,1,2,1,2,1,2,1,2,1,2,1,2,1,2,1,2,1,2,1,2,1,2,1,2,1,2,1,2,1,2,1,2,1,2,1,2,1,2,1,2,1,2,1,2,1,6,12,13,12,13,12,13,12,13,12,13,54,55,44,45,42,43,44,45,68,69,28,29,12,13,12,13,7,2,1,2,1,2,1,2,1,2,1,2,1,2,1,2,1,2,1,2,1,6,12,13,12,13,12,13,109,110,50,51,50,51,50,51,50,51,48,49,48,49,48,49,48,49,48,49,33,13,14,2,1,2,1,2,1,2,1,2,1,2,1,2,1,2,1,2,1,2,1,2,1,2,1,2,1,2,1,2,1,2,1,2,1,2,1,2,1,2,1,2,1,2,1,2,1,2,1,2,1,2,1,2,1,2,1,2,1,2,1,2,1,2,1,2,1,2,1,2,1,2,1,2,1,2,1,2,1,2,1,2,1,2,1,2,1,2,1,2,1,2,1,2,1,2,1,2,1,2,1,2,1,2,1,2,1,2,1,2,1,2,1,2,1,2,1,2,1,2,1,2,1,2,1,2,1,2,1,2,1,2,1,2,1,2,1,2,1,2,1,2,1,2,1,2,1,2,1,2,1,2,1,2,1,2,1,2,1,2,1,2,1,2,1,2,1,27,28,29,54,55,44,45,56,2,1,2,1,2,1,2,1,2,1,27,28,29,12,13,12,13,12,13,12,13,12,13,12,13,21,2,1,2,1,2,1,2,1,2,1,2,1,6,12,13,12,13,12,13,12,13,12,13,12,13,12,13,12,13,14,2,1,2,1,11,12,13,12,13,12,13,12,13,12,13,21,2,1,2,1,2,1,2,1,2,1,2,1,2,1,2,1,2,1,2,1,2,1,2,1,2,1,2,1,2,1,2,1,19,12,13,12,13,122,114,113,114,113,114,113,114,113,114,113,114,113,114,113,114,113,114,111,117,12,13,12,13,12,13,12,13,12,13,12,13,12,13,12,13,12,103,113,114,113,114,113,114,113,114,111,114,111,121,12,13,12,13,12,13,12,13,12,13,12,13,46,47,48,49,66,67,12,13,21,2,1,2,1,2,1,6,12,13,14,2,1,2,1,2,1,2,1,2,1,2,1,2,1,2,
3,4,3,4,3,4,3,4,3,4,3,4,3,4,3,4,3,4,3,4,3,4,3,4,3,4,3,4,3,4,3,4,3,4,3,4,3,4,3,4,3,4,22,23,24,25,24,25,5,3,4,3,4,4,8,9,16,17,16,17,16,17,16,17,17,35,55,57,58,57,3,57,58,57,3,4,34,28,16,17,16,17,10,3,4,3,4,3,4,3,4,3,4,3,4,3,4,3,4,3,4,4,8,9,16,17,16,17,16,17,16,115,63,64,63,64,63,64,63,64,61,62,61,62,72,73,74,75,76,62,40,41,18,3,4,3,4,3,4,3,4,3,4,3,4,3,4,3,4,3,4,3,4,3,4,3,4,3,4,3,4,3,4,3,4,3,4,3,4,3,4,3,4,3,4,3,4,3,4,3,4,3,4,3,4,3,4,3,4,3,4,3,4,3,4,3,4,3,4,3,4,3,4,3,4,3,4,3,4,3,4,3,4,3,4,3,4,3,4,3,4,3,4,3,4,3,4,3,4,3,4,3,4,3,4,3,4,3,4,3,4,3,4,3,4,3,4,3,4,3,4,3,4,3,4,3,4,3,4,3,4,3,4,3,4,3,4,3,4,3,4,3,4,3,4,3,4,3,4,3,4,3,4,3,4,3,4,3,4,3,4,3,4,3,4,3,4,3,4,3,34,28,55,57,58,57,3,4,3,4,3,4,3,4,3,4,3,4,34,28,35,17,16,17,16,17,16,17,16,17,16,17,16,26,5,3,4,3,4,3,4,3,4,3,8,9,16,17,16,17,16,17,16,17,16,17,16,17,16,17,16,17,18,3,4,3,4,15,35,17,16,17,16,17,16,17,16,17,16,26,5,3,4,3,4,3,4,3,4,3,4,3,4,3,4,3,4,3,4,3,4,3,4,3,4,3,4,3,4,3,4,20,16,17,16,17,16,124,107,106,107,106,107,106,107,106,107,106,107,106,107,106,107,106,107,120,16,17,16,17,16,17,16,17,16,17,16,17,16,17,16,17,105,106,107,106,107,106,107,106,107,106,118,119,123,17,17,35,16,17,16,17,16,17,16,17,16,17,59,60,61,62,70,71,16,17,16,26,24,25,22,23,8,9,16,17,18,3,4,3,4,3,4,3,4,3,4,3,4,3,4,3,
1,2,1,2,1,2,1,2,1,2,1,2,1,2,1,2,1,2,1,2,1,2,1,2,1,2,1,2,1,2,1,2,1,2,1,2,1,2,1,2,1,27,28,29,12,13,12,13,21,2,1,2,1,19,12,13,12,13,12,13,12,13,54,55,44,45,56,2,1,2,1,2,1,2,1,2,1,19,12,13,12,13,14,2,1,2,1,2,1,2,1,2,1,2,1,2,1,2,1,2,1,6,12,13,12,13,12,13,54,55,44,45,42,43,68,69,44,45,28,29,46,47,77,78,79,80,81,82,83,49,66,67,7,2,1,2,1,2,1,2,1,2,1,2,1,2,1,2,1,2,1,2,1,2,1,2,1,2,1,2,1,2,1,2,1,2,1,2,1,2,1,2,1,2,1,2,1,2,1,2,1,2,1,2,1,2,1,2,1,2,1,2,1,2,1,2,1,2,1,2,1,2,1,2,1,2,1,2,1,2,1,2,1,2,1,2,1,2,1,2,1,2,1,2,1,2,1,2,1,2,1,2,1,2,1,2,1,2,1,2,1,2,1,2,1,2,1,2,1,2,1,2,1,2,1,2,1,2,1,2,1,2,1,2,1,2,1,2,1,2,1,2,1,2,1,2,1,2,1,2,1,2,1,2,1,2,1,2,1,2,1,2,1,2,1,2,1,2,1,2,1,27,56,2,1,2,1,2,1,2,1,2,1,2,1,2,1,2,1,27,42,43,28,29,12,13,12,13,12,13,12,13,12,13,14,2,1,2,1,2,1,2,1,6,12,13,12,13,12,13,12,183,184,185,184,185,186,13,12,13,12,13,7,2,1,2,1,27,28,29,12,13,12,13,12,13,12,13,12,13,14,2,1,2,1,2,1,2,1,2,1,2,1,2,1,2,1,2,1,2,1,2,1,2,1,2,1,2,1,2,1,19,12,13,12,13,12,13,122,114,113,114,113,114,113,114,113,114,113,114,113,114,113,114,113,114,111,112,104,13,12,13,12,13,12,13,12,13,12,103,111,112,113,114,113,114,113,114,113,114,111,121,12,13,12,13,54,55,28,29,12,13,12,13,12,13,12,13,109,110,50,51,52,53,12,13,12,13,12,13,12,13,12,13,12,13,7,2,1,2,1,2,1,2,1,2,1,2,1,2,1,2,
3,4,3,4,3,4,3,4,3,4,3,4,3,4,3,4,3,4,3,4,3,4,3,4,3,4,3,4,3,4,3,4,3,4,3,4,3,4,3,4,3,4,34,28,35,17,16,17,16,26,5,3,4,20,16,17,16,17,16,17,16,17,55,57,58,57,3,4,3,4,3,4,3,4,3,4,3,20,35,17,16,17,18,3,4,3,4,3,4,3,4,3,4,3,4,3,4,3,4,4,8,9,17,35,35,17,16,17,55,57,58,57,3,57,3,4,58,57,34,28,59,60,84,85,86,87,88,89,90,62,70,71,10,3,4,3,4,3,4,3,4,3,4,3,4,3,4,3,4,3,4,3,4,3,4,3,4,3,4,3,4,3,4,3,4,3,4,3,4,3,4,3,4,3,4,3,4,3,4,3,4,3,4,3,4,3,4,3,4,3,4,3,4,3,4,3,4,3,4,3,4,3,4,3,4,3,4,3,4,3,4,3,4,3,4,3,4,3,4,3,4,3,4,3,4,3,4,3,4,3,4,3,4,3,4,4,5,3,4,3,4,3,4,3,4,3,4,3,4,3,4,3,4,3,4,3,4,3,4,3,4,3,4,3,4,3,4,3,4,3,4,3,4,3,4,3,4,3,4,3,4,3,4,3,4,3,4,3,4,3,4,3,4,3,4,3,4,3,4,3,4,3,4,3,4,3,4,3,4,3,4,3,4,3,4,3,4,3,4,3,4,57,34,28,35,17,16,17,16,17,16,17,16,17,18,3,4,4,24,25,22,23,8,9,16,17,16,17,16,17,187,188,189,189,189,189,190,191,16,17,16,17,10,3,4,3,4,3,34,28,16,17,16,17,16,17,16,17,16,17,18,3,4,3,4,3,4,3,4,3,4,3,4,3,4,3,4,3,4,3,4,3,4,3,4,3,4,3,4,3,4,20,35,17,16,17,16,17,16,124,107,106,107,106,107,106,107,106,107,106,107,106,107,106,107,106,107,106,107,108,16,17,16,17,16,17,16,17,105,106,107,106,107,106,107,106,107,106,107,106,123,17,16,17,16,17,55,57,34,28,35,17,16,17,16,17,16,17,16,115,63,64,65,17,16,17,16,17,16,17,16,17,16,17,16,17,10,3,4,3,4,3,4,3,4,3,4,3,4,3,4,3,
1,2,1,2,1,2,1,2,1,2,1,2,1,2,1,2,1,2,1,2,1,2,1,2,1,2,1,2,1,2,1,2,1,2,1,2,1,2,1,2,1,2,1,27,42,43,28,29,12,13,7,2,1,11,12,13,12,13,12,13,12,13,7,2,1,2,1,2,1,2,1,2,1,2,1,2,1,27,28,29,12,13,7,2,1,2,1,2,1,2,1,2,1,2,1,2,1,2,1,19,12,13,54,55,44,45,68,69,56,2,1,2,1,2,1,2,1,2,1,19,46,47,91,92,93,94,95,96,48,49,66,67,14,2,1,2,1,2,1,2,1,2,1,2,1,2,1,2,1,2,1,2,1,2,1,2,1,2,1,2,1,2,1,2,1,2,1,2,1,2,1,2,1,2,1,2,1,2,1,2,1,2,1,2,1,2,1,2,1,2,1,2,1,2,1,2,1,2,1,2,1,2,1,2,1,2,1,2,1,2,1,2,1,2,1,2,1,2,1,2,1,2,1,2,1,2,1,2,1,2,1,2,1,2,1,19,21,2,1,2,1,2,1,2,1,2,1,2,1,2,1,2,1,2,1,2,1,2,1,2,1,2,1,2,1,2,1,2,1,2,1,2,1,2,1,2,1,2,1,2,1,2,1,2,1,2,1,2,1,2,1,2,1,2,1,2,1,2,1,2,1,2,1,2,1,2,1,2,1,2,1,2,1,2,1,2,1,2,1,2,1,2,1,27,28,29,12,13,12,13,12,13,12,13,21,2,1,6,12,13,12,13,12,13,12,13,12,183,184,185,192,189,189,189,189,189,189,213,186,13,12,13,14,2,1,2,1,2,1,11,12,13,12,13,12,13,12,13,12,13,7,2,1,2,1,2,1,2,1,2,1,2,1,2,1,2,1,2,1,2,1,2,1,2,1,2,1,2,1,2,1,27,28,29,12,13,12,13,12,13,113,114,113,114,113,114,113,114,113,114,113,114,113,114,113,114,113,114,113,114,111,112,111,112,111,112,111,112,113,114,113,114,113,114,113,114,113,114,111,121,12,13,54,55,44,45,56,2,1,27,28,29,12,13,12,13,12,13,12,13,12,13,12,13,12,13,12,13,12,13,12,13,12,13,54,55,56,2,1,2,1,2,1,2,1,2,1,2,1,2,1,2,
3,4,3,4,3,4,3,4,3,4,3,4,3,4,3,4,3,4,3,4,3,4,3,4,3,4,3,4,3,4,3,4,3,4,3,4,3,4,3,4,3,4,3,4,3,57,34,28,16,17,10,3,4,15,16,17,16,17,16,17,16,17,10,3,4,3,4,3,4,3,4,3,4,3,4,3,4,3,34,28,16,17,10,3,4,3,4,3,4,3,4,3,4,3,4,3,4,3,4,20,16,17,55,57,58,57,3,4,3,4,3,4,3,4,3,4,3,4,3,20,59,60,61,62,97,98,99,100,61,62,70,71,18,3,4,3,4,3,4,3,4,3,4,3,4,3,4,3,4,3,4,3,4,3,4,3,4,3,4,3,4,3,4,3,4,3,4,3,4,3,4,3,4,3,4,3,4,3,4,3,4,3,4,3,4,3,4,3,4,3,4,3,4,3,4,3,4,3,4,3,4,3,4,3,4,3,4,3,4,3,4,3,4,3,4,3,4,3,4,3,4,3,4,3,4,3,4,3,4,3,4,3,4,3,4,20,16,26,5,3,4,3,4,3,4,3,4,3,4,3,4,3,4,3,4,3,4,3,4,3,4,3,4,3,4,3,4,3,4,3,4,3,4,3,4,3,4,3,4,3,4,3,4,3,4,3,4,3,4,3,4,3,4,3,4,3,4,3,4,3,4,3,4,3,4,3,4,3,4,3,4,3,4,3,4,3,4,3,4,3,4,3,4,3,34,28,16,17,16,17,16,17,16,17,16,26,8,9,16,17,16,17,16,17,16,17,187,188,189,189,189,189,189,189,189,189,189,189,190,191,16,17,18,3,4,3,4,3,4,15,16,17,16,17,16,17,16,17,16,17,10,3,4,3,4,3,4,3,4,3,4,3,4,3,4,3,4,3,4,3,4,3,4,3,4,3,4,3,4,3,4,3,34,28,16,17,16,17,16,17,116,106,107,106,107,106,107,106,107,106,107,106,107,106,107,106,107,106,107,106,107,106,107,106,107,106,107,106,107,106,107,106,107,106,107,106,107,106,123,17,16,17,55,57,58,57,3,4,3,4,34,28,16,17,16,17,35,17,16,17,16,17,16,17,16,17,16,17,16,17,16,17,17,35,55,57,3,4,3,4,3,4,3,4,3,4,3,4,3,4,3,4,
1,2,1,2,1,2,1,2,1,2,1,2,1,2,1,2,1,2,1,2,1,2,1,2,1,2,1,2,1,2,1,2,1,2,1,2,1,2,1,2,1,2,1,2,1,2,1,11,12,13,21,2,1,6,12,13,12,30,31,32,33,13,21,2,1,2,1,2,1,2,1,2,1,2,1,2,1,2,1,19,12,13,21,2,1,2,1,2,1,2,1,2,1,2,1,2,1,2,1,11,54,55,56,2,1,2,1,2,1,2,1,2,1,2,1,2,1,2,1,6,46,47,48,49,91,92,101,102,48,49,52,53,7,2,1,2,1,2,1,2,1,2,1,2,1,2,1,2,1,2,1,2,1,2,1,2,1,2,1,2,1,2,1,2,1,2,1,2,1,2,1,2,1,2,1,2,1,2,1,2,1,2,1,2,1,2,1,2,1,2,1,2,1,2,1,2,1,2,1,2,1,2,1,2,1,2,1,2,1,2,1,2,1,2,1,2,1,2,1,2,1,2,1,2,1,2,1,2,1,2,1,2,1,2,1,6,12,13,14,2,1,2,1,2,1,2,1,2,1,2,1,2,1,2,1,2,1,2,1,2,1,2,1,2,1,2,1,2,1,2,1,2,1,2,1,2,1,2,1,2,1,2,1,2,1,2,1,2,1,2,1,2,1,2,1,2,1,2,1,2,1,2,1,2,1,2,1,2,1,2,1,2,1,2,1,2,1,2,1,2,1,2,1,2,1,6,12,13,12,13,12,13,12,13,12,13,12,13,12,13,12,13,12,13,12,183,192,189,189,189,189,189,189,189,189,189,189,189,189,193,12,13,7,2,1,2,1,2,1,11,12,13,12,13,12,13,12,13,12,13,14,2,1,2,1,2,1,2,1,2,1,2,1,2,1,2,1,2,1,2,1,2,1,2,1,2,1,2,1,2,1,2,1,11,12,13,12,13,12,13,113,114,113,114,113,114,113,114,113,114,113,114,113,114,113,114,113,114,113,114,113,114,113,114,113,114,113,114,113,114,113,114,113,114,113,114,111,117,12,13,54,55,56,2,1,2,1,2,1,2,1,6,12,13,54,55,42,43,44,45,68,69,28,29,12,13,12,13,54,55,44,45,68,69,56,2,1,2,1,2,1,2,1,2,1,2,1,2,1,2,1,2,
3,4,3,4,3,4,3,4,3,4,3,4,3,4,3,4,3,4,3,4,3,4,3,4,3,4,3,4,3,4,3,4,3,4,3,4,3,4,3,4,3,4,3,4,3,4,3,15,16,17,16,26,8,9,16,17,36,37,38,39,40,41,16,26,5,3,4,3,4,3,4,3,4,3,4,3,4,3,4,20,16,17,16,26,5,3,4,3,4,3,4,3,4,3,4,3,4,3,4,15,55,57,3,4,3,4,3,4,3,4,3,4,3,4,24,25,22,23,8,9,59,60,61,62,61,62,61,62,61,62,65,17,10,3,4,3,4,3,4,3,4,3,4,3,4,3,4,3,4,3,4,3,4,3,4,3,4,3,4,3,4,3,4,3,4,3,4,3,4,3,4,3,4,3,4,3,4,3,4,3,4,3,4,3,4,3,4,3,4,3,4,3,4,3,4,3,4,3,4,3,4,3,4,3,4,3,4,3,4,3,4,4,22,23,24,25,22,23,24,25,22,23,24,25,5,3,4,3,4,3,4,3,4,4,8,9,16,17,18,3,4,3,4,3,4,3,4,3,4,3,4,3,4,3,4,3,4,3,4,3,4,3,4,3,4,3,4,3,4,3,4,3,4,3,4,3,4,3,4,3,4,3,4,3,4,3,4,3,4,3,4,3,4,3,4,3,4,3,4,3,4,3,4,3,4,3,4,3,4,3,4,3,4,3,4,3,4,3,4,3,4,3,4,4,8,9,16,17,16,17,16,17,16,17,16,17,16,17,16,17,16,17,16,17,187,188,189,189,189,196,197,198,197,198,204,189,189,189,189,194,16,17,10,3,4,3,4,3,4,15,16,17,16,17,16,17,16,17,16,17,18,3,4,3,4,3,4,3,4,3,4,3,4,3,4,3,4,3,4,3,4,3,4,3,4,3,4,3,4,3,4,3,4,15,16,17,16,17,16,17,116,106,107,106,107,106,107,106,107,106,107,106,107,106,107,106,107,106,107,106,107,106,107,106,107,106,107,106,107,106,107,106,107,106,107,106,107,120,16,17,55,57,3,4,3,4,3,4,3,4,8,9,17,35,55,57,3,57,58,57,3,4,34,28,16,17,16,17,55,57,58,57,3,4,3,4,3,4,3,4,3,4,3,4,3,4,3,4,3,4,3,4,
1,2,1,2,1,2,1,2,1,2,1,2,1,2,1,2,1,2,1,2,1,2,1,2,1,2,1,2,1,2,1,2,1,2,1,2,1,2,1,2,1,2,1,2,1,2,1,19,12,13,12,13,12,13,12,13,46,47,48,49,66,67,12,13,14,2,1,2,1,2,1,2,1,2,1,2,1,2,1,11,12,13,12,13,14,2,1,2,1,2,1,2,1,2,1,2,125,2,1,27,56,2,1,2,1,2,1,2,1,2,1,2,1,6,12,13,12,13,12,30,48,49,48,49,48,49,48,49,52,53,54,55,56,2,1,2,1,2,1,2,1,2,1,2,1,2,1,2,1,2,1,2,1,2,1,2,1,2,1,2,1,2,1,2,1,2,1,2,1,2,1,2,1,2,1,2,1,2,1,2,1,2,1,2,1,2,1,2,1,2,1,2,1,2,1,2,1,2,1,2,1,2,1,2,1,2,1,2,1,2,1,27,28,29,12,13,12,13,12,13,12,13,12,13,21,2,1,2,125,2,1,2,1,6,12,13,12,13,7,2,1,2,1,2,1,2,1,2,1,2,1,2,1,2,1,2,1,2,1,2,1,2,1,2,1,2,1,2,1,2,1,2,1,2,1,2,1,2,1,2,1,2,1,2,1,2,1,2,1,2,1,2,1,2,1,2,1,2,1,2,1,2,1,2,1,2,1,2,1,2,1,2,1,2,1,2,1,2,1,2,1,2,1,11,12,13,12,13,12,13,12,13,12,13,12,13,12,183,184,185,184,185,184,185,192,189,189,189,189,193,54,55,28,29,201,202,189,189,189,193,12,13,21,2,1,2,1,2,1,11,12,13,12,13,12,13,12,13,12,13,7,2,1,2,1,2,1,2,1,2,1,2,1,2,1,2,1,2,1,2,1,2,1,2,1,2,1,2,1,2,1,2,1,19,12,13,12,13,12,13,122,114,113,114,113,114,113,114,113,114,113,114,113,114,113,114,113,114,113,114,113,114,113,114,113,114,113,114,113,114,113,114,113,114,113,114,111,117,12,13,14,2,1,2,1,2,1,2,1,6,54,55,44,45,56,2,1,2,1,2,1,2,1,6,12,13,54,55,56,2,1,2,1,2,1,2,1,2,1,2,1,2,1,2,1,2,1,2,1,2,1,2,
3,4,3,4,3,4,3,4,3,4,3,4,3,4,3,4,3,4,3,4,3,4,3,4,3,4,3,4,3,4,3,4,3,4,3,4,3,4,3,4,3,4,3,4,3,4,3,20,16,17,16,17,16,17,16,17,59,60,61,62,70,71,17,35,18,3,4,3,4,3,4,3,4,3,4,3,4,3,4,15,35,17,16,17,18,3,4,3,4,3,4,3,4,3,4,3,126,127,3,4,3,4,3,4,3,4,3,4,24,25,22,23,8,9,16,17,16,17,36,37,61,62,61,62,61,62,61,62,65,17,55,57,3,4,3,4,3,4,3,4,3,4,3,4,3,4,3,4,3,4,3,4,3,4,3,4,3,4,3,4,3,4,3,4,3,4,3,4,3,4,3,4,3,4,3,4,3,4,3,4,3,4,3,4,3,4,3,4,3,4,3,4,3,4,3,4,3,4,3,4,3,4,3,4,3,4,3,4,3,4,3,4,34,28,16,17,16,17,16,17,16,17,16,17,16,26,5,3,126,127,3,4,8,9,16,17,16,17,10,3,4,3,4,3,4,3,4,3,4,3,4,3,4,3,4,3,4,3,4,3,4,3,4,3,4,3,4,3,4,3,4,3,4,3,4,3,4,3,4,3,4,3,4,3,4,3,4,3,4,3,4,3,4,3,4,3,4,3,4,3,4,3,4,3,4,3,4,4,22,23,22,23,24,25,22,23,5,3,4,3,4,3,4,15,35,17,16,17,16,17,16,17,16,17,16,17,187,188,189,189,189,189,189,189,189,189,189,189,189,194,55,57,34,28,16,203,204,189,189,194,16,17,16,26,5,3,4,3,4,15,16,17,16,17,16,17,16,17,16,17,10,3,4,3,4,3,4,3,4,3,4,3,4,3,4,3,4,3,4,3,4,3,4,3,4,3,4,3,4,3,4,3,4,20,16,17,16,17,16,17,16,124,107,106,107,106,107,106,107,106,107,106,107,106,107,106,107,106,107,106,107,106,107,106,107,106,107,106,107,106,107,106,107,106,107,106,107,120,16,17,18,3,4,3,4,3,4,4,8,9,55,57,58,57,3,4,3,4,24,25,22,23,8,9,16,17,55,57,3,4,3,4,3,4,5,3,4,3,4,3,4,3,4,3,4,3,4,3,4,3,4,3,
1,2,1,2,1,2,1,2,1,2,1,2,1,2,1,2,1,2,1,2,1,2,1,2,1,2,1,2,1,2,1,2,1,2,1,2,1,2,1,2,1,2,1,2,1,2,1,11,12,30,31,32,31,32,31,32,48,49,48,49,66,67,54,55,56,2,1,2,1,2,1,2,1,2,1,2,1,2,1,27,28,29,12,13,21,2,1,2,1,2,1,2,1,2,1,2,1,2,1,2,125,2,1,2,1,2,1,6,12,13,12,13,12,13,12,13,12,30,48,49,48,49,50,51,50,51,52,53,54,55,56,2,1,2,1,2,1,2,1,2,1,2,1,2,1,2,1,2,1,2,1,2,1,2,1,2,1,2,1,2,1,2,1,2,1,2,1,2,1,2,1,2,1,2,1,2,1,2,1,2,1,2,1,2,1,2,1,2,1,2,1,2,1,2,1,2,1,2,1,2,1,2,1,2,1,2,1,2,1,2,1,2,1,19,12,13,12,13,12,103,111,112,104,13,12,13,7,2,125,2,1,19,12,103,111,112,104,13,21,2,1,2,1,2,1,2,1,2,1,2,1,2,1,2,1,2,1,2,1,2,1,2,1,2,1,2,1,2,1,2,1,2,1,2,1,2,1,2,1,2,1,2,1,2,1,2,1,2,1,2,1,2,1,2,1,2,1,2,1,2,1,2,1,2,1,2,1,6,12,13,12,13,12,13,12,13,21,2,1,2,1,2,1,27,28,29,12,13,12,13,12,13,12,13,12,13,201,202,189,189,189,189,189,189,189,189,189,189,195,13,7,2,1,27,28,29,199,189,189,213,186,13,12,13,14,2,1,2,1,11,54,55,44,45,28,29,12,13,12,13,14,2,1,2,1,2,1,2,1,2,1,2,1,2,1,2,1,2,1,2,1,2,1,2,1,2,1,2,1,2,1,2,1,27,28,29,12,13,12,13,12,13,122,114,113,114,113,114,113,114,113,114,113,114,113,114,113,114,113,114,113,114,113,114,113,114,113,114,113,114,113,114,113,114,113,114,111,121,12,13,7,2,1,2,1,2,1,27,42,43,56,2,1,2,1,2,1,6,12,13,12,13,12,13,12,13,7,2,1,2,1,2,1,6,21,2,1,2,1,2,1,2,1,2,1,2,1,2,1,2,1,2,
3,4,3,4,3,4,3,4,3,4,3,4,3,4,3,4,3,4,3,4,3,4,3,4,3,4,3,4,3,4,3,4,3,4,3,4,3,4,3,4,3,4,3,4,3,4,3,15,36,37,38,39,38,39,38,39,61,62,61,62,70,71,55,57,3,4,3,4,22,23,5,3,4,3,4,3,4,3,4,3,34,28,35,17,16,26,5,3,4,3,4,3,4,3,4,3,4,3,4,3,126,127,3,4,22,23,8,9,16,17,16,17,16,17,16,17,36,37,61,62,61,62,63,64,63,64,65,17,55,57,3,4,3,4,3,4,3,4,3,4,3,4,3,4,3,4,3,4,3,4,3,4,3,4,3,4,3,4,3,4,3,4,3,4,3,4,3,4,3,4,3,4,3,4,3,4,3,4,3,4,3,4,3,4,3,4,3,4,3,4,3,4,3,4,3,4,3,4,3,4,3,4,3,4,3,4,3,4,3,4,3,4,3,20,35,17,16,17,105,106,107,106,107,108,16,17,10,3,126,127,3,20,105,106,107,106,107,108,16,26,22,23,5,3,4,3,4,3,4,3,4,3,4,3,4,3,4,3,4,3,4,3,4,3,4,3,4,3,4,3,4,3,4,3,4,3,4,3,4,3,4,3,4,3,4,3,4,3,4,3,4,3,4,3,4,3,4,3,4,3,4,3,4,3,4,4,8,9,16,17,16,17,16,17,16,17,16,26,24,25,5,3,4,3,34,28,16,17,16,17,16,17,16,17,16,17,16,203,204,189,189,189,189,196,197,198,197,198,16,17,10,3,4,3,34,28,200,189,189,189,190,191,16,17,18,3,4,3,4,15,55,57,58,57,34,28,16,17,16,17,18,3,4,3,4,3,4,3,4,3,4,3,4,3,4,3,4,3,4,3,4,3,4,3,4,3,4,3,4,3,4,3,4,3,34,28,16,17,16,17,16,17,16,124,107,106,107,106,107,106,107,106,107,106,107,106,107,106,107,106,107,106,107,106,107,106,107,106,107,106,107,106,107,106,107,106,123,17,17,35,10,3,4,3,4,3,4,3,4,57,3,4,3,4,3,4,8,9,16,17,16,17,16,17,17,35,10,3,4,3,4,4,8,9,16,26,5,3,4,3,4,3,4,3,4,3,4,3,4,3,4,3,
1,2,1,2,1,2,1,2,1,2,1,2,1,2,1,2,1,2,1,2,1,2,1,2,1,2,1,2,1,2,1,2,1,2,1,2,1,2,1,2,1,2,1,2,1,2,1,6,46,47,48,49,48,49,48,49,48,49,48,49,66,67,21,2,1,2,1,6,12,13,21,2,1,2,1,2,1,2,1,2,1,27,42,43,44,45,56,2,125,2,1,2,1,2,1,2,1,2,125,2,1,2,1,6,12,13,12,13,54,55,44,45,68,69,28,29,46,47,48,49,66,67,12,132,133,134,135,13,14,2,1,2,1,2,1,2,1,2,1,2,1,2,1,2,1,2,1,2,1,2,1,2,1,2,1,2,1,2,1,2,1,2,1,2,1,2,1,2,1,2,1,2,1,2,1,2,1,2,1,2,1,2,1,2,1,2,1,2,1,2,1,2,1,2,1,2,1,2,1,2,1,2,1,2,1,2,1,2,1,2,1,2,1,27,28,29,12,13,113,114,113,114,113,114,104,13,21,2,1,2,1,11,113,114,113,114,113,114,111,112,104,13,21,2,1,2,1,2,1,2,1,2,1,2,1,2,1,2,1,2,1,2,1,2,1,2,1,2,1,2,1,2,1,2,1,2,1,2,1,2,1,2,1,2,1,2,1,2,1,2,1,2,1,2,1,2,1,2,1,2,1,2,1,2,1,27,42,43,44,45,28,29,12,13,12,13,12,13,12,13,21,2,1,2,1,6,12,13,54,55,42,43,44,45,28,29,12,13,201,202,189,189,195,13,54,55,28,29,54,55,56,2,1,2,1,6,199,189,189,189,189,193,12,13,7,2,1,2,1,27,56,2,1,2,1,6,12,13,12,13,21,2,1,2,1,2,1,2,1,2,1,2,1,2,1,2,1,2,1,2,1,2,1,2,1,2,1,2,1,2,1,2,1,2,1,27,28,29,12,13,12,13,12,13,113,114,113,114,113,114,113,114,113,114,111,114,111,114,111,114,113,114,113,114,113,114,113,114,113,114,113,114,113,114,111,117,12,13,54,55,56,2,1,2,1,2,1,2,1,2,1,2,1,2,1,11,12,13,12,13,12,13,12,13,54,55,56,2,1,2,1,6,12,13,54,55,56,2,1,2,1,2,1,2,1,2,1,2,1,2,1,2,
3,4,3,4,3,4,3,4,3,4,3,4,3,4,3,4,3,4,3,4,3,4,3,4,3,4,3,4,3,4,3,4,3,4,3,4,3,4,3,4,3,4,3,4,3,4,8,9,59,60,61,62,72,73,74,75,76,62,61,62,70,71,16,26,24,25,8,9,16,17,16,26,5,3,4,3,4,3,4,3,4,3,4,57,58,57,3,4,126,127,3,4,3,4,3,4,3,4,126,127,3,4,8,9,35,17,16,17,55,57,58,57,3,4,34,28,59,60,61,62,70,71,132,136,137,137,137,135,18,3,4,3,4,3,4,3,4,3,4,3,4,3,4,3,4,3,4,3,4,3,4,3,4,3,4,3,4,3,4,3,4,3,4,3,4,3,4,3,4,3,4,3,4,3,4,3,4,3,4,3,4,3,4,3,4,3,4,3,4,3,4,3,4,3,4,3,4,3,4,3,4,3,4,3,4,3,4,3,4,3,4,3,4,3,34,28,16,17,116,106,107,106,107,106,107,108,16,26,5,3,4,15,116,106,107,106,107,106,107,106,107,108,16,26,5,3,4,3,4,3,4,3,4,3,4,3,4,3,4,3,4,3,4,3,4,3,4,3,4,3,4,3,4,3,4,3,4,3,4,3,4,3,4,3,4,3,4,3,4,3,4,3,4,3,4,3,4,3,4,3,4,3,4,3,4,3,4,57,58,57,34,28,35,17,16,17,16,17,16,17,16,26,24,25,8,9,16,17,55,57,3,57,58,57,34,28,35,17,16,203,197,198,16,17,55,57,34,28,55,57,3,4,3,4,8,9,200,189,189,189,189,194,16,17,10,3,4,3,4,3,4,3,4,4,8,9,16,17,16,17,16,26,5,3,4,3,4,3,4,3,4,3,4,3,4,3,4,3,4,3,4,3,4,3,4,3,4,3,4,3,4,3,4,3,4,3,34,28,16,17,16,17,16,17,116,106,107,106,107,106,107,106,107,106,118,119,118,119,118,119,107,106,107,106,107,106,107,106,107,106,107,106,107,106,107,120,16,17,55,57,3,4,3,4,3,4,3,4,3,4,3,4,3,4,3,15,16,17,16,17,16,17,16,17,55,57,3,4,3,4,8,9,16,17,55,57,3,4,3,4,3,4,3,4,3,4,3,4,3,4,3,4,
1,2,1,2,1,2,1,2,1,2,1,2,1,2,1,2,1,2,1,2,1,2,1,2,1,2,1,2,1,2,1,2,1,2,1,2,1,2,1,2,1,2,1,2,1,19,12,30,48,49,77,78,79,80,81,82,83,49,48,49,66,67,12,13,12,13,12,13,12,13,12,13,14,2,1,2,1,2,1,2,1,2,1,2,125,2,1,2,1,2,125,2,1,2,1,2,1,2,1,2,1,27,42,43,44,45,68,69,56,2,1,2,1,2,1,6,109,110,50,51,52,53,138,137,137,137,137,140,7,2,1,2,1,2,1,2,1,2,1,2,1,2,1,2,1,2,1,2,1,2,1,2,1,2,1,2,1,2,1,2,1,2,1,2,1,2,1,2,1,2,1,2,1,2,1,2,1,2,1,2,1,2,1,2,1,2,1,2,1,2,1,2,1,2,1,2,1,2,1,2,1,2,1,2,1,2,1,2,1,2,1,2,125,2,1,19,12,13,122,114,111,114,111,114,111,121,12,13,21,2,1,6,113,114,113,114,113,114,113,114,113,114,104,13,14,2,1,2,1,2,1,2,1,2,1,2,1,2,1,2,1,2,1,2,1,2,1,2,1,2,1,2,1,2,1,2,1,2,1,2,1,2,1,2,1,2,1,2,1,2,1,2,1,2,1,2,1,2,1,2,1,2,1,2,1,2,1,2,1,2,1,27,68,69,28,29,12,13,12,13,12,13,12,13,12,13,12,13,14,2,1,2,1,2,1,27,42,43,44,45,42,43,44,45,56,2,1,27,56,2,1,2,1,19,12,183,192,189,189,189,195,13,12,13,21,2,1,2,1,2,1,2,1,6,12,13,12,13,12,13,12,13,21,2,1,2,1,2,1,2,1,2,1,2,1,2,1,2,1,2,1,2,1,2,1,2,1,2,1,2,1,2,1,2,1,2,1,27,42,43,28,29,12,13,113,114,113,114,113,114,113,114,111,121,12,103,111,112,104,13,122,114,113,114,113,114,113,114,113,114,113,114,113,114,111,117,54,55,56,2,1,2,1,2,1,2,1,2,1,2,1,2,1,2,1,19,12,13,54,55,44,45,68,69,56,2,1,2,1,6,12,13,12,13,14,2,1,2,1,2,1,2,1,2,1,2,1,2,1,2,1,2,
3,4,3,4,3,4,3,4,3,4,3,4,3,4,3,4,3,4,3,4,3,4,3,4,3,4,3,4,3,4,3,4,3,4,3,4,3,4,3,4,3,4,3,4,3,20,36,37,61,62,84,85,86,87,88,89,90,62,61,62,70,71,16,17,16,17,16,17,16,17,16,17,18,3,4,3,4,3,4,3,4,3,4,3,126,127,3,4,3,4,126,127,3,4,3,4,3,4,3,4,3,4,3,57,58,57,3,4,3,4,3,4,22,23,8,9,16,115,63,64,65,17,139,137,137,137,137,141,10,3,4,3,4,3,4,3,4,3,4,3,4,3,4,3,4,3,4,3,4,3,4,3,4,3,4,3,4,3,4,3,4,3,4,3,4,3,4,3,4,3,4,3,4,3,4,3,4,3,4,3,4,3,4,3,4,3,4,3,4,3,4,3,4,3,4,3,4,3,4,3,4,3,4,3,4,3,4,3,4,3,4,3,126,127,3,20,16,17,16,124,118,119,118,119,123,17,16,17,16,26,8,9,116,106,107,106,107,106,107,106,107,106,107,108,18,3,4,3,4,3,4,3,4,3,4,3,4,3,4,3,4,3,4,3,4,3,4,3,4,3,4,3,4,3,4,3,4,3,4,3,4,3,4,3,4,3,4,3,4,3,4,3,4,3,4,3,4,3,4,3,4,3,4,3,4,3,4,3,4,3,4,3,4,3,34,28,16,17,16,17,16,17,16,17,16,17,17,35,18,3,4,3,4,3,4,3,4,57,58,57,3,57,58,57,3,4,3,4,3,4,3,4,3,20,187,188,189,189,189,196,16,17,16,17,16,26,5,3,4,3,4,4,8,9,16,17,16,17,16,17,16,17,16,26,24,25,5,3,4,3,4,3,4,3,4,3,4,3,4,3,4,3,4,3,4,3,4,3,4,3,4,3,4,4,5,3,4,3,4,57,34,28,16,17,116,106,107,106,107,106,107,106,123,17,105,106,107,106,107,108,16,124,107,106,107,106,107,106,107,106,107,106,107,106,107,120,55,57,3,4,3,4,3,4,3,4,3,4,3,4,3,4,3,4,3,20,16,17,55,57,58,57,3,4,3,4,3,4,8,9,16,17,16,17,18,3,4,3,4,3,4,3,4,3,4,3,4,3,4,3,4,3,
1,2,1,2,1,2,1,2,1,2,1,2,1,2,1,2,1,2,1,2,1,2,1,2,1,2,1,2,1,2,1,2,1,2,1,2,1,2,1,2,1,2,1,2,1,6,46,47,48,49,91,92,93,94,95,96,48,49,48,49,52,53,12,13,12,13,12,13,12,13,12,13,7,2,1,2,1,2,1,2,1,2,1,2,1,2,1,2,1,2,1,2,1,2,1,2,1,2,1,2,1,2,1,2,1,2,1,2,1,2,1,6,12,132,133,134,133,134,133,134,133,134,136,137,137,137,137,140,14,2,1,2,1,2,1,2,1,2,1,2,1,2,1,2,1,2,1,2,1,2,1,2,1,2,1,2,1,2,1,2,1,2,1,2,1,2,1,2,1,2,1,2,1,2,1,2,1,2,1,2,1,2,1,2,1,2,1,2,1,2,1,2,1,2,1,2,1,2,1,2,1,2,1,2,1,2,1,2,1,2,1,2,125,2,1,11,12,13,12,13,12,30,33,13,12,13,12,13,12,13,12,13,122,114,111,114,111,114,111,114,111,114,111,121,21,2,1,2,1,2,1,2,1,2,1,2,1,2,1,2,1,2,1,2,1,2,1,2,1,2,1,2,1,2,1,2,1,2,1,2,1,2,1,2,1,2,1,2,1,2,1,2,1,2,1,2,1,2,1,2,1,2,1,2,1,2,1,2,1,2,1,2,1,2,1,27,28,29,12,13,12,13,12,13,12,13,54,55,56,2,1,2,1,2,1,2,1,2,1,2,1,2,1,2,1,2,1,2,1,2,1,2,1,11,199,189,189,189,189,193,12,13,12,13,12,13,21,2,1,2,1,27,28,29,12,13,12,13,12,13,12,183,186,13,12,13,21,2,1,2,1,2,1,2,1,2,1,2,1,2,1,2,1,2,1,2,1,2,1,2,1,2,1,19,21,2,1,2,1,2,1,11,12,13,122,114,111,114,113,114,111,117,12,13,113,114,113,114,111,117,12,13,113,114,113,114,113,114,113,114,113,114,113,114,111,121,14,2,1,2,1,2,1,2,1,2,1,2,1,2,1,2,1,2,1,11,12,13,14,2,1,2,1,2,1,2,1,6,12,13,12,13,12,13,7,2,1,2,1,2,1,2,1,2,1,2,1,2,1,2,1,2,
3,4,3,4,3,4,3,4,3,4,3,4,3,4,3,4,3,4,3,4,3,4,3,4,3,4,3,4,3,4,3,4,3,4,3,4,3,4,3,4,3,4,3,4,8,9,59,60,61,62,61,62,97,98,99,100,61,62,61,62,65,17,16,17,16,17,16,17,16,17,16,17,10,3,4,3,4,3,4,3,4,4,22,23,24,25,22,23,24,25,22,23,24,25,22,23,24,25,22,23,24,25,5,3,4,4,22,23,24,25,8,9,132,136,137,137,137,137,137,137,137,137,137,137,137,137,137,141,18,3,4,3,4,3,4,3,4,3,4,3,4,3,4,3,4,3,4,3,4,3,4,3,4,3,4,3,4,3,4,3,4,3,4,3,4,3,4,3,4,3,4,3,4,3,4,3,4,3,4,3,4,3,4,3,4,3,4,3,4,3,4,3,4,3,4,3,4,3,4,3,4,3,4,3,4,3,4,3,4,3,4,3,126,127,3,15,16,17,16,17,36,37,40,41,16,17,16,17,16,17,16,17,16,124,118,119,118,119,118,119,118,119,123,17,16,26,5,3,4,3,4,3,4,3,4,3,4,3,4,3,4,3,4,3,4,3,4,3,4,3,4,3,4,3,4,3,4,3,4,3,4,3,4,3,4,3,4,3,4,3,4,3,4,3,4,3,4,3,4,3,4,3,4,3,4,3,4,3,4,3,4,3,4,3,4,3,34,28,35,17,16,17,16,17,17,35,55,57,3,4,3,4,3,4,3,4,3,4,3,4,3,4,3,4,3,4,3,4,3,4,3,4,3,15,200,189,189,189,189,194,16,17,16,17,16,17,16,26,5,3,4,3,34,28,16,17,16,17,16,17,187,188,190,191,16,17,16,26,5,3,4,3,4,3,4,3,4,3,4,3,4,3,4,3,4,3,4,3,4,3,4,3,4,20,16,26,5,3,4,3,4,15,35,17,16,124,118,119,107,106,107,120,16,17,116,106,107,106,107,120,16,17,116,106,107,106,107,106,107,106,107,106,107,106,123,17,18,3,4,3,4,3,4,3,4,3,4,3,4,3,4,3,4,3,4,15,17,35,18,3,4,3,4,3,4,4,8,9,16,17,16,17,17,35,10,3,4,3,4,3,4,3,4,3,4,3,4,3,4,3,4,3,
1,2,1,2,1,2,1,2,1,2,1,2,1,2,1,2,1,2,1,2,1,2,1,2,1,2,1,2,1,2,1,2,1,2,1,2,1,2,1,2,1,2,1,19,12,13,46,47,48,49,48,49,91,92,101,102,48,49,66,67,12,13,12,13,12,13,12,13,12,13,12,13,14,2,1,2,1,2,1,2,1,6,12,13,12,13,12,13,12,13,12,13,12,13,12,13,12,13,12,13,12,13,21,2,1,6,12,132,133,134,133,134,136,137,137,137,137,137,137,137,137,137,137,137,137,137,137,140,21,2,1,2,1,2,1,2,1,2,1,2,1,2,1,2,1,2,1,2,1,2,1,2,1,2,1,2,1,2,1,2,1,2,1,2,1,2,1,2,1,2,1,2,1,2,1,2,1,2,1,2,1,2,1,2,1,2,1,2,1,2,1,2,1,2,1,2,1,2,1,2,1,2,1,2,1,2,1,2,1,2,125,2,1,2,1,6,12,13,12,30,48,49,50,51,31,32,33,13,12,13,12,13,54,55,44,45,42,43,68,69,44,45,28,29,12,13,14,2,1,2,1,2,1,2,1,2,1,2,1,2,1,2,1,2,1,2,1,2,1,2,1,2,1,2,1,2,1,2,1,2,1,2,1,2,1,2,1,2,1,2,1,2,1,2,1,2,1,2,1,2,1,2,1,2,1,2,1,2,1,2,1,2,1,2,1,2,1,27,42,43,44,45,28,29,54,55,56,2,1,2,1,2,1,2,1,2,1,2,1,2,1,2,1,2,1,2,1,2,1,2,1,2,1,19,199,189,189,189,189,193,12,13,12,13,12,13,12,13,21,2,1,2,1,6,12,13,12,13,12,183,192,189,189,193,12,13,12,13,21,2,1,2,1,2,1,2,1,2,1,2,1,2,1,2,1,2,1,2,1,2,1,2,1,6,12,13,21,2,1,2,1,2,28,29,12,13,12,13,122,114,113,114,104,13,122,114,111,114,111,121,12,103,113,114,113,114,113,114,113,114,113,114,111,121,12,13,7,2,1,2,1,2,1,2,1,2,1,2,1,2,1,2,1,2,1,19,54,55,56,2,1,2,1,2,1,6,12,13,12,13,12,13,54,55,56,2,1,2,1,2,1,2,1,2,1,2,1,2,1,2,1,2,
3,4,3,4,3,4,3,4,3,4,3,4,3,4,3,4,3,4,3,4,3,4,3,4,3,4,3,4,3,4,3,4,3,4,3,4,3,4,3,4,3,4,3,20,16,17,59,60,61,62,61,62,61,62,61,62,61,62,70,71,16,17,16,17,16,17,16,17,16,17,16,17,18,3,4,4,22,23,24,25,8,9,16,17,16,17,16,17,16,17,16,17,16,17,16,17,16,17,16,17,16,17,16,26,8,9,132,136,137,137,137,137,137,137,137,137,137,137,137,137,137,137,137,137,137,137,137,141,16,26,22,23,24,25,5,3,4,3,4,3,4,3,4,3,4,3,4,3,4,3,4,3,4,3,4,3,4,3,4,3,4,3,4,3,4,3,4,3,4,3,4,3,4,3,4,3,4,3,4,3,4,3,4,3,4,3,4,3,4,3,4,3,4,3,4,3,4,3,4,3,4,3,4,3,4,3,4,3,4,3,126,127,3,4,8,9,16,17,36,37,61,62,215,216,38,39,40,41,16,17,16,17,55,57,58,57,3,57,3,4,58,57,34,28,35,17,18,3,4,3,4,3,4,3,4,3,4,3,4,3,4,3,4,3,4,3,4,3,4,3,4,3,4,3,4,3,4,3,4,3,4,3,4,3,4,3,4,3,4,3,4,3,4,3,4,3,4,3,4,3,4,3,4,3,4,3,4,3,4,3,4,3,4,3,4,3,4,3,4,57,58,57,34,28,55,57,3,4,3,4,3,4,3,4,3,4,3,4,3,4,3,4,3,4,3,4,3,4,3,4,3,4,3,20,200,189,189,189,189,194,16,17,16,17,16,17,16,17,16,26,24,25,8,9,16,17,16,17,187,188,189,189,189,194,16,17,17,35,16,26,5,3,4,3,4,3,4,3,4,3,4,3,4,3,4,3,4,3,4,4,22,23,8,9,16,17,16,26,5,3,4,3,34,28,16,17,16,17,16,124,107,106,107,108,16,124,118,119,123,17,105,106,107,106,107,106,107,106,107,106,107,106,123,17,16,17,10,3,4,3,4,3,4,3,4,3,4,3,4,3,4,3,4,3,4,20,55,57,3,4,3,4,3,4,8,9,16,17,16,17,16,17,55,57,3,4,3,4,3,4,3,4,3,4,3,4,3,4,3,4,3,4,
1,2,1,2,1,2,1,2,1,2,1,2,1,2,1,2,1,2,1,2,1,2,1,2,1,2,1,2,1,2,1,2,1,2,1,2,1,2,1,2,1,2,1,11,12,13,109,110,50,51,50,51,50,51,50,51,50,51,52,53,12,13,12,30,31,32,33,13,12,13,12,13,21,2,1,6,12,13,12,13,12,30,31,32,31,32,31,32,31,32,33,13,12,13,12,13,12,13,12,13,12,13,12,13,12,13,138,137,137,137,137,137,137,137,137,137,137,137,137,137,137,137,137,137,137,137,137,137,133,134,133,134,135,13,21,2,1,2,1,2,1,2,1,2,1,2,1,2,1,2,1,2,1,2,1,2,1,2,1,2,1,2,1,2,1,2,1,2,1,2,1,2,1,2,1,2,1,2,1,2,1,2,1,2,1,2,1,2,1,2,1,2,1,2,1,2,1,2,1,2,1,2,1,2,1,2,1,2,1,2,1,2,1,6,12,13,12,13,46,47,52,217,218,218,219,110,66,67,12,13,12,13,14,2,125,2,1,2,1,2,1,2,1,27,28,29,7,2,125,2,1,2,1,2,1,2,1,2,1,2,1,2,1,2,1,2,1,2,1,2,1,2,1,2,1,2,1,2,1,2,1,2,1,2,1,2,1,2,1,2,1,2,1,2,1,2,1,2,1,2,1,2,1,2,1,2,1,2,1,2,1,2,1,2,1,2,1,2,1,2,1,2,1,27,56,2,1,2,1,2,1,2,1,2,1,2,1,2,1,2,1,2,1,2,1,2,1,2,1,2,1,2,1,11,199,189,189,189,189,193,12,13,12,13,12,13,12,183,186,13,12,13,12,13,12,13,12,183,192,189,189,189,189,193,54,55,44,45,68,69,56,2,1,2,1,2,1,2,1,2,1,2,1,2,1,2,1,2,1,6,12,13,12,103,111,112,104,13,21,2,1,2,1,27,28,29,12,13,12,13,113,114,113,114,111,112,111,112,111,112,113,114,111,114,111,114,111,114,111,114,111,121,12,13,12,13,14,2,1,2,1,2,1,2,1,2,1,2,1,2,1,2,1,2,1,27,56,2,1,2,1,2,1,19,12,13,12,30,33,13,12,13,14,2,1,2,1,2,1,2,1,2,1,2,1,2,1,2,1,2,1,2,
3,4,3,4,3,4,3,4,3,4,3,4,3,4,3,4,3,4,3,4,3,4,3,4,3,4,3,4,3,4,3,4,3,4,3,4,3,4,3,4,3,4,3,15,16,17,16,115,63,64,63,64,63,64,63,64,63,64,65,17,16,17,36,37,38,39,40,41,16,17,16,17,16,26,8,220,221,222,223,17,36,37,38,39,38,39,38,39,38,39,40,41,16,17,16,17,16,17,16,17,16,17,16,17,16,17,139,137,137,137,137,137,137,137,137,137,137,137,137,137,137,137,137,137,137,137,137,137,137,137,137,137,137,135,16,26,3,4,3,4,3,4,3,4,3,4,3,4,3,4,3,4,3,4,3,4,3,4,3,4,3,4,3,4,3,4,3,4,3,4,3,4,3,4,3,4,3,4,3,4,3,4,3,4,3,4,3,4,3,4,3,4,3,4,3,4,3,4,3,4,3,4,3,4,3,4,3,4,22,23,24,25,8,9,16,17,16,17,59,60,224,218,218,218,218,225,70,71,16,17,17,35,18,3,126,127,3,4,3,4,3,4,3,4,34,28,10,3,126,127,3,4,3,4,3,4,3,4,3,4,3,4,3,4,3,4,3,4,3,4,3,4,3,4,3,4,3,4,3,4,3,4,3,4,3,4,3,4,3,4,3,4,3,4,3,4,3,4,3,4,3,4,3,4,3,4,3,4,3,4,3,4,3,4,3,4,3,4,3,4,3,4,3,4,3,4,3,4,3,4,3,4,3,4,3,4,3,4,3,4,3,4,3,4,3,4,3,4,3,4,3,4,3,15,200,189,189,189,189,194,16,17,16,17,16,17,187,188,190,191,16,17,16,17,16,17,187,188,189,189,189,189,189,194,55,57,58,57,3,4,3,4,3,4,3,4,3,4,3,4,3,4,3,4,3,4,3,4,8,9,16,17,105,106,107,106,107,108,16,26,5,3,4,3,34,28,16,17,16,17,116,106,107,106,107,106,107,106,107,106,107,106,118,119,118,119,118,119,118,119,123,17,16,17,16,17,18,3,4,3,4,3,4,3,4,3,4,3,4,3,4,3,4,3,4,3,4,3,4,3,4,3,4,20,16,17,36,37,40,41,16,17,18,3,4,3,4,3,4,3,4,3,4,3,4,3,4,3,4,3,4,3,
1,2,1,2,1,2,1,2,1,2,1,2,1,2,1,2,1,2,1,2,1,2,1,2,1,2,1,2,1,2,1,2,1,2,1,2,1,2,1,2,1,2,1,19,12,13,12,13,54,55,44,45,28,29,12,13,12,13,12,13,12,30,48,49,48,49,48,49,31,32,31,32,31,32,31,226,227,228,229,32,48,49,48,49,48,49,48,49,48,49,48,49,31,32,31,32,33,13,12,13,12,13,12,13,12,132,136,137,137,137,137,137,137,137,137,137,137,137,137,137,137,137,137,137,137,137,137,137,137,137,137,137,154,182,54,55,1,2,1,2,1,2,1,2,1,2,1,2,1,2,1,2,1,2,1,2,1,2,1,2,1,2,1,2,1,2,1,2,1,2,1,2,1,2,1,2,1,2,1,2,1,2,1,2,1,2,1,2,1,2,1,2,1,2,1,2,1,2,1,2,1,2,1,2,1,2,1,6,12,13,12,103,111,112,104,13,12,30,66,230,218,218,218,218,218,218,231,47,33,13,54,55,56,2,125,2,1,2,125,2,1,2,1,2,1,27,56,2,1,2,125,2,1,2,1,2,1,2,1,2,1,2,1,2,1,2,1,2,1,2,1,2,1,2,1,2,1,2,1,2,1,2,1,2,1,2,1,2,1,2,1,2,1,2,1,2,1,2,1,2,1,2,1,2,1,2,1,2,1,2,1,2,1,2,1,2,1,2,1,2,1,2,1,2,1,2,1,2,1,2,1,2,1,2,1,2,1,2,1,2,1,2,1,2,1,2,1,2,1,2,1,2,1,19,199,189,189,189,189,213,184,185,184,185,184,185,192,189,189,213,184,185,184,185,184,185,192,189,189,189,189,189,195,13,14,2,1,2,1,2,1,2,1,2,1,2,1,2,1,2,1,2,1,2,1,2,1,6,12,13,12,103,113,114,113,114,111,117,12,13,7,2,1,2,1,11,12,13,12,13,122,114,111,114,111,114,111,114,111,114,111,121,12,13,12,13,12,13,12,13,12,13,12,13,54,55,56,2,1,2,1,2,1,2,1,2,1,2,1,2,1,2,1,2,1,2,1,2,1,2,1,2,1,11,12,13,46,47,66,67,12,13,7,2,1,2,1,2,1,2,1,2,1,2,1,2,1,2,1,2,1,2,
3,4,3,4,3,4,3,4,3,4,3,4,3,4,3,4,3,4,3,4,3,4,3,4,3,4,3,4,3,4,3,4,3,4,3,4,3,4,3,4,3,4,3,20,16,17,16,17,55,57,58,57,34,28,16,17,16,17,16,17,36,37,61,62,61,62,61,62,38,39,38,39,38,39,38,232,233,234,235,39,61,62,61,62,61,62,61,62,61,62,61,62,38,39,38,39,40,41,16,17,16,17,16,17,132,136,137,137,137,137,137,137,137,137,137,137,137,137,137,137,137,137,137,137,137,137,137,137,137,154,148,149,182,17,55,57,3,4,3,4,3,4,3,4,3,4,3,4,3,4,3,4,3,4,3,4,3,4,3,4,3,4,3,4,3,4,3,4,3,4,3,4,3,4,3,4,3,4,3,4,3,4,3,4,3,4,3,4,3,4,3,4,3,4,3,4,3,4,3,4,3,4,3,4,22,23,8,9,16,17,105,106,107,106,107,108,36,37,70,236,218,218,218,218,218,218,59,60,40,41,55,57,3,4,126,127,3,4,126,127,3,4,3,4,3,4,3,4,3,4,126,127,3,4,3,4,3,4,3,4,3,4,3,4,3,4,3,4,3,4,3,4,3,4,3,4,3,4,3,4,3,4,3,4,3,4,3,4,3,4,3,4,3,4,3,4,3,4,3,4,3,4,3,4,3,4,3,4,3,4,3,4,3,4,3,4,3,4,3,4,3,4,3,4,3,4,3,4,3,4,3,4,3,4,3,4,3,4,3,4,3,4,3,4,3,4,3,4,3,4,3,4,3,20,200,189,189,189,189,189,189,189,189,189,189,189,189,189,189,189,189,189,189,189,189,189,189,189,189,189,189,196,16,17,18,3,4,3,4,3,4,3,4,3,4,3,4,3,4,3,4,3,4,3,4,4,8,9,16,17,105,106,107,106,107,106,107,120,16,17,10,3,4,3,4,15,35,17,16,17,16,124,118,119,118,119,118,119,118,119,123,17,16,17,16,17,16,17,16,17,16,17,16,17,55,57,3,4,3,4,3,4,3,4,3,4,3,4,3,4,3,4,3,4,3,4,3,4,3,4,3,4,3,15,16,17,59,60,70,71,17,35,10,3,4,3,4,3,4,3,4,3,4,3,4,3,4,3,4,3,4,3,
1,2,1,2,1,2,1,2,1,2,1,2,1,2,1,2,1,2,1,2,1,2,1,2,1,2,1,2,1,2,1,2,1,2,1,2,1,2,1,2,1,2,1,11,12,13,12,13,7,2,1,2,1,19,12,13,12,30,31,32,48,49,48,49,48,49,48,49,48,49,48,49,50,51,50,237,238,239,240,51,50,51,50,51,48,49,48,49,48,49,48,49,48,49,48,49,48,49,33,13,12,13,12,13,138,137,137,137,137,137,137,137,137,137,137,137,137,137,137,137,137,137,137,137,137,137,137,137,154,182,54,55,44,45,56,2,1,2,1,2,1,2,1,2,1,2,1,2,1,2,1,2,1,2,1,2,1,2,1,2,1,2,1,2,1,2,1,2,1,2,1,2,1,2,1,2,1,2,1,2,1,2,1,2,1,2,1,2,1,2,1,2,1,2,1,2,1,2,1,2,1,2,1,27,28,29,12,13,12,103,113,114,113,114,111,117,109,110,48,49,241,218,218,218,218,242,48,49,52,53,21,2,1,2,1,2,1,2,1,2,125,2,1,2,1,2,1,2,1,2,1,2,1,2,1,2,1,2,1,2,1,2,1,2,1,2,1,2,1,2,1,2,1,2,1,2,1,2,1,2,1,2,1,2,1,2,1,2,1,2,1,2,1,2,1,2,1,2,1,2,1,2,1,2,1,2,1,2,1,2,1,2,1,2,1,2,1,2,1,2,1,2,1,2,1,2,1,2,1,2,1,2,1,2,1,2,1,2,1,2,1,2,1,2,1,2,1,2,1,2,1,2,1,11,201,202,189,189,189,189,189,189,189,189,189,189,189,189,189,189,189,189,189,189,189,189,189,189,189,189,189,193,12,13,7,2,1,2,1,2,1,2,1,2,1,2,1,2,1,2,1,2,1,2,1,11,12,13,12,103,113,114,113,114,113,114,113,114,104,13,21,2,1,2,1,27,28,29,12,13,12,13,12,13,12,13,12,13,12,13,12,13,12,13,12,13,12,13,12,13,54,55,44,45,56,2,1,2,1,2,1,2,1,2,1,2,1,2,1,2,1,2,1,2,1,2,1,2,1,2,1,2,1,6,12,30,48,49,66,67,54,55,56,2,1,2,1,2,1,2,1,2,1,2,1,2,1,2,1,2,1,2,
3,4,3,4,3,4,3,4,3,4,3,4,3,4,3,4,3,4,3,4,3,4,3,4,3,4,3,4,3,4,3,4,3,4,3,4,3,4,3,4,3,4,3,15,35,17,17,35,10,3,4,3,4,20,16,17,36,37,38,39,61,62,61,62,61,62,61,62,61,62,61,62,215,216,215,232,233,234,235,216,215,216,215,216,61,62,61,62,61,62,61,62,61,62,61,62,61,62,40,41,16,17,16,17,139,137,137,137,137,137,137,154,148,149,148,149,147,137,137,137,137,137,137,137,137,137,137,154,182,17,55,57,58,57,3,4,3,4,3,4,3,4,3,4,3,4,3,4,3,4,3,4,3,4,3,4,3,4,3,4,3,4,3,4,3,4,3,4,3,4,3,4,3,4,3,4,3,4,3,4,3,4,3,4,3,4,3,4,3,4,3,4,3,4,3,4,3,4,3,4,3,4,3,4,34,28,35,17,105,106,107,106,107,106,107,120,16,115,61,62,40,243,218,218,244,37,61,62,65,17,16,26,5,3,4,3,4,4,5,3,126,127,3,4,3,4,22,23,24,25,22,23,24,25,5,3,4,3,4,3,4,3,4,3,4,3,4,3,4,3,4,3,4,3,4,3,4,3,4,3,4,3,4,3,4,3,4,3,4,3,4,3,4,3,4,3,4,3,4,3,4,3,4,3,4,3,4,3,4,3,4,3,4,3,4,3,4,3,4,3,4,3,4,3,4,3,4,3,4,3,4,3,4,3,4,3,4,3,4,3,4,3,4,3,4,3,4,3,4,3,4,3,4,15,16,203,204,189,189,189,189,189,189,189,189,189,189,189,189,189,189,189,189,189,189,189,189,189,189,189,189,194,17,35,10,3,4,3,4,3,4,3,4,3,4,3,4,3,4,3,4,3,4,3,4,15,16,17,105,106,107,106,107,106,107,106,107,106,107,108,16,26,5,3,4,3,34,28,16,17,16,17,16,17,16,17,16,17,16,17,16,17,16,17,16,17,16,17,17,35,55,57,58,57,3,4,3,4,3,4,3,4,3,4,3,4,3,4,3,4,3,4,3,4,3,4,24,25,22,23,24,25,8,9,36,37,61,62,70,71,55,57,3,4,3,4,3,4,3,4,3,4,3,4,3,4,3,4,3,4,3,4,
1,2,1,2,1,2,1,2,1,2,1,2,1,2,1,2,1,2,1,2,1,2,1,2,1,2,1,2,1,2,1,2,1,2,1,2,1,2,1,2,1,2,1,27,28,29,54,55,56,2,1,2,1,11,12,13,46,47,48,49,48,49,48,49,48,49,48,49,48,49,52,217,218,218,218,237,238,239,240,218,218,218,218,218,219,110,48,49,48,49,48,49,48,49,48,49,48,49,48,49,33,13,12,13,138,137,137,137,137,137,137,140,12,30,33,13,146,147,137,137,137,137,137,137,137,137,154,182,54,55,56,2,1,2,1,2,1,2,1,2,1,2,1,2,1,2,1,2,1,2,1,2,1,2,1,2,1,2,1,2,1,2,1,2,1,2,1,2,1,2,1,2,1,2,1,2,1,2,1,2,1,2,1,2,1,2,1,2,1,2,1,2,1,2,1,2,1,2,1,2,1,2,1,2,1,27,28,29,122,114,113,114,113,114,111,121,12,13,109,110,50,51,245,246,48,49,52,53,12,103,104,13,21,2,1,2,1,6,21,2,1,2,1,2,1,6,12,103,104,13,12,13,54,55,56,2,1,2,1,2,1,2,1,2,1,2,1,2,1,2,1,2,1,2,1,2,1,2,1,2,1,2,1,2,1,2,1,2,1,2,1,2,1,2,1,2,1,2,1,2,1,2,1,2,1,2,1,2,1,2,1,2,1,2,1,2,1,2,1,2,1,2,1,2,1,2,1,2,1,2,1,2,1,2,1,2,1,2,1,2,1,2,1,2,1,2,1,2,1,2,1,2,1,27,28,29,201,202,189,189,189,189,189,189,189,189,189,189,189,189,189,189,189,189,189,189,189,189,189,189,195,13,54,55,56,2,1,2,1,2,1,2,1,2,1,2,1,2,1,2,1,2,1,2,1,11,12,13,113,114,113,114,113,114,113,114,113,114,111,117,12,13,14,2,1,2,1,27,28,29,54,55,42,43,44,45,68,69,42,43,44,45,68,69,42,43,44,45,68,69,56,2,1,2,1,2,1,2,1,2,1,2,1,2,1,2,1,2,1,2,1,2,1,2,1,6,12,13,12,13,12,13,12,13,46,47,48,49,52,53,21,2,1,2,1,2,1,2,1,2,1,2,1,2,1,2,1,2,1,2,1,2,
3,4,3,4,3,4,3,4,3,4,3,4,3,4,3,4,3,4,3,4,3,4,3,4,3,4,3,4,3,4,3,4,3,4,3,4,3,4,3,4,3,4,3,4,34,28,55,57,3,4,3,4,3,15,16,17,59,60,61,62,61,62,61,62,61,62,61,62,61,62,224,218,218,218,218,232,233,234,235,218,218,218,218,218,218,225,61,62,61,62,61,62,61,62,61,62,61,62,61,62,40,41,16,17,139,137,137,137,137,137,137,141,36,37,40,41,16,146,148,149,148,149,147,137,137,154,182,17,55,57,3,4,3,4,3,4,3,4,3,4,3,4,3,4,3,4,3,4,3,4,3,4,3,4,3,4,3,4,3,4,3,4,3,4,3,4,3,4,3,4,3,4,3,4,3,4,3,4,3,4,3,4,3,4,3,4,3,4,3,4,3,4,3,4,3,4,3,4,3,4,3,4,3,4,3,4,34,28,16,124,107,106,107,106,123,17,16,17,16,115,63,64,38,39,61,62,65,17,105,106,107,108,16,26,22,23,8,9,16,26,5,3,4,4,8,9,105,106,107,108,17,35,55,57,3,4,3,4,3,4,3,4,3,4,3,4,3,4,3,4,3,4,3,4,3,4,3,4,3,4,3,4,3,4,3,4,3,4,3,4,3,4,3,4,3,4,3,4,3,4,3,4,3,4,3,4,3,4,3,4,3,4,3,4,3,4,3,4,3,4,3,4,3,4,3,4,3,4,3,4,3,4,3,4,3,4,3,4,3,4,3,4,3,4,3,4,3,4,3,4,3,4,3,4,34,28,16,203,197,198,197,198,197,198,204,189,189,189,189,189,189,189,189,189,189,189,189,196,197,198,16,17,55,57,3,4,3,4,3,4,3,4,3,4,3,4,3,4,3,4,3,4,3,4,3,15,16,17,116,106,107,106,107,106,107,106,107,106,107,120,16,17,18,3,4,3,4,3,34,28,55,57,3,57,58,57,3,4,3,57,58,57,3,4,3,57,58,57,3,4,3,4,3,4,3,4,3,4,3,4,3,4,3,4,3,4,3,4,3,4,3,4,3,4,8,9,16,17,16,17,16,17,16,17,59,60,61,62,65,17,16,26,5,3,4,3,4,3,4,3,4,3,4,3,4,3,4,3,4,3,4,3,
1,2,1,2,1,2,1,2,1,2,1,2,1,2,1,2,1,2,1,2,1,2,1,2,1,2,1,2,1,2,1,2,1,2,1,2,1,2,1,2,1,2,1,2,1,27,56,2,1,2,125,2,1,19,12,13,109,110,48,49,48,49,48,49,48,49,48,49,52,217,218,218,218,218,218,237,238,239,240,218,218,218,218,218,218,218,219,110,48,49,48,49,48,49,48,49,48,49,48,49,66,67,12,13,138,137,137,137,137,137,137,140,46,47,48,49,31,32,31,32,33,13,146,147,154,182,54,55,56,2,1,2,1,2,1,2,1,2,1,2,1,2,1,2,1,2,1,2,1,2,1,2,1,2,1,2,1,2,1,2,1,2,1,2,1,2,1,2,1,2,1,2,1,2,1,2,1,2,1,2,1,2,1,2,1,2,1,2,1,2,1,2,1,2,1,2,1,2,1,2,1,2,1,2,1,2,1,19,12,13,122,114,111,121,12,13,12,13,212,211,12,13,109,110,52,53,12,103,113,114,113,114,104,13,12,13,12,13,12,13,21,2,1,6,12,103,113,114,111,121,54,55,56,2,1,2,1,2,1,2,1,2,1,2,1,2,1,2,1,2,1,2,1,2,1,2,1,2,1,2,1,2,1,2,1,2,1,2,1,2,1,2,1,2,1,2,1,2,1,2,1,2,1,2,1,2,1,2,1,2,1,2,1,2,1,2,1,2,1,2,1,2,1,2,1,2,1,2,1,2,1,2,1,2,1,2,1,2,1,2,1,2,1,2,1,2,1,2,1,2,1,2,1,2,1,27,42,43,44,45,68,69,28,29,201,202,189,189,189,189,189,189,189,189,189,189,195,13,54,55,44,45,56,2,1,2,1,2,1,2,1,2,1,2,1,2,1,2,1,2,1,2,1,2,1,6,12,103,113,114,113,114,113,114,113,114,113,114,111,117,12,13,7,2,1,2,1,2,1,27,56,2,1,2,1,2,1,2,1,2,1,2,1,2,1,2,1,2,1,2,1,2,1,2,1,2,1,2,1,2,1,2,1,2,1,2,1,2,1,2,1,2,1,27,28,29,12,13,12,13,12,13,12,30,48,49,66,67,12,13,12,13,14,2,1,2,1,2,1,2,1,2,1,2,1,2,1,2,1,2,1,2,
3,4,3,4,3,4,3,4,3,4,3,4,3,4,3,4,3,4,3,4,3,4,3,4,3,4,3,4,3,4,3,4,3,4,3,4,3,4,3,4,3,4,3,4,3,4,3,4,3,4,126,127,3,20,16,17,16,115,61,62,61,62,61,62,61,62,61,62,224,218,218,218,218,218,218,232,233,234,235,218,218,218,218,218,218,218,218,225,61,62,61,62,61,62,61,62,61,62,61,62,70,71,16,17,139,137,137,137,137,137,137,141,59,60,61,62,38,39,38,39,40,41,16,146,182,17,55,57,3,4,3,4,3,4,3,4,3,4,3,4,3,4,3,4,3,4,3,4,3,4,3,4,3,4,3,4,3,4,3,4,3,4,3,4,3,4,3,4,3,4,3,4,3,4,3,4,3,4,3,4,3,4,3,4,3,4,3,4,3,4,3,4,3,4,3,4,3,4,3,4,3,4,3,4,3,4,3,20,35,17,16,124,123,17,16,17,16,17,211,209,16,17,16,115,65,17,105,106,107,106,107,106,107,108,16,17,16,17,16,17,16,26,8,9,105,106,107,106,123,17,55,57,3,4,3,4,3,4,3,4,3,4,3,4,3,4,3,4,3,4,3,4,3,4,3,4,3,4,3,4,3,4,3,4,3,4,3,4,3,4,3,4,3,4,3,4,3,4,3,4,3,4,3,4,3,4,3,4,3,4,3,4,3,4,3,4,3,4,3,4,3,4,3,4,3,4,3,4,3,4,3,4,3,4,3,4,3,4,3,4,3,4,3,4,3,4,3,4,3,4,3,4,3,4,3,4,3,57,58,57,3,4,34,28,16,203,204,189,189,189,189,189,189,189,189,196,16,17,55,57,58,57,3,4,3,4,3,4,3,4,3,4,3,4,3,4,3,4,3,4,3,4,22,23,8,9,105,106,107,106,107,106,107,106,107,106,107,106,107,120,16,17,10,3,4,3,4,3,4,3,4,3,4,3,4,3,4,3,4,3,4,3,4,3,4,3,4,3,4,3,4,3,4,3,4,3,4,3,4,3,4,3,4,3,4,3,4,3,4,3,4,3,4,3,34,28,35,17,16,17,16,17,36,37,61,62,70,71,16,17,16,17,18,3,4,3,4,3,4,3,4,3,4,3,4,3,4,3,4,3,4,3,
1,2,1,2,1,2,1,2,1,2,1,2,1,2,1,2,1,2,1,2,1,2,1,2,1,2,1,2,1,2,1,2,1,2,1,2,1,2,1,2,1,2,1,2,1,2,125,2,1,2,1,2,1,11,12,13,12,13,109,110,48,49,48,49,48,49,66,230,218,218,218,218,218,247,221,237,238,239,240,218,218,218,218,218,218,218,218,218,231,47,48,49,48,49,48,49,48,49,48,49,66,67,12,132,136,137,137,137,137,137,137,140,46,47,48,49,48,49,48,49,48,49,33,13,54,55,56,2,1,2,1,2,1,2,1,2,1,2,1,2,1,2,1,2,1,2,1,2,1,2,1,2,1,2,1,2,1,2,1,2,1,2,1,2,1,2,1,2,1,2,1,2,1,2,1,2,1,2,1,2,1,2,1,2,1,2,1,2,1,2,1,2,1,2,1,2,1,2,1,2,1,2,1,2,1,2,1,27,28,29,12,13,12,13,12,13,12,13,12,13,209,210,12,103,111,112,113,114,111,114,111,114,111,121,12,13,12,13,12,13,12,13,12,13,122,114,111,121,54,55,56,2,1,2,1,2,1,2,1,2,1,2,1,2,1,2,1,2,1,2,1,2,1,2,1,2,1,2,1,2,1,2,1,2,1,2,1,2,1,2,1,2,1,2,1,2,1,2,1,2,1,2,1,2,1,2,1,2,1,2,1,2,1,2,1,2,1,2,1,2,1,2,1,2,1,2,1,2,1,2,1,2,1,2,1,2,1,2,1,2,1,2,1,2,1,2,1,2,1,2,1,2,1,2,1,2,1,2,1,2,1,2,1,27,28,29,201,202,189,189,189,189,189,189,189,193,54,55,56,2,1,2,1,2,1,2,1,2,1,2,1,2,1,2,1,2,1,2,1,2,1,6,12,13,12,103,113,114,113,114,113,114,113,114,113,114,113,114,111,121,12,13,21,2,1,2,1,2,1,2,1,2,1,2,1,2,1,2,1,2,1,2,1,2,1,2,1,2,1,2,1,2,1,2,1,2,1,2,1,2,1,2,1,2,1,2,1,2,1,2,1,2,1,2,1,19,12,13,12,13,12,13,46,47,48,49,66,67,12,13,12,13,7,2,1,2,1,2,1,2,1,2,1,2,1,2,1,2,1,2,1,2,
3,4,3,4,3,4,3,4,3,4,3,4,3,4,3,4,3,4,3,4,3,4,3,4,3,4,3,4,3,4,3,4,3,4,3,4,3,4,3,4,3,4,3,4,3,4,126,127,3,4,3,4,3,15,16,17,16,17,16,115,61,62,61,62,61,62,70,236,218,218,218,218,218,226,227,232,233,234,235,218,218,218,218,218,218,218,218,218,59,60,61,62,61,62,61,62,61,62,61,62,70,71,132,136,137,137,137,137,137,137,137,141,59,60,61,62,72,73,74,75,76,62,40,41,55,57,3,4,3,4,3,4,3,4,3,4,3,4,3,4,3,4,3,4,3,4,3,4,3,4,3,4,3,4,3,4,3,4,3,4,3,4,3,4,3,4,3,4,3,4,3,4,3,4,3,4,3,4,3,4,3,4,3,4,3,4,3,4,3,4,3,4,3,4,3,4,3,4,3,4,3,4,3,4,3,4,3,4,34,28,16,17,16,17,16,17,16,17,16,17,211,17,105,106,107,106,107,106,118,119,118,119,123,17,16,17,16,17,16,17,16,17,16,17,16,124,123,17,55,57,3,4,3,4,3,4,3,4,3,4,3,4,3,4,3,4,3,4,3,4,3,4,3,4,3,4,3,4,3,4,3,4,3,4,3,4,3,4,3,4,3,4,3,4,3,4,3,4,3,4,3,4,3,4,3,4,3,4,3,4,3,4,3,4,3,4,3,4,3,4,3,4,3,4,3,4,3,4,3,4,3,4,3,4,3,4,3,4,3,4,3,4,3,4,3,4,3,4,3,4,3,4,3,4,3,4,3,4,3,4,3,4,3,4,34,28,16,203,197,198,197,198,204,189,189,194,55,57,3,4,3,4,3,4,3,4,3,4,3,4,3,4,3,4,3,4,3,4,22,23,8,9,16,17,105,106,107,106,107,106,107,106,107,106,107,106,107,106,123,17,16,17,16,26,5,3,4,3,4,3,4,3,4,3,4,3,4,3,4,3,4,3,4,3,4,3,4,3,4,3,4,3,4,3,4,3,4,3,4,3,4,3,4,3,4,3,4,3,4,3,4,3,4,3,4,20,16,17,16,17,16,17,59,60,61,62,70,71,16,17,16,17,10,3,4,3,4,3,4,3,4,3,4,3,4,3,4,3,4,3,4,3,
1,2,1,2,1,2,1,2,1,2,1,2,1,2,1,2,1,2,1,2,1,2,1,2,1,2,1,2,1,2,1,2,1,2,1,2,1,2,1,2,1,2,1,2,1,2,1,2,125,2,1,2,1,19,12,13,12,13,12,13,46,47,48,49,48,49,66,230,218,218,218,218,218,232,233,237,238,239,240,222,248,218,218,218,218,218,218,218,231,47,48,49,48,49,48,49,48,49,48,49,66,67,146,147,137,137,137,137,137,137,154,182,46,47,77,78,79,80,81,82,83,49,66,67,21,2,1,2,1,2,1,2,1,2,1,2,1,2,1,2,1,2,1,2,1,2,1,2,1,2,1,2,1,2,1,2,1,2,1,2,1,2,1,2,1,2,1,2,1,2,1,2,1,2,1,2,1,2,1,2,1,2,1,2,1,2,1,2,1,2,1,2,1,2,1,2,1,2,1,2,1,2,1,2,1,2,1,2,1,27,42,43,28,29,12,13,12,103,111,112,111,112,113,114,113,114,111,121,54,55,44,45,42,43,44,45,68,69,28,29,54,55,42,43,44,45,68,69,56,2,1,2,1,2,1,2,1,2,1,2,1,2,1,2,1,2,1,2,1,2,1,2,1,2,1,2,1,2,1,2,1,2,1,2,1,2,1,2,1,2,1,2,1,2,1,2,1,2,1,2,1,2,1,2,1,2,1,2,1,2,1,2,1,2,1,2,1,2,1,2,1,2,1,2,1,2,1,2,1,2,1,2,1,2,1,2,1,2,1,2,1,2,1,2,1,2,1,2,1,2,1,2,1,2,1,2,1,2,1,2,1,2,1,2,1,27,42,43,44,45,28,29,201,202,195,13,14,2,1,2,1,2,1,2,1,2,1,2,1,2,1,2,1,2,1,2,1,6,12,13,12,13,12,103,113,114,113,114,113,114,113,114,113,114,111,114,111,121,12,13,12,13,54,55,56,2,1,2,1,2,1,2,1,2,1,2,1,2,1,2,1,2,1,2,1,2,1,2,1,2,1,2,1,2,1,2,1,2,1,2,1,2,1,2,1,2,1,2,1,2,1,2,1,2,1,11,12,13,12,30,31,32,48,49,50,51,52,53,12,13,12,13,21,2,1,2,1,2,1,2,1,2,1,2,1,2,1,2,1,2,1,2,
3,4,3,4,3,4,3,4,3,4,3,4,3,4,3,4,3,4,3,4,3,4,3,4,3,4,3,4,3,4,3,4,3,4,3,4,3,4,3,4,3,4,3,4,3,4,3,4,126,127,3,4,3,20,16,17,16,17,16,17,59,60,61,62,61,62,70,236,218,218,218,218,218,237,238,232,233,234,235,228,229,218,218,218,218,218,218,218,59,60,61,62,61,62,61,62,61,62,61,62,70,71,16,146,147,137,137,137,137,154,182,17,59,60,84,85,86,87,88,89,90,62,70,71,16,26,5,3,4,3,4,3,4,3,4,3,4,3,4,3,4,3,4,3,4,3,4,3,4,3,4,3,4,3,4,3,4,3,4,3,4,3,4,3,4,3,4,3,4,3,4,3,4,3,4,3,4,3,4,3,4,3,4,3,4,3,4,3,4,3,4,3,4,3,4,3,4,3,4,3,4,3,4,3,4,3,4,3,4,3,4,57,34,28,35,17,105,106,107,106,107,106,107,106,107,106,123,17,55,57,58,57,3,57,58,57,3,4,34,28,55,57,3,57,58,57,3,4,3,4,3,4,3,4,3,4,3,4,3,4,3,4,3,4,3,4,3,4,3,4,3,4,3,4,3,4,3,4,3,4,3,4,3,4,3,4,3,4,3,4,3,4,3,4,3,4,3,4,3,4,3,4,3,4,3,4,3,4,3,4,3,4,3,4,3,4,3,4,3,4,3,4,3,4,3,4,3,4,3,4,3,4,3,4,3,4,3,4,3,4,3,4,3,4,3,4,3,4,3,4,3,4,3,4,3,4,3,4,3,4,3,4,3,4,3,4,3,57,58,57,34,28,16,203,16,17,18,3,4,3,4,3,4,3,4,3,4,3,4,3,4,3,4,3,4,4,8,9,16,17,16,17,105,106,107,106,107,106,107,106,107,106,107,106,118,119,123,17,16,17,17,35,55,57,3,4,3,4,3,4,3,4,3,4,3,4,3,4,3,4,3,4,3,4,3,4,3,4,3,4,3,4,3,4,3,4,3,4,3,4,3,4,3,4,3,4,3,4,3,4,3,4,3,4,3,15,16,17,36,37,38,39,61,62,63,64,65,17,16,17,16,17,16,26,5,3,4,3,4,3,4,3,4,3,4,3,4,3,4,3,4,3,
1,2,1,2,1,2,1,2,1,2,1,2,1,2,1,2,1,2,1,2,1,2,1,2,1,2,1,2,1,2,1,2,1,2,1,2,1,2,1,2,1,2,1,2,1,2,1,2,1,2,1,2,1,11,12,13,12,13,12,13,109,110,48,49,48,49,66,230,218,218,218,218,218,232,233,237,238,239,240,234,235,218,218,218,218,218,218,218,231,47,48,49,48,49,48,49,48,49,48,49,48,49,33,13,146,147,137,137,154,182,12,30,48,49,91,92,93,94,95,96,48,49,66,67,12,13,21,2,1,2,1,2,1,2,1,2,1,2,1,2,1,2,1,2,1,2,1,2,1,2,1,2,1,2,1,2,1,2,1,2,1,2,1,2,1,2,1,2,1,2,1,2,1,2,1,2,1,2,1,2,1,2,1,2,1,2,1,2,1,2,1,2,1,2,1,2,1,2,1,2,1,2,1,2,1,2,1,2,1,2,1,2,1,27,28,29,113,114,113,114,113,114,113,114,111,121,12,13,14,2,1,2,1,2,1,2,1,2,1,27,56,2,1,2,1,2,1,2,1,2,1,2,1,2,1,2,1,2,1,2,1,2,1,2,1,2,1,2,1,2,1,2,1,2,1,2,1,2,1,2,1,2,1,2,1,2,1,2,1,2,1,2,1,2,1,2,1,2,1,2,1,2,1,2,1,2,1,2,1,2,1,2,1,2,1,2,1,2,1,2,1,2,1,2,1,2,1,2,1,2,1,2,1,2,1,2,1,2,1,2,1,2,1,2,1,2,1,2,1,2,1,2,1,2,1,2,1,2,1,2,1,2,1,2,1,2,1,2,1,2,1,27,28,29,12,13,14,2,1,2,1,2,1,2,1,2,1,2,1,2,1,2,1,2,1,6,12,13,12,103,111,112,113,114,113,114,113,114,113,114,111,114,111,121,54,55,44,45,42,43,68,69,56,2,1,2,1,2,1,2,1,2,1,2,1,2,1,2,1,2,1,2,1,2,1,2,1,2,1,2,1,2,1,2,1,2,1,2,1,2,1,2,1,2,1,2,1,2,1,2,1,2,1,2,1,19,12,13,46,47,48,49,66,67,12,13,12,13,12,13,12,13,54,55,56,2,1,2,1,2,1,2,1,2,1,2,1,2,1,2,1,2,
3,4,3,4,3,4,3,4,3,4,3,4,3,4,3,4,3,4,3,4,3,4,3,4,3,4,3,4,3,4,3,4,3,4,3,4,3,4,3,4,3,4,3,4,3,4,3,4,3,4,3,4,3,15,35,17,16,17,16,17,16,115,61,62,61,62,70,236,218,218,218,218,218,237,238,232,233,234,235,239,240,218,218,218,218,218,218,218,59,60,61,62,61,62,61,62,61,62,61,62,61,62,40,41,16,146,148,149,182,17,36,37,61,62,61,62,97,98,99,100,61,62,70,71,16,17,16,26,5,3,4,3,4,3,4,3,4,3,4,3,4,3,4,3,4,3,4,3,4,3,4,3,4,3,4,3,4,3,4,3,4,3,4,3,4,3,4,3,4,3,4,3,4,3,4,3,4,3,4,3,4,3,4,3,4,3,4,3,4,3,4,3,4,3,4,3,4,3,4,3,4,3,4,3,4,3,4,3,4,3,4,3,4,3,34,28,116,106,107,106,107,106,107,106,123,17,17,35,18,3,4,3,4,3,4,3,4,3,4,3,4,3,4,3,4,3,4,3,4,3,4,3,4,3,4,3,4,3,4,3,4,3,4,3,4,3,4,3,4,3,4,3,4,3,4,3,4,3,4,3,4,3,4,3,4,3,4,3,4,3,4,3,4,3,4,3,4,3,4,3,4,3,4,3,4,3,4,3,4,3,4,3,4,3,4,3,4,3,4,3,4,3,4,3,4,3,4,3,4,3,4,3,4,3,4,3,4,3,4,3,4,3,4,3,4,3,4,3,4,3,4,3,4,3,4,3,4,3,4,3,4,3,4,3,4,3,4,3,4,3,4,3,34,28,16,17,18,3,4,3,4,3,4,3,4,3,4,4,24,25,22,23,24,25,8,9,16,17,105,106,107,106,107,106,107,106,107,106,107,106,118,119,123,17,55,57,58,57,3,57,3,4,3,4,3,4,3,4,3,4,3,4,3,4,3,4,3,4,3,4,3,4,3,4,3,4,3,4,3,4,3,4,3,4,3,4,3,4,3,4,3,4,3,4,3,4,3,4,3,4,3,4,3,4,3,20,16,17,59,60,61,62,70,71,16,17,16,17,35,17,17,35,55,57,3,4,3,4,3,4,3,4,3,4,3,4,3,4,3,4,3,4,
1,2,1,2,1,2,1,2,1,2,1,2,1,2,1,2,1,2,1,2,1,2,1,2,1,2,1,2,1,2,1,2,1,2,1,2,1,2,1,2,1,2,1,2,1,2,1,2,1,2,1,2,1,27,28,29,12,13,12,13,12,13,46,47,48,49,66,230,218,218,218,218,218,249,250,237,238,239,240,251,252,218,218,218,218,218,218,218,231,47,48,49,48,49,48,49,48,49,48,49,48,49,48,49,31,32,31,32,31,32,48,49,48,49,48,49,91,92,101,102,48,49,48,49,33,13,12,13,7,2,1,2,1,2,1,2,1,2,1,2,1,2,1,2,1,2,1,2,1,2,1,2,1,2,1,2,1,2,1,2,1,2,1,2,1,2,1,2,1,2,1,2,1,2,1,2,1,2,1,2,1,2,1,2,1,2,1,2,1,2,1,2,1,2,1,2,1,2,1,2,1,2,1,2,1,2,1,2,1,2,1,2,1,2,1,19,122,114,113,114,113,114,111,117,12,13,54,55,56,2,1,2,1,2,1,2,1,2,1,2,1,2,1,2,1,2,1,2,1,2,1,2,1,2,1,2,1,2,1,2,1,2,1,2,1,2,1,2,1,2,1,2,1,2,1,2,1,2,1,2,1,2,1,2,1,2,1,2,1,2,1,2,1,2,1,2,1,2,1,2,1,2,1,2,1,2,1,2,1,2,1,2,1,2,1,2,1,2,1,2,1,2,1,2,1,2,1,2,1,2,1,2,1,2,1,2,1,2,1,2,1,2,1,2,1,2,1,2,1,2,1,2,1,2,1,2,1,2,1,2,1,2,1,2,1,2,1,2,1,2,1,2,1,19,12,13,7,2,1,2,1,2,1,2,1,2,1,6,12,13,12,13,12,13,12,103,111,112,113,114,113,114,113,114,113,114,111,114,111,121,12,13,54,55,56,2,1,2,1,2,1,2,1,2,1,2,1,2,1,2,1,2,1,2,1,2,1,2,1,2,1,2,1,2,1,2,1,2,1,2,1,2,1,2,1,2,1,2,1,2,1,2,1,2,1,2,1,2,1,2,1,2,1,2,1,6,12,13,109,110,50,51,52,53,12,13,54,55,44,45,68,69,56,2,1,2,1,2,1,2,1,2,1,2,1,2,1,2,1,2,1,2,
3,4,3,4,3,4,3,4,3,4,3,4,3,4,3,4,3,4,3,4,3,4,3,4,3,4,3,4,3,4,3,4,3,4,3,4,3,4,3,4,3,4,3,4,3,4,3,4,3,4,3,4,3,4,34,28,16,17,16,17,16,17,59,60,61,62,70,236,218,218,218,218,218,218,218,249,250,253,254,218,218,218,218,218,218,218,218,218,59,60,61,62,61,62,61,62,61,62,61,62,61,62,61,62,38,39,38,39,38,39,61,62,61,62,61,62,61,62,61,62,61,62,61,62,40,41,16,17,10,3,4,3,4,3,4,3,4,3,4,3,4,3,4,3,4,3,4,3,4,3,4,3,4,3,4,3,4,3,4,3,4,3,4,3,4,3,4,3,4,3,4,3,4,3,4,3,4,3,4,3,4,3,4,3,4,3,4,3,4,3,4,3,4,3,4,3,4,3,4,3,4,3,4,3,4,3,4,3,4,3,4,3,4,3,4,20,16,124,107,106,107,106,107,120,16,17,55,57,3,4,3,4,3,4,3,4,3,4,3,4,3,4,3,4,3,4,3,4,3,4,3,4,3,4,3,4,3,4,3,4,3,4,3,4,3,4,3,4,3,4,3,4,3,4,3,4,3,4,3,4,3,4,3,4,3,4,3,4,3,4,3,4,3,4,3,4,3,4,3,4,3,4,3,4,3,4,3,4,3,4,3,4,3,4,3,4,3,4,3,4,3,4,3,4,3,4,3,4,3,4,3,4,3,4,3,4,3,4,3,4,3,4,3,4,3,4,3,4,3,4,3,4,3,4,3,4,3,4,3,4,3,4,3,4,3,4,3,4,3,4,3,4,3,20,16,17,10,3,4,3,4,3,4,3,4,4,8,9,16,17,16,17,16,17,105,106,107,106,107,106,107,106,107,106,107,106,118,119,123,17,16,17,55,57,3,4,3,4,3,4,3,4,3,4,3,4,3,4,3,4,3,4,3,4,3,4,3,4,3,4,3,4,3,4,3,4,3,4,3,4,3,4,3,4,3,4,3,4,3,4,3,4,3,4,3,4,3,4,3,4,3,4,3,4,8,9,16,17,16,115,63,64,65,17,16,17,55,57,58,57,3,4,3,4,3,4,3,4,3,4,3,4,3,4,3,4,3,4,3,4,3,4,
1,2,1,2,1,2,1,2,1,2,1,2,1,2,1,2,1,2,1,2,1,2,1,2,1,2,1,2,1,2,1,2,1,2,1,2,1,2,1,2,1,2,1,2,1,2,1,2,1,2,1,2,1,2,1,19,12,13,12,13,12,13,109,110,48,49,48,49,241,218,218,218,218,218,218,218,218,218,218,218,218,218,218,218,218,218,218,242,48,49,48,49,48,49,48,49,48,49,48,49,48,49,48,49,48,49,48,49,48,49,50,51,50,51,50,51,50,51,48,49,48,49,48,49,66,67,12,13,14,2,1,2,1,2,1,2,1,2,1,2,1,2,1,2,1,2,1,2,1,2,1,2,1,2,1,2,1,2,1,2,1,2,1,2,1,2,1,2,1,2,1,2,1,2,1,2,1,2,1,2,1,2,1,2,1,2,1,2,1,2,1,2,1,2,1,2,1,2,1,2,1,2,1,2,1,2,1,2,1,2,1,2,1,2,1,11,12,13,122,114,111,114,111,121,12,13,21,2,1,2,1,2,1,2,1,2,1,2,1,2,1,2,1,2,1,2,1,2,1,2,1,2,1,2,1,2,1,2,1,2,1,2,1,2,1,2,1,2,1,2,1,2,1,2,1,2,1,2,1,2,1,2,1,2,1,2,1,2,1,2,1,2,1,2,1,2,1,2,1,2,1,2,1,2,1,2,1,2,1,2,1,2,1,2,1,2,1,2,1,2,1,2,1,2,1,2,1,2,1,2,1,2,1,2,1,2,1,2,1,2,1,2,1,2,1,2,1,2,1,2,1,2,1,2,1,2,1,2,1,2,1,2,1,2,1,2,1,2,1,2,1,2,1,11,12,13,14,2,1,2,1,2,1,2,1,6,12,13,12,13,12,13,12,13,122,114,111,114,111,114,111,114,111,114,111,121,12,13,12,13,12,13,14,2,1,2,1,2,1,2,1,2,1,2,1,2,1,2,1,2,1,2,1,2,1,2,1,2,1,2,1,2,1,2,1,2,1,2,1,2,1,2,1,2,1,2,1,2,1,2,1,2,1,2,1,2,1,2,1,2,1,2,1,6,12,13,12,13,12,13,12,13,12,13,12,13,21,2,1,2,1,2,1,2,1,2,1,2,1,2,1,2,1,2,1,2,1,2,1,2,1,2,
3,4,3,4,3,4,3,4,3,4,3,4,3,4,3,4,3,4,3,4,3,4,3,4,3,4,3,4,3,4,3,4,3,4,3,4,3,4,3,4,3,4,3,4,3,4,3,4,3,4,3,4,3,4,3,20,35,17,16,17,16,17,16,115,61,62,61,62,40,243,218,218,218,218,218,218,218,218,218,218,218,218,218,218,218,218,244,37,61,62,61,62,61,62,61,62,61,62,61,62,61,62,61,62,61,62,61,62,61,62,63,64,63,64,63,64,63,64,61,62,61,62,61,62,70,71,16,17,18,3,4,3,4,3,4,3,4,3,4,3,4,3,4,3,4,3,4,3,4,3,4,3,4,3,4,3,4,3,4,3,4,3,4,3,4,3,4,3,4,3,4,3,4,3,4,3,4,3,4,3,4,3,4,3,4,3,4,3,4,3,4,3,4,3,4,3,4,3,4,3,4,3,4,3,4,3,4,3,4,3,4,3,4,3,4,15,16,17,16,124,118,119,123,17,16,17,16,26,5,3,4,3,4,3,4,3,4,3,4,3,4,3,4,3,4,3,4,3,4,3,4,3,4,3,4,3,4,3,4,3,4,3,4,3,4,3,4,3,4,3,4,3,4,3,4,3,4,3,4,3,4,3,4,3,4,3,4,3,4,3,4,3,4,3,4,3,4,3,4,3,4,3,4,3,4,3,4,3,4,3,4,3,4,3,4,3,4,3,4,3,4,3,4,3,4,3,4,3,4,3,4,3,4,3,4,3,4,3,4,3,4,3,4,3,4,3,4,3,4,3,4,3,4,3,4,3,4,3,4,3,4,3,4,3,4,3,4,3,4,3,4,3,4,15,35,17,18,3,4,3,4,3,4,4,8,9,16,17,16,17,16,17,16,17,16,124,118,119,118,119,118,119,118,119,123,17,16,17,16,17,16,17,18,3,4,3,4,3,4,3,4,3,4,3,4,3,4,3,4,3,4,3,4,3,4,3,4,3,4,3,4,3,4,3,4,3,4,3,4,3,4,3,4,3,4,3,4,3,4,3,4,3,4,3,4,3,4,3,4,4,24,25,8,9,16,17,16,17,16,17,16,17,16,17,16,17,16,26,24,25,5,3,4,3,4,3,4,3,4,3,4,3,4,3,4,3,4,3,4,3,4,3,
1,2,1,2,1,2,1,2,1,2,1,2,1,2,1,2,1,2,1,2,1,2,1,2,1,2,1,2,1,2,1,2,1,2,1,2,1,2,1,2,1,2,1,2,1,2,1,2,1,2,1,2,1,2,1,27,42,43,28,29,12,13,12,13,46,47,48,49,48,49,241,218,218,218,218,218,218,218,218,218,218,218,218,218,218,242,48,49,48,49,48,49,48,49,48,49,48,49,48,49,48,49,50,51,50,51,50,51,52,53,12,13,12,13,12,13,12,13,109,110,50,51,50,51,52,53,12,13,21,2,1,2,1,2,1,2,1,2,1,2,1,2,1,2,1,2,1,2,1,2,1,2,1,2,1,2,1,2,1,2,1,2,1,2,1,2,1,2,1,2,1,2,1,2,1,2,1,2,1,2,1,2,1,2,1,2,1,2,1,2,1,2,1,2,1,2,1,2,1,2,1,2,1,2,1,2,1,2,1,2,1,2,1,2,1,19,12,13,12,13,12,13,12,13,12,13,54,55,56,2,1,2,1,2,1,2,1,2,1,2,1,2,1,2,1,2,1,2,1,2,1,2,1,2,1,2,1,2,1,2,1,2,1,2,1,2,1,2,1,2,1,2,1,2,1,2,1,2,1,2,1,2,1,2,1,2,1,2,1,2,1,2,1,2,1,2,1,2,1,2,1,2,1,2,1,2,1,2,1,2,1,2,1,2,1,2,1,2,1,2,1,2,1,2,1,2,1,2,1,2,1,2,1,2,1,2,1,2,1,2,1,2,1,2,1,2,1,2,1,2,1,2,1,2,1,2,1,2,1,2,1,2,1,2,1,2,1,2,1,2,1,2,1,27,28,29,7,2,1,2,1,2,1,19,12,13,12,13,54,55,44,45,42,43,44,45,68,69,42,43,68,69,28,29,12,13,12,13,12,13,12,13,14,2,1,2,1,2,1,2,1,2,1,2,1,2,1,2,1,2,1,2,1,2,1,2,1,2,1,2,1,2,1,2,1,2,1,2,1,2,1,2,1,2,1,2,1,2,1,2,1,2,1,2,1,2,1,2,1,6,12,13,12,13,12,13,12,13,12,13,12,30,33,13,12,13,12,13,12,13,21,2,1,2,1,2,1,2,1,2,1,2,1,2,1,2,1,2,1,2,1,2,
3,4,3,4,3,4,3,4,3,4,3,4,3,4,3,4,3,4,3,4,3,4,3,4,3,4,3,4,3,4,3,4,3,4,3,4,3,4,3,4,3,4,3,4,3,4,3,4,3,4,3,4,3,4,3,4,3,57,34,28,16,17,16,17,59,60,61,62,61,62,40,243,218,218,218,218,218,218,218,218,218,218,218,218,244,37,61,62,61,62,61,62,61,62,61,62,61,62,61,62,61,62,63,64,63,64,63,64,65,17,16,17,35,17,16,17,16,17,16,115,63,64,63,64,65,17,16,17,16,26,5,3,4,3,4,3,4,3,4,3,4,3,4,3,4,3,4,3,4,3,4,3,4,3,4,3,4,3,4,3,4,3,4,3,4,3,4,3,4,3,4,3,4,3,4,3,4,3,4,3,4,3,4,3,4,3,4,3,4,3,4,3,4,3,4,3,4,3,4,3,4,3,4,3,4,3,4,3,4,3,4,3,4,3,4,20,35,17,16,17,16,17,16,17,17,35,55,57,3,4,3,4,3,4,3,4,3,4,3,4,3,4,3,4,3,4,3,4,3,4,3,4,3,4,3,4,3,4,3,4,3,4,3,4,3,4,3,4,3,4,3,4,3,4,3,4,3,4,3,4,3,4,3,4,3,4,3,4,3,4,3,4,3,4,3,4,3,4,3,4,3,4,3,4,3,4,3,4,3,4,3,4,3,4,3,4,3,4,3,4,3,4,3,4,3,4,3,4,3,4,3,4,3,4,3,4,3,4,3,4,3,4,3,4,3,4,3,4,3,4,3,4,3,4,3,4,3,4,3,4,3,4,3,4,3,4,3,4,3,4,3,4,3,4,34,28,10,3,4,3,4,3,4,20,16,17,16,17,55,57,58,57,3,57,58,57,3,4,3,57,3,4,34,28,35,17,16,17,16,17,16,17,18,3,4,3,4,3,4,3,4,3,4,3,4,3,4,3,4,3,4,3,4,3,4,3,4,3,4,4,24,25,22,23,24,25,5,3,4,3,4,3,4,3,4,3,4,3,4,3,4,3,4,3,4,3,4,4,8,9,16,17,16,17,16,17,16,17,16,17,36,37,40,41,16,17,16,17,16,17,16,26,5,3,4,3,4,3,4,3,4,3,4,3,4,3,4,3,4,3,4,3,
1,2,1,2,1,2,1,2,1,2,1,2,1,2,1,2,1,2,1,2,1,2,1,2,1,2,1,2,1,2,1,2,1,2,1,2,1,2,1,2,1,2,1,2,1,2,1,2,1,2,1,2,1,2,1,2,1,2,1,11,12,13,12,13,46,47,48,49,48,49,48,49,245,246,245,246,245,246,245,246,245,246,245,246,48,49,48,49,48,49,48,49,48,49,48,49,50,51,50,51,52,53,12,13,54,55,28,29,12,13,54,55,44,45,68,69,28,29,12,13,12,13,12,103,111,112,111,112,104,13,21,2,1,2,1,2,1,2,1,2,1,2,1,2,1,2,1,2,1,2,1,2,1,2,1,2,1,2,1,2,1,2,1,2,1,2,1,2,1,2,1,2,1,2,1,2,1,2,1,2,1,2,1,2,1,2,1,2,1,2,1,2,1,2,1,2,1,2,1,2,1,2,1,2,1,2,1,2,1,2,1,2,1,2,1,27,28,29,54,55,44,45,28,29,54,55,56,2,1,2,1,2,1,2,1,2,1,2,1,2,1,2,1,2,1,2,1,2,1,2,1,2,1,2,1,2,1,2,1,2,1,2,1,2,1,2,1,2,1,2,1,2,1,2,1,2,1,2,1,2,1,2,1,2,1,2,1,2,1,2,1,2,1,2,1,2,1,2,1,2,1,2,1,2,1,2,1,2,1,2,1,2,1,2,1,2,1,2,1,2,1,2,1,2,1,2,1,2,1,2,1,2,1,2,1,2,1,2,1,2,1,2,1,2,1,2,1,2,1,2,1,2,1,2,1,2,1,2,1,2,1,2,1,2,1,2,1,2,1,2,1,2,1,2,1,27,56,2,1,2,1,2,1,11,12,13,54,55,56,2,1,2,1,2,1,2,1,2,1,2,1,2,1,27,42,43,68,69,44,45,28,29,7,2,1,2,1,2,1,2,1,2,1,2,1,2,1,2,1,2,1,2,1,2,1,2,1,2,1,6,12,13,12,13,12,13,21,2,1,2,1,2,1,2,1,2,1,2,1,2,1,2,1,2,1,2,1,6,12,13,12,13,12,30,31,32,31,32,31,32,48,49,48,49,31,32,33,13,12,13,12,13,14,2,1,2,1,2,1,2,1,2,1,2,1,2,1,2,1,2,1,2,
3,4,3,4,3,4,3,4,3,4,3,4,3,4,3,4,3,4,3,4,3,4,3,4,3,4,3,4,3,4,3,4,3,4,3,4,3,4,3,4,3,4,3,4,3,4,3,4,3,4,3,4,3,4,3,4,3,4,3,15,16,17,16,17,59,60,61,62,61,62,61,62,38,39,38,39,38,39,38,39,38,39,38,39,61,62,61,62,61,62,61,62,61,62,61,62,63,64,63,64,65,17,16,17,55,57,34,28,35,17,55,57,58,57,3,4,34,28,35,17,16,17,105,106,107,106,107,106,107,108,16,26,5,3,4,3,4,3,4,3,4,3,4,3,4,3,4,3,4,3,4,3,4,3,4,3,4,3,4,3,4,3,4,3,4,3,4,3,4,3,4,3,4,3,4,3,4,3,4,3,4,3,4,3,4,3,4,3,4,3,4,3,4,3,4,3,4,3,4,3,4,3,4,3,4,3,4,3,4,3,4,3,4,3,4,3,34,28,55,57,58,57,34,28,55,57,3,4,3,4,3,4,3,4,3,4,3,4,3,4,3,4,3,4,3,4,3,4,3,4,3,4,3,4,3,4,3,4,3,4,3,4,3,4,3,4,3,4,3,4,3,4,3,4,3,4,3,4,3,4,3,4,3,4,3,4,3,4,3,4,3,4,3,4,3,4,3,4,3,4,3,4,3,4,3,4,3,4,3,4,3,4,3,4,3,4,3,4,3,4,3,4,3,4,3,4,3,4,3,4,3,4,3,4,3,4,3,4,3,4,3,4,3,4,3,4,3,4,3,4,3,4,3,4,3,4,3,4,3,4,3,4,3,4,3,4,3,4,3,4,3,4,3,4,3,4,3,4,3,4,3,4,3,15,17,35,55,57,3,4,3,4,3,4,3,4,3,4,3,4,3,4,3,4,3,57,3,4,58,57,34,28,10,3,4,3,4,3,4,3,4,3,4,3,4,3,4,3,4,3,4,3,4,3,4,3,4,4,8,9,16,17,16,17,16,17,16,26,5,3,4,3,4,4,24,25,22,23,24,25,22,23,24,25,22,23,8,9,16,17,16,17,36,37,38,39,38,39,38,39,61,62,61,62,38,39,40,41,16,17,16,17,18,3,4,3,4,3,4,3,4,3,4,3,4,3,4,3,4,3,4,3,
1,2,1,2,1,2,1,2,1,2,1,2,1,2,1,2,1,2,1,2,1,2,1,2,1,2,1,2,1,2,1,2,1,2,1,2,1,2,1,2,1,2,1,2,1,2,1,2,1,2,1,2,1,2,1,2,1,2,1,6,12,13,12,13,46,47,48,49,48,49,48,49,48,49,48,49,48,49,48,49,48,49,48,49,48,49,48,49,48,49,48,49,50,51,52,53,12,13,12,13,12,13,12,13,7,2,1,27,42,43,56,2,1,2,1,2,1,27,42,43,28,29,113,114,113,114,113,114,111,121,54,55,56,2,1,2,1,2,1,2,1,2,1,2,1,2,1,2,1,2,1,2,1,2,1,2,1,2,1,2,1,2,1,2,1,2,1,2,1,2,1,2,1,2,1,2,1,2,1,2,1,2,1,2,1,2,1,2,1,2,1,2,1,2,1,2,1,2,1,2,1,2,1,2,1,2,1,2,1,2,1,2,1,2,1,2,1,27,56,2,1,2,1,27,56,2,1,2,1,2,1,2,1,2,1,2,1,2,1,2,1,2,1,2,1,2,1,2,1,2,1,2,1,2,1,2,1,2,1,2,1,2,1,2,1,2,1,2,1,2,1,2,1,2,1,2,1,2,1,2,1,2,1,2,1,2,1,2,1,2,1,2,1,2,1,2,1,2,1,2,1,2,1,2,1,2,1,2,1,2,1,2,1,2,1,2,1,2,1,2,1,2,1,2,1,2,1,2,1,2,1,2,1,2,1,2,1,2,1,2,1,2,1,2,1,2,1,2,1,2,1,2,1,2,1,2,1,2,1,2,1,2,1,2,1,2,1,2,1,2,1,2,1,2,1,2,1,2,1,2,1,2,1,19,54,55,1,2,1,2,1,2,1,2,1,2,1,2,1,2,1,2,1,2,1,2,1,2,1,2,1,27,56,2,1,2,1,2,1,2,1,2,1,2,1,2,1,2,1,2,1,2,1,2,1,2,1,27,28,29,12,13,12,13,12,13,12,13,7,2,1,2,1,6,12,13,12,13,12,13,12,13,12,13,12,30,31,32,31,32,31,32,48,49,48,49,48,49,48,49,48,49,48,49,48,49,66,67,12,13,12,13,7,2,1,2,1,2,1,2,1,2,1,2,1,2,1,2,1,2,1,2,
3,4,3,4,3,4,3,4,3,4,3,4,3,4,3,4,3,4,3,4,3,4,3,4,3,4,3,4,3,4,3,4,3,4,3,4,3,4,3,4,3,4,3,4,3,4,3,4,3,4,22,23,24,25,22,23,24,25,8,9,16,17,16,17,59,60,61,62,61,62,61,62,61,62,61,62,61,62,61,62,61,62,61,62,61,62,61,62,61,62,61,62,63,64,65,17,16,17,16,17,16,17,16,17,10,3,4,3,4,57,3,4,3,4,3,4,3,4,3,57,34,28,116,106,107,106,107,106,123,17,55,57,3,4,3,4,3,4,3,4,3,4,3,4,3,4,3,4,3,4,3,4,3,4,3,4,3,4,3,4,3,4,3,4,3,4,3,4,3,4,3,4,3,4,3,4,3,4,3,4,3,4,3,4,3,4,3,4,3,4,3,4,3,4,3,4,3,4,3,4,3,4,3,4,3,4,3,4,3,4,3,4,3,4,3,4,3,4,3,4,3,4,3,4,3,4,3,4,3,4,3,4,3,4,3,4,3,4,3,4,3,4,3,4,3,4,3,4,3,4,3,4,3,4,3,4,3,4,3,4,3,4,3,4,3,4,3,4,3,4,3,4,3,4,3,4,3,4,3,4,3,4,3,4,3,4,3,4,3,4,3,4,3,4,3,4,3,4,3,4,3,4,3,4,3,4,3,4,3,4,3,4,3,4,3,4,3,4,3,4,3,4,3,4,3,4,3,4,3,4,3,4,3,4,3,4,3,4,3,4,3,4,3,4,3,4,3,4,3,4,3,4,3,4,3,4,3,4,3,4,3,4,3,4,3,4,3,4,3,4,3,4,3,4,3,4,3,4,3,4,3,4,3,20,55,57,3,4,3,4,3,4,3,4,3,4,3,4,3,4,3,4,3,4,3,4,3,4,3,4,3,4,3,4,3,4,3,4,3,4,3,4,3,4,3,4,3,4,3,4,3,4,3,4,3,4,3,4,34,28,35,17,16,17,16,17,16,17,10,3,4,4,8,9,16,17,16,17,16,17,16,17,16,17,36,37,38,39,38,39,38,39,61,62,61,62,61,62,61,62,61,62,61,62,61,62,70,71,16,17,16,17,10,3,4,3,4,3,4,3,4,3,4,3,4,3,4,3,4,3,4,3,
1,2,1,2,1,2,1,2,1,2,1,2,1,2,1,2,1,2,1,2,1,2,1,2,1,2,1,2,1,2,1,2,1,2,1,2,1,2,1,2,1,2,1,2,1,2,1,2,1,27,28,29,12,13,12,13,12,13,12,13,12,13,12,13,46,47,48,49,48,49,48,49,48,49,48,49,48,49,50,51,50,51,50,51,50,51,50,51,50,51,52,53,12,13,12,13,12,13,12,13,12,13,12,13,14,2,1,2,1,2,1,2,1,2,1,2,1,2,1,2,1,6,113,114,113,114,111,121,54,55,56,2,1,2,1,2,1,2,1,2,1,2,1,2,1,2,1,2,1,2,1,2,1,2,1,2,1,2,1,2,1,2,1,2,1,2,1,2,1,2,1,2,1,2,1,2,1,2,1,2,1,2,1,2,1,2,1,2,1,2,1,2,1,2,1,2,1,2,1,2,1,2,1,2,1,2,1,2,1,2,1,2,1,2,1,2,1,2,1,2,1,2,1,2,1,2,1,2,1,2,1,2,1,2,1,2,1,2,1,2,1,2,1,2,1,2,1,2,1,2,1,2,1,2,1,2,1,2,1,2,1,2,1,2,1,2,1,2,1,2,1,2,1,2,1,2,1,2,1,2,1,2,1,2,1,2,1,2,1,2,1,2,1,2,1,2,1,2,1,2,1,2,1,2,1,2,1,2,1,2,1,2,1,2,1,2,1,2,1,2,1,2,1,2,1,2,1,2,1,2,1,2,1,2,1,2,1,2,1,2,1,2,1,2,1,2,1,2,1,2,1,2,1,2,1,2,1,2,1,2,1,2,1,2,1,2,1,2,1,2,1,2,1,2,1,2,1,2,1,2,1,2,1,27,56,2,1,2,1,2,1,2,1,2,1,2,1,2,1,2,1,2,1,2,1,2,1,2,1,2,1,2,1,2,1,2,1,2,1,2,1,2,1,2,1,2,1,2,1,2,1,2,1,2,1,2,1,2,1,27,28,29,12,13,12,13,12,13,21,2,1,6,12,13,12,13,12,13,12,13,12,13,12,13,46,47,48,49,48,49,50,51,50,51,50,51,50,51,52,53,109,110,50,51,50,51,52,53,12,13,12,13,14,2,1,2,1,2,1,2,1,2,1,2,1,2,1,2,1,2,1,2,
3,4,3,4,3,4,3,4,3,4,3,4,3,4,3,4,3,4,3,4,3,4,3,4,3,4,3,4,3,4,3,4,3,4,3,4,3,4,3,4,3,4,3,4,3,4,3,4,3,4,34,28,16,17,16,17,16,17,16,17,16,17,16,17,59,60,61,62,61,62,61,62,61,62,61,62,61,62,63,64,63,64,63,64,63,64,63,64,63,64,65,17,16,17,16,17,16,17,16,17,16,17,17,35,18,3,4,3,4,3,4,3,4,3,4,3,4,3,4,4,8,9,116,106,107,106,123,17,55,57,3,4,3,4,3,4,3,4,3,4,3,4,3,4,3,4,3,4,3,4,3,4,3,4,3,4,3,4,3,4,3,4,3,4,3,4,3,4,3,4,3,4,3,4,3,4,3,4,3,4,3,4,3,4,3,4,3,4,3,4,3,4,3,4,3,4,3,4,3,4,3,4,3,4,3,4,3,4,3,4,3,4,3,4,3,4,3,4,3,4,3,4,3,4,3,4,3,4,3,4,3,4,3,4,3,4,3,4,3,4,3,4,3,4,3,4,3,4,3,4,3,4,3,4,3,4,3,4,3,4,3,4,3,4,3,4,3,4,3,4,3,4,3,4,3,4,3,4,3,4,3,4,3,4,3,4,3,4,3,4,3,4,3,4,3,4,3,4,3,4,3,4,3,4,3,4,3,4,3,4,3,4,3,4,3,4,3,4,3,4,3,4,3,4,3,4,3,4,3,4,3,4,3,4,3,4,3,4,3,4,3,4,3,4,3,4,3,4,3,4,3,4,3,4,3,4,3,4,3,4,3,4,3,4,3,4,3,4,3,4,3,4,3,4,3,4,3,4,3,4,3,4,3,4,3,4,3,4,3,4,3,4,3,4,3,4,3,4,3,4,3,4,3,4,3,4,3,4,3,4,3,4,3,4,3,4,3,4,3,4,3,4,3,4,3,4,3,4,3,4,3,4,3,4,3,4,3,4,3,4,34,28,16,17,16,17,16,17,16,26,8,9,16,17,16,17,16,17,16,17,16,17,16,17,59,60,61,62,61,62,63,64,63,64,63,64,63,64,65,17,16,115,63,64,63,64,65,17,16,17,16,17,18,3,4,3,4,3,4,3,4,3,4,3,4,3,4,3,4,3,4,3,
1,2,1,2,1,2,1,2,1,2,1,2,1,2,1,2,1,2,1,2,1,2,1,2,1,2,1,2,1,2,1,2,1,2,1,2,1,2,1,2,1,2,1,2,1,2,1,2,1,2,1,11,12,30,31,32,33,13,12,13,12,13,12,30,48,49,48,49,48,49,48,49,48,49,50,51,52,53,12,13,12,13,12,13,12,13,12,13,12,13,12,13,12,13,12,13,12,13,12,13,12,13,54,55,56,2,1,2,1,2,1,2,1,2,1,2,1,2,1,19,12,103,113,114,111,117,12,13,14,2,1,2,1,2,1,2,1,2,1,2,1,2,1,2,1,2,1,2,1,2,1,2,1,2,1,2,1,2,1,2,1,2,1,2,1,2,1,2,1,2,1,2,1,2,1,2,1,2,1,2,1,2,1,2,1,2,1,2,1,2,1,2,1,2,1,2,1,2,1,2,1,2,1,2,1,2,1,2,1,2,1,2,1,2,1,2,1,2,1,2,1,2,1,2,1,2,1,2,1,2,1,2,1,2,1,2,1,2,1,2,1,2,1,2,1,2,1,2,1,2,1,2,1,2,1,2,1,2,1,2,1,2,1,2,1,2,1,2,1,2,1,2,1,2,1,2,1,2,1,2,1,2,1,2,1,2,1,2,1,2,1,2,1,2,1,2,1,2,1,2,1,2,1,2,1,2,1,2,1,2,1,2,1,2,1,2,1,2,1,2,1,2,1,2,1,2,1,2,1,2,1,2,1,2,1,2,1,2,1,2,1,2,1,2,1,2,1,2,1,2,1,2,1,2,1,2,1,2,1,2,1,2,1,2,1,2,1,2,1,2,1,2,1,2,1,2,1,2,1,2,1,2,1,2,1,2,1,2,1,2,1,2,1,2,1,2,1,2,1,2,1,2,1,2,1,2,1,2,1,2,1,2,1,2,1,2,1,2,1,2,1,2,1,2,1,2,1,2,1,2,1,2,1,2,1,2,1,2,1,2,1,6,12,13,12,13,12,13,12,13,12,13,12,13,12,13,12,13,12,13,12,13,12,13,109,110,50,51,52,53,12,13,54,55,44,45,42,43,44,45,68,69,44,45,42,43,44,45,68,69,28,29,7,2,1,2,1,2,1,2,1,2,1,2,1,2,1,2,1,2,1,2,
3,4,3,4,3,4,3,4,3,4,3,4,3,4,3,4,3,4,3,4,3,4,3,4,3,4,3,4,3,4,3,4,3,4,3,4,3,4,3,4,3,4,3,4,3,4,3,4,3,4,3,15,36,37,38,39,40,41,16,17,16,17,36,37,61,62,61,62,61,62,61,62,61,62,63,64,65,17,16,17,16,17,16,17,16,17,16,17,16,17,16,17,16,17,16,17,16,17,16,17,16,17,55,57,3,4,3,4,3,4,3,4,3,4,3,4,3,4,3,20,105,106,107,106,107,120,17,35,18,3,4,3,4,3,4,3,4,3,4,3,4,3,4,3,4,3,4,3,4,3,4,3,4,3,4,3,4,3,4,3,4,3,4,3,4,3,4,3,4,3,4,3,4,3,4,3,4,3,4,3,4,3,4,3,4,3,4,3,4,3,4,3,4,3,4,3,4,3,4,3,4,3,4,3,4,3,4,3,4,3,4,3,4,3,4,3,4,3,4,3,4,3,4,3,4,3,4,3,4,3,4,3,4,3,4,3,4,3,4,3,4,3,4,3,4,3,4,3,4,3,4,3,4,3,4,3,4,3,4,3,4,3,4,3,4,3,4,3,4,3,4,3,4,3,4,3,4,3,4,3,4,3,4,3,4,3,4,3,4,3,4,3,4,3,4,3,4,3,4,3,4,3,4,3,4,3,4,3,4,3,4,3,4,3,4,3,4,3,4,3,4,3,4,3,4,3,4,3,4,3,4,3,4,3,4,3,4,3,4,3,4,3,4,3,4,3,4,3,4,3,4,3,4,3,4,3,4,3,4,3,4,3,4,3,4,3,4,3,4,3,4,3,4,3,4,3,4,3,4,3,4,3,4,3,4,3,4,3,4,3,4,3,4,3,4,3,4,3,4,3,4,3,4,3,4,3,4,3,4,3,4,3,4,3,4,3,4,3,4,3,4,3,4,3,4,3,4,3,4,3,4,3,4,3,4,3,4,4,24,25,8,9,17,35,16,17,16,17,16,17,16,17,16,17,16,17,16,17,16,17,16,17,16,17,16,115,63,64,65,17,16,17,55,57,58,57,3,57,58,57,3,4,58,57,3,57,58,57,3,4,34,28,10,3,4,3,4,3,4,3,4,3,4,3,4,3,4,3,4,3,4,3,
1,2,1,2,1,2,1,2,1,2,1,2,1,2,1,2,1,2,1,2,1,2,1,2,1,2,1,2,1,2,1,2,1,2,1,2,1,2,1,2,1,2,1,2,1,2,1,2,1,2,1,19,46,47,48,49,48,49,31,32,31,32,48,49,48,49,48,49,48,49,48,49,52,53,12,13,12,13,12,13,12,13,12,13,12,13,12,13,12,13,12,13,12,13,12,13,12,13,54,55,44,45,56,2,1,2,1,2,1,2,1,2,1,2,1,2,1,2,1,11,122,114,111,114,111,121,54,55,56,2,1,2,1,2,1,2,1,2,1,2,1,2,1,2,1,2,1,2,1,2,1,2,1,2,1,2,1,2,1,2,1,2,1,2,1,2,1,2,1,2,1,2,1,2,1,2,1,2,1,2,1,2,1,2,1,2,1,2,1,2,1,2,1,2,1,2,1,2,1,2,1,2,1,2,1,2,1,2,1,2,1,2,1,2,1,2,1,2,1,2,1,2,1,2,1,2,1,2,1,2,1,2,1,2,1,2,1,2,1,2,1,2,1,2,1,2,1,2,1,2,1,2,1,2,1,2,1,2,1,2,1,2,1,2,1,2,1,2,1,2,1,2,1,2,1,2,1,2,1,2,1,2,1,2,1,2,1,2,1,2,1,2,1,2,1,2,1,2,1,2,1,2,1,2,1,2,1,2,1,2,1,2,1,2,1,2,1,2,1,2,1,2,1,2,1,2,1,2,1,2,1,2,1,2,1,2,1,2,1,2,1,2,1,2,1,2,1,2,1,2,1,2,1,2,1,2,1,2,1,2,1,2,1,2,1,2,1,2,1,2,1,2,1,2,1,2,1,2,1,2,1,2,1,2,1,2,1,2,1,2,1,2,1,2,1,2,1,2,1,2,1,2,1,2,1,2,1,2,1,2,1,2,1,2,1,2,1,2,1,2,1,2,1,2,1,2,1,2,1,2,1,2,1,2,1,2,1,6,12,13,12,13,54,55,44,45,68,69,42,43,28,29,12,13,12,13,12,13,12,13,12,13,12,13,12,13,12,13,12,13,54,55,56,2,1,2,1,2,1,2,1,2,1,2,1,2,1,2,1,2,1,27,56,2,1,2,1,2,1,2,1,2,1,2,1,2,1,2,1,2,1,2,
3,4,3,4,3,4,3,4,3,4,3,4,3,4,3,4,3,4,3,4,3,4,3,4,3,4,3,4,3,4,3,4,3,4,3,4,3,4,3,4,3,4,3,4,3,4,3,4,3,4,3,20,59,60,61,62,61,62,38,39,38,39,61,62,61,62,61,62,61,62,61,62,65,17,16,17,16,17,16,17,16,17,16,17,16,17,16,17,16,17,16,17,16,17,16,17,16,17,55,57,58,57,3,4,3,4,3,4,3,4,3,4,3,4,3,4,3,4,3,15,16,124,118,119,123,17,55,57,3,4,3,4,3,4,3,4,3,4,3,4,3,4,3,4,3,4,3,4,3,4,3,4,3,4,3,4,3,4,3,4,3,4,3,4,3,4,3,4,3,4,3,4,3,4,3,4,3,4,3,4,3,4,3,4,3,4,3,4,3,4,3,4,3,4,3,4,3,4,3,4,3,4,3,4,3,4,3,4,3,4,3,4,3,4,3,4,3,4,3,4,3,4,3,4,3,4,3,4,3,4,3,4,3,4,3,4,3,4,3,4,3,4,3,4,3,4,3,4,3,4,3,4,3,4,3,4,3,4,3,4,3,4,3,4,3,4,3,4,3,4,3,4,3,4,3,4,3,4,3,4,3,4,3,4,3,4,3,4,3,4,3,4,3,4,3,4,3,4,3,4,3,4,3,4,3,4,3,4,3,4,3,4,3,4,3,4,3,4,3,4,3,4,3,4,3,4,3,4,3,4,3,4,3,4,3,4,3,4,3,4,3,4,3,4,3,4,3,4,3,4,3,4,3,4,3,4,3,4,3,4,3,4,3,4,3,4,3,4,3,4,3,4,3,4,3,4,3,4,3,4,3,4,3,4,3,4,3,4,3,4,3,4,3,4,3,4,3,4,3,4,3,4,3,4,3,4,3,4,3,4,3,4,3,4,3,4,3,4,3,4,3,4,3,4,3,4,3,4,3,4,3,4,3,4,3,4,8,9,16,17,16,17,55,57,58,57,3,4,3,57,34,28,35,17,16,17,16,17,16,17,16,17,16,17,16,17,16,17,17,35,55,57,3,4,3,4,3,4,3,4,3,4,3,4,3,4,3,4,3,4,3,4,3,4,3,4,3,4,3,4,3,4,3,4,3,4,3,4,3,4,3,4,
1,2,1,2,1,2,1,2,1,2,1,2,1,2,1,2,1,2,1,2,1,2,1,2,1,2,1,2,1,2,1,2,1,2,1,2,1,2,1,2,1,2,1,2,1,2,1,2,1,2,1,11,109,110,48,49,48,49,48,49,48,49,48,49,48,49,48,49,48,49,66,67,12,13,12,13,12,13,12,13,12,13,12,13,12,13,12,13,12,13,12,13,12,13,12,13,12,13,21,2,1,2,1,2,1,2,1,2,1,2,1,2,1,2,1,2,1,2,1,27,28,29,12,13,12,13,14,2,1,2,1,2,1,2,1,2,1,2,1,2,1,2,1,2,1,2,1,2,1,2,1,2,1,2,1,2,1,2,1,2,1,2,1,2,1,2,1,2,1,2,1,2,1,2,1,2,1,2,1,2,1,2,1,2,1,2,1,2,1,2,1,2,1,2,1,2,1,2,1,2,1,2,1,2,1,2,1,2,1,2,1,2,1,2,1,2,1,2,1,2,1,2,1,2,1,2,1,2,1,2,1,2,1,2,1,2,1,2,1,2,1,2,1,2,1,2,1,2,1,2,1,2,1,2,1,2,1,2,1,2,1,2,1,2,1,2,1,2,1,2,1,2,1,2,1,2,1,2,1,2,1,2,1,2,1,2,1,2,1,2,1,2,1,2,1,2,1,2,1,2,1,2,1,2,1,2,1,2,1,2,1,2,1,2,1,2,1,2,1,2,1,2,1,2,1,2,1,2,1,2,1,2,1,2,1,2,1,2,1,2,1,2,1,2,1,2,1,2,1,2,1,2,1,2,1,2,1,2,1,2,1,2,1,2,1,2,1,2,1,2,1,2,1,2,1,2,1,2,1,2,1,2,1,2,1,2,1,2,1,2,1,2,1,2,1,2,1,2,1,2,1,2,1,2,1,2,1,2,1,2,1,2,1,2,1,2,1,2,1,2,1,2,1,2,1,2,1,2,1,2,1,2,1,2,1,6,12,13,12,13,54,55,56,2,1,2,1,2,1,2,1,27,42,43,44,45,68,69,44,45,28,29,12,13,12,13,12,13,54,55,56,2,1,2,1,2,1,2,1,2,1,2,1,2,1,2,1,2,1,2,1,2,1,2,1,2,1,2,1,2,1,2,1,2,1,2,1,2,1,2,1,2,
3,4,3,4,3,4,3,4,3,4,3,4,3,4,3,4,3,4,3,4,3,4,3,4,3,4,3,4,3,4,3,4,3,4,3,4,3,4,3,4,3,4,3,4,3,4,3,4,3,4,3,15,16,115,61,62,61,62,61,62,61,62,61,62,61,62,61,62,61,62,70,71,16,17,16,17,16,17,16,17,16,17,16,17,16,17,16,17,16,17,16,17,16,17,16,17,16,17,16,26,5,3,4,3,4,3,4,3,4,3,4,3,4,3,4,3,4,3,4,3,34,28,16,17,17,35,18,3,4,3,4,3,4,3,4,3,4,3,4,3,4,3,4,3,4,3,4,3,4,3,4,3,4,3,4,3,4,3,4,3,4,3,4,3,4,3,4,3,4,3,4,3,4,3,4,3,4,3,4,3,4,3,4,3,4,3,4,3,4,3,4,3,4,3,4,3,4,3,4,3,4,3,4,3,4,3,4,3,4,3,4,3,4,3,4,3,4,3,4,3,4,3,4,3,4,3,4,3,4,3,4,3,4,3,4,3,4,3,4,3,4,3,4,3,4,3,4,3,4,3,4,3,4,3,4,3,4,3,4,3,4,3,4,3,4,3,4,3,4,3,4,3,4,3,4,3,4,3,4,3,4,3,4,3,4,3,4,3,4,3,4,3,4,3,4,3,4,3,4,3,4,3,4,3,4,3,4,3,4,3,4,3,4,3,4,3,4,3,4,3,4,3,4,3,4,3,4,3,4,3,4,3,4,3,4,3,4,3,4,3,4,3,4,3,4,3,4,3,4,3,4,3,4,3,4,3,4,3,4,3,4,3,4,3,4,3,4,3,4,3,4,3,4,3,4,3,4,3,4,3,4,3,4,3,4,3,4,3,4,3,4,3,4,3,4,3,4,3,4,3,4,3,4,3,4,3,4,3,4,3,4,3,4,3,4,3,4,3,4,3,4,3,4,3,4,3,4,3,4,3,4,3,4,4,8,9,16,17,17,35,55,57,3,4,3,4,3,4,3,4,3,4,3,57,58,57,3,4,58,57,34,28,16,17,16,17,16,17,55,57,3,4,3,4,3,4,3,4,3,4,3,4,3,4,3,4,3,4,3,4,3,4,3,4,3,4,3,4,3,4,3,4,3,4,3,4,3,4,3,4,3,4,
1,2,1,2,1,2,1,2,1,2,1,2,1,2,1,2,1,2,1,2,1,2,1,2,1,2,1,2,1,2,1,2,1,2,1,2,1,2,1,2,1,2,1,2,1,2,1,2,1,2,1,27,28,29,109,110,48,49,48,49,48,49,48,49,48,49,48,49,48,49,66,67,12,13,12,13,12,13,12,13,12,13,12,13,12,183,184,185,184,185,186,13,12,13,12,13,12,13,12,13,14,2,1,2,1,2,1,2,1,2,1,2,1,2,1,2,1,2,1,2,1,6,12,13,54,55,56,2,1,2,1,2,1,2,1,2,1,2,1,2,1,2,1,2,1,2,1,2,1,2,1,2,1,2,1,2,1,2,1,2,1,2,1,2,1,2,1,2,1,2,1,2,1,2,1,2,1,2,1,2,1,2,1,2,1,2,1,2,1,2,1,2,1,2,1,2,1,2,1,2,1,2,1,2,1,2,1,2,1,2,1,2,1,2,1,2,1,2,1,2,1,2,1,2,1,2,1,2,1,2,1,2,1,2,1,2,1,2,1,2,1,2,1,2,1,2,1,2,1,2,1,2,1,2,1,2,1,2,1,2,1,2,1,2,1,2,1,2,1,2,1,2,1,2,1,2,1,2,1,2,1,2,1,2,1,2,1,2,1,2,1,2,1,2,1,2,1,2,1,2,1,2,1,2,1,2,1,2,1,2,1,2,1,2,1,2,1,2,1,2,1,2,1,2,1,2,1,2,1,2,1,2,1,2,1,2,1,2,1,2,1,2,1,2,1,2,1,2,1,2,1,2,1,2,1,2,1,2,1,2,1,2,1,2,1,2,1,2,1,2,1,2,1,2,1,2,1,2,1,2,1,2,1,2,1,2,1,2,1,2,1,2,1,2,1,2,1,2,1,2,1,2,1,2,1,2,1,2,1,2,1,2,1,2,1,2,1,2,1,2,1,2,1,2,1,2,1,2,1,2,1,2,1,19,12,13,54,55,44,45,56,2,1,2,1,2,1,2,1,2,1,2,1,2,1,2,1,2,1,2,1,19,12,13,12,13,54,55,56,2,1,2,1,2,1,2,1,2,1,2,1,2,1,2,1,2,1,2,1,2,1,2,1,2,1,2,1,2,1,2,1,2,1,2,1,2,1,2,1,2,1,2,
3,4,3,4,3,4,3,4,3,4,3,4,3,4,3,4,3,4,3,4,3,4,3,4,3,4,3,4,3,4,3,4,3,4,3,4,3,4,3,4,3,4,3,4,3,4,3,4,3,4,3,4,34,28,16,115,61,62,61,62,61,62,61,62,61,62,61,62,61,62,70,71,16,17,16,17,16,17,16,17,16,17,16,17,187,188,189,189,189,189,190,191,16,17,16,17,16,17,16,17,18,3,4,3,4,3,4,3,4,3,4,3,4,3,4,3,4,3,4,4,8,9,16,17,55,57,3,4,3,4,3,4,3,4,3,4,3,4,3,4,3,4,3,4,3,4,3,4,3,4,3,4,3,4,3,4,3,4,3,4,3,4,3,4,3,4,3,4,3,4,3,4,3,4,3,4,3,4,3,4,3,4,3,4,3,4,3,4,3,4,3,4,3,4,3,4,3,4,3,4,3,4,3,4,3,4,3,4,3,4,3,4,3,4,3,4,3,4,3,4,3,4,3,4,3,4,3,4,3,4,3,4,3,4,3,4,3,4,3,4,3,4,3,4,3,4,3,4,3,4,3,4,3,4,3,4,3,4,3,4,3,4,3,4,3,4,3,4,3,4,3,4,3,4,3,4,3,4,3,4,3,4,3,4,3,4,3,4,3,4,3,4,3,4,3,4,3,4,3,4,3,4,3,4,3,4,3,4,3,4,3,4,3,4,3,4,3,4,3,4,3,4,3,4,3,4,3,4,3,4,3,4,3,4,3,4,3,4,3,4,3,4,3,4,3,4,3,4,3,4,3,4,3,4,3,4,3,4,3,4,3,4,3,4,3,4,3,4,3,4,3,4,3,4,3,4,3,4,3,4,3,4,3,4,3,4,3,4,3,4,3,4,3,4,3,4,3,4,3,4,3,4,3,4,3,4,3,4,3,4,3,4,3,4,3,4,3,4,3,4,3,4,3,4,3,4,3,4,3,4,3,4,3,20,16,17,55,57,58,57,3,4,3,4,3,4,3,4,3,4,3,4,3,4,3,4,3,4,3,4,3,20,35,17,17,35,55,57,3,4,3,4,3,4,3,4,3,4,3,4,3,4,3,4,3,4,3,4,3,4,3,4,3,4,3,4,3,4,3,4,3,4,3,4,3,4,3,4,3,4,3,4,
1,2,1,2,1,2,1,2,1,2,1,2,1,2,1,2,1,2,1,2,1,2,1,2,1,2,1,2,1,2,1,2,1,2,1,2,1,2,1,2,1,2,1,2,1,2,1,2,1,2,1,2,1,11,12,30,48,49,48,49,48,49,48,49,48,49,48,49,48,49,66,67,12,13,12,13,12,13,12,13,12,183,184,185,192,189,189,189,189,189,189,213,186,13,12,13,12,13,12,13,21,2,1,2,1,2,1,2,1,2,1,2,1,2,1,2,1,2,1,19,12,13,12,13,14,2,1,2,1,2,1,2,1,2,1,2,1,2,1,2,1,2,1,2,1,2,1,2,1,2,1,2,1,2,1,2,1,2,1,2,1,2,1,2,1,2,1,2,1,2,1,2,1,2,1,2,1,2,1,2,1,2,1,2,1,2,1,2,1,2,1,2,1,2,1,2,1,2,1,2,1,2,1,2,1,2,1,2,1,2,1,2,1,2,1,2,1,2,1,2,1,2,1,2,1,2,1,2,1,2,1,2,1,2,1,2,1,2,1,2,1,2,1,2,1,2,1,2,1,2,1,2,1,2,1,2,1,2,1,2,1,2,1,2,1,2,1,2,1,2,1,2,1,2,1,2,1,2,1,2,1,2,1,2,1,2,1,2,1,2,1,2,1,2,1,2,1,2,1,2,1,2,1,2,1,2,1,2,1,2,1,2,1,2,1,2,1,2,1,2,1,2,1,2,1,2,1,2,1,2,1,2,1,2,1,2,1,2,1,2,1,2,1,2,1,2,1,2,1,2,1,2,1,2,1,2,1,2,1,2,1,2,1,2,1,2,1,2,1,2,1,2,1,2,1,2,1,2,1,2,1,2,1,2,1,2,1,2,1,2,1,2,1,2,1,2,1,2,1,2,1,2,1,2,1,2,1,2,1,2,1,2,1,2,1,2,1,2,1,2,1,2,1,2,1,2,1,2,1,2,1,2,1,11,12,13,7,2,1,2,1,2,1,2,1,2,1,2,1,2,1,2,1,2,1,2,1,2,1,2,1,27,28,29,54,55,56,2,1,2,1,2,1,2,1,2,1,2,1,2,1,2,1,2,1,2,1,2,1,2,1,2,1,2,1,2,1,2,1,2,1,2,1,2,1,2,1,2,1,2,1,2,
3,4,3,4,3,4,3,4,3,4,3,4,3,4,3,4,3,4,3,4,3,4,3,4,3,4,3,4,3,4,3,4,3,4,3,4,3,4,3,4,3,4,3,4,3,4,3,4,3,4,3,4,3,15,36,37,61,62,61,62,61,62,61,62,61,62,61,62,61,62,70,71,16,17,16,17,16,17,16,17,187,188,189,189,189,189,189,189,189,189,189,189,190,191,16,17,16,17,16,17,16,26,5,3,4,3,4,3,4,3,4,3,4,3,4,3,4,3,4,20,16,17,16,17,18,3,4,3,4,3,4,3,4,3,4,3,4,3,4,3,4,3,4,3,4,3,4,3,4,3,4,3,4,3,4,3,4,3,4,3,4,3,4,3,4,3,4,3,4,3,4,3,4,3,4,3,4,3,4,3,4,3,4,3,4,3,4,3,4,3,4,3,4,3,4,3,4,3,4,3,4,3,4,3,4,3,4,3,4,3,4,3,4,3,4,3,4,3,4,3,4,3,4,3,4,3,4,3,4,3,4,3,4,3,4,3,4,3,4,3,4,3,4,3,4,3,4,3,4,3,4,3,4,3,4,3,4,3,4,3,4,3,4,3,4,3,4,3,4,3,4,3,4,3,4,3,4,3,4,3,4,3,4,3,4,3,4,3,4,3,4,3,4,3,4,3,4,3,4,3,4,3,4,3,4,3,4,3,4,3,4,3,4,3,4,3,4,3,4,3,4,3,4,3,4,3,4,3,4,3,4,3,4,3,4,3,4,3,4,3,4,3,4,3,4,3,4,3,4,3,4,3,4,3,4,3,4,3,4,3,4,3,4,3,4,3,4,3,4,3,4,3,4,3,4,3,4,3,4,3,4,3,4,3,4,3,4,3,4,3,4,3,4,3,4,3,4,3,4,3,4,3,4,3,4,3,4,3,4,3,4,3,4,3,4,3,4,3,4,3,4,3,4,3,4,3,4,3,4,3,4,3,4,15,17,35,10,3,4,3,4,3,4,3,4,3,4,3,4,3,4,3,4,3,4,3,4,3,4,3,4,3,34,28,55,57,3,4,3,4,3,4,3,4,3,4,3,4,3,4,3,4,3,4,3,4,3,4,3,4,3,4,3,4,3,4,3,4,3,4,3,4,3,4,3,4,3,4,3,4,3,4,
1,2,1,2,1,2,1,2,1,2,1,2,1,2,1,2,1,2,1,2,1,2,1,2,1,2,1,2,1,2,1,2,1,2,1,2,1,2,1,2,1,2,1,2,1,2,1,2,1,2,1,2,1,6,46,47,48,49,48,49,48,49,48,49,48,49,48,49,48,49,66,67,12,13,12,13,12,13,12,183,192,189,189,189,189,189,189,189,189,189,189,189,189,193,12,13,12,13,12,13,54,55,56,2,1,2,1,2,1,2,1,2,1,2,1,2,1,2,1,11,12,13,54,55,56,2,1,2,1,2,1,2,1,2,1,2,1,2,1,2,1,2,1,2,1,2,1,2,1,2,1,2,1,2,1,2,1,2,1,2,1,2,1,2,1,2,1,2,1,2,1,2,1,2,1,2,1,2,1,2,1,2,1,2,1,2,1,2,1,2,1,2,1,2,1,2,1,2,1,2,1,2,1,2,1,2,1,2,1,2,1,2,1,2,1,2,1,2,1,2,1,2,1,2,1,2,1,2,1,2,1,2,1,2,1,2,1,2,1,2,1,2,1,2,1,2,1,2,1,2,1,2,1,2,1,2,1,2,1,2,1,2,1,2,1,2,1,2,1,2,1,2,1,2,1,2,1,2,1,2,1,2,1,2,1,2,1,2,1,2,1,2,1,2,1,2,1,2,1,2,1,2,1,2,1,2,1,2,1,2,1,2,1,2,1,2,1,2,1,2,1,2,1,2,1,2,1,2,1,2,1,2,1,2,1,2,1,2,1,2,1,2,1,2,1,2,1,2,1,2,1,2,1,2,1,2,1,2,1,2,1,2,1,2,1,2,1,2,1,2,1,2,1,2,1,2,1,2,1,2,1,2,1,2,1,2,1,2,1,2,1,2,1,2,1,2,1,2,1,2,1,2,1,2,1,2,1,2,1,2,1,2,1,2,1,2,1,2,1,2,1,2,1,2,1,2,1,2,1,2,1,2,1,19,54,55,56,2,1,2,1,2,1,2,1,2,1,2,1,2,1,2,1,2,1,2,1,2,1,2,1,2,1,27,56,2,1,2,1,2,1,2,1,2,1,2,1,2,1,2,1,2,1,2,1,2,1,2,1,2,1,2,1,2,1,2,1,2,1,2,1,2,1,2,1,2,1,2,1,2,1,2,
3,4,3,4,3,4,3,4,3,4,3,4,3,4,3,4,3,4,3,4,3,4,3,4,3,4,3,4,3,4,3,4,3,4,3,4,3,4,3,4,3,4,3,4,3,4,3,4,3,4,3,4,8,9,59,60,61,62,61,62,61,62,61,62,61,62,61,62,61,62,70,71,16,17,16,17,16,17,187,188,189,189,189,189,189,189,189,189,189,189,189,189,189,194,16,17,16,17,17,35,55,57,3,4,3,4,3,4,3,4,3,4,3,4,3,4,3,4,3,15,16,17,55,57,3,4,3,4,3,4,3,4,3,4,3,4,3,4,3,4,3,4,3,4,3,4,3,4,3,4,3,4,3,4,3,4,3,4,3,4,3,4,3,4,3,4,3,4,3,4,3,4,3,4,3,4,3,4,3,4,3,4,3,4,3,4,3,4,3,4,3,4,3,4,3,4,3,4,3,4,3,4,3,4,3,4,3,4,3,4,3,4,3,4,3,4,3,4,3,4,3,4,3,4,3,4,3,4,3,4,3,4,3,4,3,4,3,4,3,4,3,4,3,4,3,4,3,4,3,4,3,4,3,4,3,4,3,4,3,4,3,4,3,4,3,4,3,4,3,4,3,4,3,4,3,4,3,4,3,4,3,4,3,4,3,4,3,4,3,4,3,4,3,4,3,4,3,4,3,4,3,4,3,4,3,4,3,4,3,4,3,4,3,4,3,4,3,4,3,4,3,4,3,4,3,4,3,4,3,4,3,4,3,4,3,4,3,4,3,4,3,4,3,4,3,4,3,4,3,4,3,4,3,4,3,4,3,4,3,4,3,4,3,4,3,4,3,4,3,4,3,4,3,4,3,4,3,4,3,4,3,4,3,4,3,4,3,4,3,4,3,4,3,4,3,4,3,4,3,4,3,4,3,4,3,4,3,4,3,4,3,4,3,4,3,4,3,4,3,4,3,4,3,4,3,4,3,4,3,4,3,4,3,20,55,57,3,4,3,4,3,4,3,4,3,4,3,4,3,4,3,4,3,4,3,4,3,4,3,4,3,4,3,4,3,4,3,4,3,4,3,4,3,4,3,4,3,4,3,4,3,4,3,4,3,4,3,4,3,4,3,4,3,4,3,4,3,4,3,4,3,4,3,4,3,4,3,4,3,4,3,4,
1,2,1,2,1,2,1,2,1,2,1,2,1,2,1,2,1,2,1,2,1,2,1,2,1,2,1,2,1,2,1,2,1,2,1,2,1,2,1,2,1,2,1,2,1,2,1,2,1,2,1,27,28,29,109,110,50,51,142,143,50,51,50,51,48,49,48,49,48,49,52,53,12,13,12,13,12,183,192,189,189,189,189,189,189,189,189,189,189,189,189,189,189,213,186,13,54,55,44,45,56,2,1,2,1,2,1,2,1,2,1,2,1,2,1,2,1,2,1,19,12,13,14,2,1,2,1,2,1,2,1,2,1,2,1,2,1,2,1,2,1,2,1,2,1,2,1,2,1,2,1,2,1,2,1,2,1,2,1,2,1,2,1,2,1,2,1,2,1,2,1,2,1,2,1,2,1,2,1,2,1,2,1,2,1,2,1,2,1,2,1,2,1,2,1,2,1,2,1,2,1,2,1,2,1,2,1,2,1,2,1,2,1,2,1,2,1,2,1,2,1,2,1,2,1,2,1,2,1,2,1,2,1,2,1,2,1,2,1,2,1,2,1,2,1,2,1,2,1,2,1,2,1,2,1,2,1,2,1,2,1,2,1,2,1,2,1,2,1,2,1,2,1,2,1,2,1,2,1,2,1,2,1,2,1,2,1,2,1,2,1,2,1,2,1,2,1,2,1,2,1,2,1,2,1,2,1,2,1,2,1,2,1,2,1,2,1,2,1,2,1,2,1,2,1,2,1,2,1,2,1,2,1,2,1,2,1,2,1,2,1,2,1,2,1,2,1,2,1,2,1,2,1,2,1,2,1,2,1,2,1,2,1,2,1,2,1,2,1,2,1,2,1,2,1,2,1,2,1,2,1,2,1,2,1,2,1,2,1,2,1,2,1,2,1,2,1,2,1,2,1,2,1,2,1,2,1,2,1,2,1,2,1,2,1,2,1,2,1,2,1,2,1,2,1,2,1,2,1,2,1,2,1,27,56,2,1,2,1,2,1,2,1,2,1,2,1,2,1,2,1,2,1,2,1,2,1,2,1,2,1,2,1,2,1,2,1,2,1,2,1,2,1,2,1,2,1,2,1,2,1,2,1,2,1,2,1,2,1,2,1,2,1,2,1,2,1,2,1,2,1,2,1,2,1,2,1,2,1,2,1,2,
3,4,3,4,3,4,3,4,3,4,3,4,3,4,3,4,3,4,3,4,3,4,3,4,3,4,3,4,3,4,3,4,3,4,3,4,3,4,3,4,3,4,3,4,3,4,3,4,3,4,3,4,34,28,16,115,63,64,144,145,63,64,63,64,61,62,61,62,61,62,65,17,16,17,16,17,187,188,189,189,189,189,189,189,189,189,189,189,189,189,189,189,189,189,190,191,55,57,58,57,3,4,3,4,3,4,3,4,3,4,3,4,3,4,3,4,3,4,3,20,17,35,18,3,4,3,4,3,4,3,4,3,4,3,4,3,4,3,4,3,4,3,4,3,4,3,4,3,4,3,4,3,4,3,4,3,4,3,4,3,4,3,4,3,4,3,4,3,4,3,4,3,4,3,4,3,4,3,4,3,4,3,4,3,4,3,4,3,4,3,4,3,4,3,4,3,4,3,4,3,4,3,4,3,4,3,4,3,4,3,4,3,4,3,4,3,4,3,4,3,4,3,4,3,4,3,4,3,4,3,4,3,4,3,4,3,4,3,4,3,4,3,4,3,4,3,4,3,4,3,4,3,4,3,4,3,4,3,4,3,4,3,4,3,4,3,4,3,4,3,4,3,4,3,4,3,4,3,4,3,4,3,4,3,4,3,4,3,4,3,4,3,4,3,4,3,4,3,4,3,4,3,4,3,4,3,4,3,4,3,4,3,4,3,4,3,4,3,4,3,4,3,4,3,4,3,4,3,4,3,4,3,4,3,4,3,4,3,4,3,4,3,4,3,4,3,4,3,4,3,4,3,4,3,4,3,4,3,4,3,4,3,4,3,4,3,4,3,4,3,4,3,4,3,4,3,4,3,4,3,4,3,4,3,4,3,4,3,4,3,4,3,4,3,4,3,4,3,4,3,4,3,4,3,4,3,4,3,4,3,4,3,4,3,4,3,4,3,4,3,4,3,4,3,4,3,4,3,4,3,4,3,4,3,4,3,4,3,4,3,4,3,4,3,4,3,4,3,4,3,4,3,4,3,4,3,4,3,4,3,4,3,4,3,4,3,4,3,4,3,4,3,4,3,4,3,4,3,4,3,4,3,4,3,4,3,4,3,4,3,4,3,4,3,4,3,4,3,4,3,4,3,4,3,4,3,4,3,4,3,4,3,
1,2,1,2,1,2,1,2,1,2,1,2,1,2,1,2,1,2,1,2,1,2,1,2,1,2,1,2,1,2,1,2,1,2,1,2,1,2,1,2,1,2,1,2,1,2,1,2,1,2,1,2,1,27,42,43,28,29,54,55,44,45,28,29,109,110,50,51,52,53,12,13,12,13,12,13,201,202,189,189,189,189,189,189,189,189,189,189,189,189,189,189,189,189,189,193,21,2,1,2,1,2,1,2,1,2,1,2,1,2,1,2,1,2,1,2,1,2,1,11,54,55,56,2,1,2,1,2,1,2,1,2,1,2,1,2,1,2,1,2,1,2,1,2,1,2,1,2,1,2,1,2,1,2,1,2,1,2,1,2,1,2,1,2,1,2,1,2,1,2,1,2,1,2,1,2,1,2,1,2,1,2,1,2,1,2,1,2,1,2,1,2,1,2,1,2,1,2,1,2,1,2,1,2,1,2,1,2,1,2,1,2,1,2,1,2,1,2,1,2,1,2,1,2,1,2,1,2,1,2,1,2,1,2,1,2,1,2,1,2,1,2,1,2,1,2,1,2,1,2,1,2,1,2,1,2,1,2,1,2,1,2,1,2,1,2,1,2,1,2,1,2,1,2,1,2,1,2,1,2,1,2,1,2,1,2,1,2,1,2,1,2,1,2,1,2,1,2,1,2,1,2,1,2,1,2,1,2,1,2,1,2,1,2,1,2,1,2,1,2,1,2,1,2,1,2,1,2,1,2,1,2,1,2,1,2,1,2,1,2,1,2,1,2,1,2,1,2,1,2,1,2,1,2,1,2,1,2,1,2,1,2,1,2,1,2,1,2,1,2,1,2,1,2,1,2,1,2,1,2,1,2,1,2,1,2,1,2,1,2,1,2,1,2,1,2,1,2,1,2,1,2,1,2,1,2,1,2,1,2,1,2,1,2,1,2,1,2,1,2,1,2,1,2,1,2,1,2,1,2,1,2,1,2,1,2,1,2,1,2,1,2,1,2,1,2,1,2,1,2,1,2,1,2,1,2,1,2,1,2,1,2,1,2,1,2,1,2,1,2,1,2,1,2,1,2,1,2,1,2,1,2,1,2,1,2,1,2,1,2,1,2,1,2,1,2,1,2,1,2,1,2,1,2,1,2,1,2,1,2,1,2,
3,4,3,4,3,4,3,4,3,4,3,4,3,4,3,4,3,4,3,4,3,4,3,4,3,4,3,4,3,4,3,4,3,4,3,4,3,4,3,4,3,4,3,4,3,4,3,4,3,4,3,4,3,4,3,57,34,28,55,57,58,57,34,28,16,115,63,64,65,17,35,17,16,17,16,17,16,203,204,189,189,189,189,189,189,189,189,189,189,189,189,189,189,189,189,194,16,26,5,3,4,3,4,3,4,3,4,3,4,3,4,3,4,3,4,3,4,3,4,15,55,57,3,4,3,4,3,4,3,4,3,4,3,4,3,4,3,4,3,4,3,4,3,4,3,4,3,4,3,4,3,4,3,4,3,4,3,4,3,4,3,4,3,4,3,4,3,4,3,4,3,4,3,4,3,4,3,4,3,4,3,4,3,4,3,4,3,4,3,4,3,4,3,4,3,4,3,4,3,4,3,4,3,4,3,4,3,4,3,4,3,4,3,4,3,4,3,4,3,4,3,4,3,4,3,4,3,4,3,4,3,4,3,4,3,4,3,4,3,4,3,4,3,4,3,4,3,4,3,4,3,4,3,4,3,4,3,4,3,4,3,4,3,4,3,4,3,4,3,4,3,4,3,4,3,4,3,4,3,4,3,4,3,4,3,4,3,4,3,4,3,4,3,4,3,4,3,4,3,4,3,4,3,4,3,4,3,4,3,4,3,4,3,4,3,4,3,4,3,4,3,4,3,4,3,4,3,4,3,4,3,4,3,4,3,4,3,4,3,4,3,4,3,4,3,4,3,4,3,4,3,4,3,4,3,4,3,4,3,4,3,4,3,4,3,4,3,4,3,4,3,4,3,4,3,4,3,4,3,4,3,4,3,4,3,4,3,4,3,4,3,4,3,4,3,4,3,4,3,4,3,4,3,4,3,4,3,4,3,4,3,4,3,4,3,4,3,4,3,4,3,4,3,4,3,4,3,4,3,4,3,4,3,4,3,4,3,4,3,4,3,4,3,4,3,4,3,4,3,4,3,4,3,4,3,4,3,4,3,4,3,4,3,4,3,4,3,4,3,4,3,4,3,4,3,4,3,4,3,4,3,4,3,4,3,4,3,4,3,4,3,4,3,4,3,4,3,4,3,4,3,4,3,4,3,4,3,4,3,4,3,4,
1,2,1,2,1,2,1,2,1,2,1,2,1,2,1,2,1,2,1,2,1,2,1,2,1,2,1,2,1,2,1,2,1,2,1,2,1,2,1,2,1,2,1,2,1,2,1,2,1,2,1,2,125,2,125,2,1,27,56,2,125,2,1,27,42,43,44,45,68,69,28,29,12,13,12,13,12,13,199,189,189,189,189,189,189,189,189,189,189,189,189,189,189,189,189,213,186,13,14,2,1,2,1,2,1,2,1,2,1,2,1,2,1,2,125,2,1,2,1,27,56,2,1,2,1,2,1,2,1,2,1,2,1,2,1,2,1,2,1,2,1,2,1,2,1,2,1,2,1,2,1,2,1,2,1,2,1,2,1,2,1,2,1,2,1,2,1,2,1,2,1,2,1,2,1,2,1,2,1,2,1,2,1,2,1,2,1,2,1,2,1,2,1,2,1,2,1,2,1,2,1,2,1,2,1,2,1,2,1,2,1,2,1,2,1,2,1,2,1,2,1,2,1,2,1,2,1,2,1,2,1,2,1,2,1,2,1,2,1,2,1,2,1,2,1,2,1,2,1,2,1,2,1,2,1,2,1,2,1,2,1,2,1,2,1,2,1,2,1,2,1,2,1,2,1,2,1,2,1,2,1,2,1,2,1,2,1,2,1,2,1,2,1,2,1,2,1,2,1,2,1,2,1,2,1,2,1,2,1,2,1,2,1,2,1,2,1,2,1,2,1,2,1,2,1,2,1,2,1,2,1,2,1,2,1,2,1,2,1,2,1,2,1,2,1,2,1,2,1,2,1,2,1,2,1,2,1,2,1,2,1,2,1,2,1,2,1,2,1,2,1,2,1,2,1,2,1,2,1,2,1,2,1,2,1,2,1,2,1,2,1,2,1,2,1,2,1,2,1,2,1,2,1,2,1,2,1,2,1,2,1,2,1,2,1,2,1,2,1,2,1,2,1,2,1,2,1,2,1,2,1,2,1,2,1,2,1,2,1,2,1,2,1,2,1,2,1,2,1,2,1,2,1,2,1,2,1,2,1,2,1,2,1,2,1,2,1,2,1,2,1,2,1,2,1,2,1,2,1,2,1,2,1,2,1,2,1,2,1,2,1,2,1,2,1,2,1,2,1,2,1,2,1,2,1,2,1,2,1,2,1,2,
3,4,3,4,3,4,3,4,3,4,3,4,3,4,3,4,3,4,3,4,3,4,3,4,3,4,3,4,3,4,3,4,3,4,3,4,3,4,3,4,3,4,3,4,3,4,3,4,3,4,3,4,126,127,126,127,3,4,3,4,126,127,3,4,3,57,58,57,3,4,34,28,16,17,16,17,16,17,200,189,189,189,189,189,189,189,189,189,189,189,189,189,189,189,189,189,190,191,18,3,4,3,4,3,4,3,4,3,4,3,4,3,4,3,126,127,3,4,3,4,3,4,3,4,3,4,3,4,3,4,3,4,3,4,3,4,3,4,3,4,3,4,3,4,3,4,3,4,3,4,3,4,3,4,3,4,3,4,3,4,3,4,3,4,3,4,3,4,3,4,3,4,3,4,3,4,3,4,3,4,3,4,3,4,3,4,3,4,3,4,3,4,3,4,3,4,3,4,3,4,3,4,3,4,3,4,3,4,3,4,3,4,3,4,3,4,3,4,3,4,3,4,3,4,3,4,3,4,3,4,3,4,3,4,3,4,3,4,3,4,3,4,3,4,3,4,3,4,3,4,3,4,3,4,3,4,3,4,3,4,3,4,3,4,3,4,3,4,3,4,3,4,3,4,3,4,3,4,3,4,3,4,3,4,3,4,3,4,3,4,3,4,3,4,3,4,3,4,3,4,3,4,3,4,3,4,3,4,3,4,3,4,3,4,3,4,3,4,3,4,3,4,3,4,3,4,3,4,3,4,3,4,3,4,3,4,3,4,3,4,3,4,3,4,3,4,3,4,3,4,3,4,3,4,3,4,3,4,3,4,3,4,3,4,3,4,3,4,3,4,3,4,3,4,3,4,3,4,3,4,3,4,3,4,3,4,3,4,3,4,3,4,3,4,3,4,3,4,3,4,3,4,3,4,3,4,3,4,3,4,3,4,3,4,3,4,3,4,3,4,3,4,3,4,3,4,3,4,3,4,3,4,3,4,3,4,3,4,3,4,3,4,3,4,3,4,3,4,3,4,3,4,3,4,3,4,3,4,3,4,3,4,3,4,3,4,3,4,3,4,3,4,3,4,3,4,3,4,3,4,3,4,3,4,3,4,3,4,3,4,3,4,3,4,3,4,3,4,3,4,3,4,3,4,3,4,3,4,3,4,3,4,
1,2,1,2,1,2,1,2,1,2,1,2,1,2,1,2,1,2,1,2,1,2,1,2,1,2,1,2,1,2,1,2,1,2,1,2,1,2,1,2,1,2,1,2,1,2,1,2,1,2,125,2,1,2,1,2,125,2,125,2,125,2,125,2,125,2,1,2,1,2,1,27,28,29,12,13,12,13,201,202,189,189,189,189,189,189,189,189,189,189,189,189,189,189,189,189,189,193,21,2,1,2,1,2,1,2,1,2,1,2,1,2,1,2,1,2,125,2,1,2,125,2,1,2,125,2,1,2,1,2,1,2,1,2,1,2,1,2,1,2,1,2,1,2,1,2,1,2,1,2,1,2,1,2,1,2,1,2,1,2,1,2,1,2,1,2,1,2,1,2,1,2,1,2,1,2,1,2,1,2,1,2,1,2,1,2,1,2,1,2,1,2,1,2,1,2,1,2,1,2,1,2,1,2,1,2,1,2,1,2,1,2,1,2,1,2,1,2,1,2,1,2,1,2,1,2,1,2,1,2,1,2,1,2,1,2,1,2,1,2,1,2,1,2,1,2,1,2,1,2,1,2,1,2,1,2,1,2,1,2,1,2,1,2,1,2,1,2,1,2,1,2,1,2,1,2,1,2,1,2,1,2,1,2,1,2,1,2,1,2,1,2,1,2,1,2,1,2,1,2,1,2,1,2,1,2,1,2,1,2,1,2,1,2,1,2,1,2,1,2,1,2,1,2,1,2,1,2,1,2,1,2,1,2,1,2,1,2,1,2,1,2,1,2,1,2,1,2,1,2,1,2,1,2,1,2,1,2,1,2,1,2,1,2,1,2,1,2,1,2,1,2,1,2,1,2,1,2,1,2,1,2,1,2,1,2,1,2,1,2,1,2,1,2,1,2,1,2,1,2,1,2,1,2,1,2,1,2,1,2,1,2,1,2,1,2,1,2,1,2,1,2,1,2,1,2,1,2,1,2,1,2,1,2,1,2,1,2,1,2,1,2,1,2,1,2,1,2,1,2,1,2,1,2,1,2,1,2,1,2,1,2,1,2,1,2,1,2,1,2,1,2,1,2,1,2,1,2,1,2,1,2,1,2,1,2,1,2,1,2,1,2,1,2,1,2,1,2,1,2,1,2,1,2,1,2,1,2,1,2,1,2,
3,4,3,4,3,4,3,4,3,4,3,4,3,4,3,4,3,4,3,4,3,4,3,4,3,4,3,4,3,4,3,4,3,4,3,4,3,4,3,4,3,4,3,4,3,4,3,4,3,4,126,127,3,4,3,4,126,127,126,127,126,127,126,127,126,127,3,4,3,4,3,4,34,28,35,17,16,17,16,203,204,189,189,189,189,189,189,196,197,198,197,198,204,189,189,189,189,194,16,26,22,23,24,25,5,3,4,3,4,3,4,3,4,3,4,3,126,127,3,4,126,127,3,4,126,127,3,4,3,4,3,4,3,4,3,4,3,4,3,4,3,4,3,4,3,4,3,4,3,4,3,4,3,4,3,4,3,4,3,4,3,4,3,4,3,4,3,4,3,4,3,4,3,4,3,4,3,4,3,4,3,4,3,4,3,4,3,4,3,4,3,4,3,4,3,4,3,4,3,4,3,4,3,4,3,4,3,4,3,4,3,4,3,4,3,4,3,4,3,4,3,4,3,4,3,4,3,4,3,4,3,4,3,4,3,4,3,4,3,4,3,4,3,4,3,4,3,4,3,4,3,4,3,4,3,4,3,4,3,4,3,4,3,4,3,4,3,4,3,4,3,4,3,4,3,4,3,4,3,4,3,4,3,4,3,4,3,4,3,4,3,4,3,4,3,4,3,4,3,4,3,4,3,4,3,4,3,4,3,4,3,4,3,4,3,4,3,4,3,4,3,4,3,4,3,4,3,4,3,4,3,4,3,4,3,4,3,4,3,4,3,4,3,4,3,4,3,4,3,4,3,4,3,4,3,4,3,4,3,4,3,4,3,4,3,4,3,4,3,4,3,4,3,4,3,4,3,4,3,4,3,4,3,4,3,4,3,4,3,4,3,4,3,4,3,4,3,4,3,4,3,4,3,4,3,4,3,4,3,4,3,4,3,4,3,4,3,4,3,4,3,4,3,4,3,4,3,4,3,4,3,4,3,4,3,4,3,4,3,4,3,4,3,4,3,4,3,4,3,4,3,4,3,4,3,4,3,4,3,4,3,4,3,4,3,4,3,4,3,4,3,4,3,4,3,4,3,4,3,4,3,4,3,4,3,4,3,4,3,4,3,4,3,4,3,4,3,4,3,4,3,4,3,4,3,4,3,4,3,4,3,4,
1,2,1,2,1,2,1,2,1,2,1,2,1,2,1,2,1,2,1,2,1,2,1,2,1,2,1,2,1,2,1,2,1,2,1,2,1,2,1,2,1,2,1,2,1,2,1,2,1,2,1,2,1,2,125,2,125,2,125,2,125,2,1,2,125,2,125,2,1,2,1,2,1,27,42,43,28,29,12,13,201,202,189,189,189,189,195,13,12,13,12,13,201,202,189,189,189,193,12,13,163,164,165,166,21,2,1,2,1,2,1,2,1,2,1,2,1,2,1,2,1,2,125,2,1,2,1,2,1,2,1,2,1,2,1,2,1,2,1,2,1,2,1,2,1,2,1,2,1,2,1,2,1,2,1,2,1,2,1,2,1,2,1,2,1,2,1,2,1,2,1,2,1,2,1,2,1,2,1,2,1,2,1,2,1,2,1,2,1,2,1,2,1,2,1,2,1,2,1,2,1,2,1,2,1,2,1,2,1,2,1,2,1,2,1,2,1,2,1,2,1,2,1,2,1,2,1,2,1,2,1,2,1,2,1,2,1,2,1,2,1,2,1,2,1,2,1,2,1,2,1,2,1,2,1,2,1,2,1,2,1,2,1,2,1,2,1,2,1,2,1,2,1,2,1,2,1,2,1,2,1,2,1,2,1,2,1,2,1,2,1,2,1,2,1,2,1,2,1,2,1,2,1,2,1,2,1,2,1,2,1,2,1,2,1,2,1,2,1,2,1,2,1,2,1,2,1,2,1,2,1,2,1,2,1,2,1,2,1,2,1,2,1,2,1,2,1,2,1,2,1,2,1,2,1,2,1,2,1,2,1,2,1,2,1,2,1,2,1,2,1,2,1,2,1,2,1,2,1,2,1,2,1,2,1,2,1,2,1,2,1,2,1,2,1,2,1,2,1,2,1,2,1,2,1,2,1,2,1,2,1,2,1,2,1,2,1,2,1,2,1,2,1,2,1,2,1,2,1,2,1,2,1,2,1,2,1,2,1,2,1,2,1,2,1,2,1,2,1,2,1,2,1,2,1,2,1,2,1,2,1,2,1,2,1,2,1,2,1,2,1,2,1,2,1,2,1,2,1,2,1,2,1,2,1,2,1,2,1,2,1,2,1,2,1,2,1,2,1,2,1,2,1,2,1,2,1,2,1,2,1,2,
3,4,3,4,3,4,3,4,3,4,3,4,3,4,3,4,3,4,3,4,3,4,3,4,3,4,3,4,3,4,3,4,3,4,3,4,3,4,3,4,3,4,3,4,3,4,3,4,3,4,3,4,3,4,126,127,126,127,126,127,126,127,3,4,126,127,126,127,3,4,3,4,3,4,3,57,34,28,16,17,16,203,197,198,197,198,16,17,17,35,16,17,16,203,204,189,189,194,16,17,169,170,171,172,16,26,5,3,4,4,22,23,24,25,22,23,24,25,24,25,5,3,126,127,3,4,3,4,3,4,3,4,3,4,3,4,3,4,3,4,3,4,3,4,3,4,3,4,3,4,3,4,3,4,3,4,3,4,3,4,3,4,3,4,3,4,3,4,3,4,3,4,3,4,3,4,3,4,3,4,3,4,3,4,3,4,3,4,3,4,3,4,3,4,3,4,3,4,3,4,3,4,3,4,3,4,3,4,3,4,3,4,3,4,3,4,3,4,3,4,3,4,3,4,3,4,3,4,3,4,3,4,3,4,3,4,3,4,3,4,3,4,3,4,3,4,3,4,3,4,3,4,3,4,3,4,3,4,3,4,3,4,3,4,3,4,3,4,3,4,3,4,3,4,3,4,3,4,3,4,3,4,3,4,3,4,3,4,3,4,3,4,3,4,3,4,3,4,3,4,3,4,3,4,3,4,3,4,3,4,3,4,3,4,3,4,3,4,3,4,3,4,3,4,3,4,3,4,3,4,3,4,3,4,3,4,3,4,3,4,3,4,3,4,3,4,3,4,3,4,3,4,3,4,3,4,3,4,3,4,3,4,3,4,3,4,3,4,3,4,3,4,3,4,3,4,3,4,3,4,3,4,3,4,3,4,3,4,3,4,3,4,3,4,3,4,3,4,3,4,3,4,3,4,3,4,3,4,3,4,3,4,3,4,3,4,3,4,3,4,3,4,3,4,3,4,3,4,3,4,3,4,3,4,3,4,3,4,3,4,3,4,3,4,3,4,3,4,3,4,3,4,3,4,3,4,3,4,3,4,3,4,3,4,3,4,3,4,3,4,3,4,3,4,3,4,3,4,3,4,3,4,3,4,3,4,3,4,3,4,3,4,3,4,3,4,3,4,3,4,3,4,3,4,3,4,3,4,3,4,3,4,
1,2,1,2,1,2,1,2,1,2,1,2,1,2,1,2,1,2,1,2,1,2,1,2,1,2,1,2,1,2,1,2,1,2,1,2,1,2,1,2,1,2,1,2,1,2,1,2,1,2,1,2,125,2,125,2,125,2,125,2,1,2,125,2,1,2,1,2,1,2,1,2,1,2,1,2,1,19,12,13,12,13,12,13,12,13,12,13,54,55,42,43,28,29,199,189,189,213,186,13,173,174,175,176,12,13,21,2,1,6,12,183,184,185,186,13,12,13,54,55,56,2,1,2,1,2,1,2,1,2,1,2,1,2,1,2,1,2,1,2,1,2,1,2,1,2,1,2,1,2,1,2,1,2,1,2,1,2,1,2,1,2,1,2,1,2,1,2,1,2,1,2,1,2,1,2,1,2,1,2,1,2,1,2,1,2,1,2,1,2,1,2,1,2,1,2,1,2,1,2,1,2,1,2,1,2,1,2,1,2,1,2,1,2,1,2,1,2,1,2,1,2,1,2,1,2,1,2,1,2,1,2,1,2,1,2,1,2,1,2,1,2,1,2,1,2,1,2,1,2,1,2,1,2,1,2,1,2,1,2,1,2,1,2,1,2,1,2,1,2,1,2,1,2,1,2,1,2,1,2,1,2,1,2,1,2,1,2,1,2,1,2,1,2,1,2,1,2,1,2,1,2,1,2,1,2,1,2,1,2,1,2,1,2,1,2,1,2,1,2,1,2,1,2,1,2,1,2,1,2,1,2,1,2,1,2,1,2,1,2,1,2,1,2,1,2,1,2,1,2,1,2,1,2,1,2,1,2,1,2,1,2,1,2,1,2,1,2,1,2,1,2,1,2,1,2,1,2,1,2,1,2,1,2,1,2,1,2,1,2,1,2,1,2,1,2,1,2,1,2,1,2,1,2,1,2,1,2,1,2,1,2,1,2,1,2,1,2,1,2,1,2,1,2,1,2,1,2,1,2,1,2,1,2,1,2,1,2,1,2,1,2,1,2,1,2,1,2,1,2,1,2,1,2,1,2,1,2,1,2,1,2,1,2,1,2,1,2,1,2,1,2,1,2,1,2,1,2,1,2,1,2,1,2,1,2,1,2,1,2,1,2,1,2,1,2,1,2,1,2,1,2,1,2,1,2,1,2,1,2,1,2,
3,4,3,4,3,4,3,4,3,4,3,4,3,4,3,4,3,4,3,4,3,4,3,4,3,4,3,4,3,4,3,4,3,4,3,4,3,4,3,4,3,4,3,4,3,4,3,4,3,4,3,4,126,127,126,127,126,127,126,127,3,4,126,127,3,4,3,4,3,4,3,4,3,4,3,4,3,20,16,17,16,17,16,17,16,17,16,17,55,57,125,127,34,28,200,189,189,189,190,191,177,178,179,180,16,17,16,26,8,9,187,188,189,189,190,191,17,35,55,57,3,4,3,4,3,4,3,4,3,4,3,4,3,4,3,4,3,4,3,4,3,4,3,4,3,4,3,4,3,4,3,4,3,4,3,4,3,4,3,4,3,4,3,4,3,4,3,4,3,4,3,4,3,4,3,4,3,4,3,4,3,4,3,4,3,4,3,4,3,4,3,4,3,4,3,4,3,4,3,4,3,4,3,4,3,4,3,4,3,4,3,4,3,4,3,4,3,4,3,4,3,4,3,4,3,4,3,4,3,4,3,4,3,4,3,4,3,4,3,4,3,4,3,4,3,4,3,4,3,4,3,4,3,4,3,4,3,4,3,4,3,4,3,4,3,4,3,4,3,4,3,4,3,4,3,4,3,4,3,4,3,4,3,4,3,4,3,4,3,4,3,4,3,4,3,4,3,4,3,4,3,4,3,4,3,4,3,4,3,4,3,4,3,4,3,4,3,4,3,4,3,4,3,4,3,4,3,4,3,4,3,4,3,4,3,4,3,4,3,4,3,4,3,4,3,4,3,4,3,4,3,4,3,4,3,4,3,4,3,4,3,4,3,4,3,4,3,4,3,4,3,4,3,4,3,4,3,4,3,4,3,4,3,4,3,4,3,4,3,4,3,4,3,4,3,4,3,4,3,4,3,4,3,4,3,4,3,4,3,4,3,4,3,4,3,4,3,4,3,4,3,4,3,4,3,4,3,4,3,4,3,4,3,4,3,4,3,4,3,4,3,4,3,4,3,4,3,4,3,4,3,4,3,4,3,4,3,4,3,4,3,4,3,4,3,4,3,4,3,4,3,4,3,4,3,4,3,4,3,4,3,4,3,4,3,4,3,4,3,4,3,4,3,4,3,4,3,4,3,4,3,4,3,4,3,4,3,4,3,4,3,4,
1,2,1,2,1,2,1,2,1,2,1,2,1,2,1,2,1,2,1,2,1,2,1,2,1,2,1,2,1,2,1,2,1,2,1,2,1,2,1,2,1,2,1,2,1,2,1,2,1,2,1,2,1,2,1,2,1,2,125,2,125,2,125,2,125,2,125,2,125,2,125,2,1,2,1,2,1,27,28,29,12,13,12,13,54,55,44,45,56,2,125,2,125,11,201,202,189,189,195,13,12,13,12,13,12,13,12,183,184,185,192,189,189,189,195,13,54,55,56,2,1,2,1,2,1,2,1,2,1,2,1,2,1,2,1,2,1,2,1,2,1,2,1,2,1,2,1,2,1,2,1,2,1,2,1,2,1,2,1,2,1,2,1,2,1,2,1,2,1,2,1,2,1,2,1,2,1,2,1,2,1,2,1,2,1,2,1,2,1,2,1,2,1,2,1,2,1,2,1,2,1,2,1,2,1,2,1,2,1,2,1,2,1,2,1,2,1,2,1,2,1,2,1,2,1,2,1,2,1,2,1,2,1,2,1,2,1,2,1,2,1,2,1,2,1,2,1,2,1,2,1,2,1,2,1,2,1,2,1,2,1,2,1,2,1,2,1,2,1,2,1,2,1,2,1,2,1,2,1,2,1,2,1,2,1,2,1,2,1,2,1,2,1,2,1,2,1,2,1,2,1,2,1,2,1,2,1,2,1,2,1,2,1,2,1,2,1,2,1,2,1,2,1,2,1,2,1,2,1,2,1,2,1,2,1,2,1,2,1,2,1,2,1,2,1,2,1,2,1,2,1,2,1,2,1,2,1,2,1,2,1,2,1,2,1,2,1,2,1,2,1,2,1,2,1,2,1,2,1,2,1,2,1,2,1,2,1,2,1,2,1,2,1,2,1,2,1,2,1,2,1,2,1,2,1,2,1,2,1,2,1,2,1,2,1,2,1,2,1,2,1,2,1,2,1,2,1,2,1,2,1,2,1,2,1,2,1,2,1,2,1,2,1,2,1,2,1,2,1,2,1,2,1,2,1,2,1,2,1,2,1,2,1,2,1,2,1,2,1,2,1,2,1,2,1,2,1,2,1,2,1,2,1,2,1,2,1,2,1,2,1,2,1,2,1,2,1,2,1,2,1,2,1,2,1,2,1,2,1,2,1,2,
3,4,3,4,3,4,3,4,3,4,3,4,3,4,3,4,3,4,3,4,3,4,3,4,3,4,3,4,3,4,3,4,3,4,3,4,3,4,3,4,3,4,3,4,3,4,3,4,3,4,3,4,3,4,3,4,3,4,126,127,126,127,126,127,126,127,126,127,126,127,126,127,3,4,3,4,3,4,34,28,35,17,16,17,55,57,58,57,3,4,126,127,126,15,16,203,197,198,16,17,16,17,16,17,16,17,187,188,189,189,189,189,189,196,16,17,55,57,3,4,3,4,3,4,3,4,3,4,3,4,3,4,3,4,3,4,3,4,3,4,3,4,3,4,3,4,3,4,3,4,3,4,3,4,3,4,3,4,3,4,3,4,3,4,3,4,3,4,3,4,3,4,3,4,3,4,3,4,3,4,3,4,3,4,3,4,3,4,3,4,3,4,3,4,3,4,3,4,3,4,3,4,3,4,3,4,3,4,3,4,3,4,3,4,3,4,3,4,3,4,3,4,3,4,3,4,3,4,3,4,3,4,3,4,3,4,3,4,3,4,3,4,3,4,3,4,3,4,3,4,3,4,3,4,3,4,3,4,3,4,3,4,3,4,3,4,3,4,3,4,3,4,3,4,3,4,3,4,3,4,3,4,3,4,3,4,3,4,3,4,3,4,3,4,3,4,3,4,3,4,3,4,3,4,3,4,3,4,3,4,3,4,3,4,3,4,3,4,3,4,3,4,3,4,3,4,3,4,3,4,3,4,3,4,3,4,3,4,3,4,3,4,3,4,3,4,3,4,3,4,3,4,3,4,3,4,3,4,3,4,3,4,3,4,3,4,3,4,3,4,3,4,3,4,3,4,3,4,3,4,3,4,3,4,3,4,3,4,3,4,3,4,3,4,3,4,3,4,3,4,3,4,3,4,3,4,3,4,3,4,3,4,3,4,3,4,3,4,3,4,3,4,3,4,3,4,3,4,3,4,3,4,3,4,3,4,3,4,3,4,3,4,3,4,3,4,3,4,3,4,3,4,3,4,3,4,3,4,3,4,3,4,3,4,3,4,3,4,3,4,3,4,3,4,3,4,3,4,3,4,3,4,3,4,3,4,3,4,3,4,3,4,3,4,3,4,3,4,3,4,3,4,3,4,3,4,3,4,3,4,3,4,
1,2,1,2,1,2,1,2,1,2,1,2,1,2,1,2,1,2,1,2,1,2,1,2,1,2,1,2,1,2,1,2,1,2,1,2,1,2,1,2,1,2,1,2,1,2,1,2,1,2,1,2,125,2,1,2,1,2,1,2,125,2,125,2,125,2,125,2,125,2,125,2,125,2,125,2,1,2,1,27,42,43,44,45,56,2,1,2,125,2,125,2,1,2,28,29,54,55,44,45,42,43,68,69,28,29,201,202,189,189,189,189,195,13,54,55,56,2,1,2,1,2,1,2,1,2,1,2,1,2,1,2,1,2,1,2,1,2,1,2,1,2,1,2,1,2,1,2,1,2,1,2,1,2,1,2,1,2,1,2,1,2,1,2,1,2,1,2,1,2,1,2,1,2,1,2,1,2,1,2,1,2,1,2,1,2,1,2,1,2,1,2,1,2,1,2,1,2,1,2,1,2,1,2,1,2,1,2,1,2,1,2,1,2,1,2,1,2,1,2,1,2,1,2,1,2,1,2,1,2,1,2,1,2,1,2,1,2,1,2,1,2,1,2,1,2,1,2,1,2,1,2,1,2,1,2,1,2,1,2,1,2,1,2,1,2,1,2,1,2,1,2,1,2,1,2,1,2,1,2,1,2,1,2,1,2,1,2,1,2,1,2,1,2,1,2,1,2,1,2,1,2,1,2,1,2,1,2,1,2,1,2,1,2,1,2,1,2,1,2,1,2,1,2,1,2,1,2,1,2,1,2,1,2,1,2,1,2,1,2,1,2,1,2,1,2,1,2,1,2,1,2,1,2,1,2,1,2,1,2,1,2,1,2,1,2,1,2,1,2,1,2,1,2,1,2,1,2,1,2,1,2,1,2,1,2,1,2,1,2,1,2,1,2,1,2,1,2,1,2,1,2,1,2,1,2,1,2,1,2,1,2,1,2,1,2,1,2,1,2,1,2,1,2,1,2,1,2,1,2,1,2,1,2,1,2,1,2,1,2,1,2,1,2,1,2,1,2,1,2,1,2,1,2,1,2,1,2,1,2,1,2,1,2,1,2,1,2,1,2,1,2,1,2,1,2,1,2,1,2,1,2,1,2,1,2,1,2,1,2,1,2,1,2,1,2,1,2,1,2,1,2,1,2,1,2,1,2,1,2,1,2,
3,4,3,4,3,4,3,4,3,4,3,4,3,4,3,4,3,4,3,4,3,4,3,4,3,4,3,4,3,4,3,4,3,4,3,4,3,4,3,4,3,4,3,4,3,4,3,4,3,4,3,4,126,127,3,4,3,4,3,4,126,127,126,127,126,127,126,127,126,127,126,127,126,127,126,127,3,4,3,4,3,57,58,57,3,4,3,4,126,127,126,127,3,4,34,28,55,57,58,57,3,57,3,4,34,28,16,203,197,198,197,198,16,17,55,57,3,4,3,4,3,4,3,4,3,4,3,4,3,4,3,4,3,4,3,4,3,4,3,4,3,4,3,4,3,4,3,4,3,4,3,4,3,4,3,4,3,4,3,4,3,4,3,4,3,4,3,4,3,4,3,4,3,4,3,4,3,4,3,4,3,4,3,4,3,4,3,4,3,4,3,4,3,4,3,4,3,4,3,4,3,4,3,4,3,4,3,4,3,4,3,4,3,4,3,4,3,4,3,4,3,4,3,4,3,4,3,4,3,4,3,4,3,4,3,4,3,4,3,4,3,4,3,4,3,4,3,4,3,4,3,4,3,4,3,4,3,4,3,4,3,4,3,4,3,4,3,4,3,4,3,4,3,4,3,4,3,4,3,4,3,4,3,4,3,4,3,4,3,4,3,4,3,4,3,4,3,4,3,4,3,4,3,4,3,4,3,4,3,4,3,4,3,4,3,4,3,4,3,4,3,4,3,4,3,4,3,4,3,4,3,4,3,4,3,4,3,4,3,4,3,4,3,4,3,4,3,4,3,4,3,4,3,4,3,4,3,4,3,4,3,4,3,4,3,4,3,4,3,4,3,4,3,4,3,4,3,4,3,4,3,4,3,4,3,4,3,4,3,4,3,4,3,4,3,4,3,4,3,4,3,4,3,4,3,4,3,4,3,4,3,4,3,4,3,4,3,4,3,4,3,4,3,4,3,4,3,4,3,4,3,4,3,4,3,4,3,4,3,4,3,4,3,4,3,4,3,4,3,4,3,4,3,4,3,4,3,4,3,4,3,4,3,4,3,4,3,4,3,4,3,4,3,4,3,4,3,4,3,4,3,4,3,4,3,4,3,4,3,4,3,4,3,4,3,4,3,4,3,4,3,4,3,4,3,4,3,4,3,4,3,4,
1,2,1,2,1,2,1,2,1,2,1,2,1,2,1,2,1,2,1,2,1,2,1,2,1,2,1,2,1,2,1,2,1,2,1,2,1,2,1,2,1,2,1,2,1,2,1,2,1,2,1,2,1,2,1,2,125,2,1,2,1,2,1,2,1,2,125,2,125,2,125,2,125,2,125,2,125,2,125,2,125,2,125,2,125,2,1,2,125,2,125,2,125,2,1,27,56,2,1,2,1,2,1,2,1,27,42,43,44,45,68,69,44,45,56,2,1,2,1,2,1,2,1,2,1,2,1,2,1,2,1,2,1,2,1,2,1,2,1,2,1,2,1,2,1,2,1,2,1,2,1,2,1,2,1,2,1,2,1,2,1,2,1,2,1,2,1,2,1,2,1,2,1,2,1,2,1,2,1,2,1,2,1,2,1,2,1,2,1,2,1,2,1,2,1,2,1,2,1,2,1,2,1,2,1,2,1,2,1,2,1,2,1,2,1,2,1,2,1,2,1,2,1,2,1,2,1,2,1,2,1,2,1,2,1,2,1,2,1,2,1,2,1,2,1,2,1,2,1,2,1,2,1,2,1,2,1,2,1,2,1,2,1,2,1,2,1,2,1,2,1,2,1,2,1,2,1,2,1,2,1,2,1,2,1,2,1,2,1,2,1,2,1,2,1,2,1,2,1,2,1,2,1,2,1,2,1,2,1,2,1,2,1,2,1,2,1,2,1,2,1,2,1,2,1,2,1,2,1,2,1,2,1,2,1,2,1,2,1,2,1,2,1,2,1,2,1,2,1,2,1,2,1,2,1,2,1,2,1,2,1,2,1,2,1,2,1,2,1,2,1,2,1,2,1,2,1,2,1,2,1,2,1,2,1,2,1,2,1,2,1,2,1,2,1,2,1,2,1,2,1,2,1,2,1,2,1,2,1,2,1,2,1,2,1,2,1,2,1,2,1,2,1,2,1,2,1,2,1,2,1,2,1,2,1,2,1,2,1,2,1,2,1,2,1,2,1,2,1,2,1,2,1,2,1,2,1,2,1,2,1,2,1,2,1,2,1,2,1,2,1,2,1,2,1,2,1,2,1,2,1,2,1,2,1,2,1,2,1,2,1,2,1,2,1,2,1,2,1,2,1,2,1,2,1,2,1,2,1,2,1,2,
3,4,3,4,3,4,3,4,3,4,3,4,3,4,3,4,3,4,3,4,3,4,3,4,3,4,3,4,3,4,3,4,3,4,3,4,3,4,3,4,3,4,3,4,3,4,3,4,3,4,3,4,3,4,3,4,126,127,3,4,3,4,3,4,3,4,126,127,126,127,126,127,126,127,126,127,126,127,126,127,126,127,126,127,126,127,3,4,126,127,126,127,126,127,3,4,3,4,3,4,3,4,3,4,3,4,3,57,58,57,3,4,58,57,3,4,3,4,3,4,3,4,3,4,3,4,3,4,3,4,3,4,3,4,3,4,3,4,3,4,3,4,3,4,3,4,3,4,3,4,3,4,3,4,3,4,3,4,3,4,3,4,3,4,3,4,3,4,3,4,3,4,3,4,3,4,3,4,3,4,3,4,3,4,3,4,3,4,3,4,3,4,3,4,3,4,3,4,3,4,3,4,3,4,3,4,3,4,3,4,3,4,3,4,3,4,3,4,3,4,3,4,3,4,3,4,3,4,3,4,3,4,3,4,3,4,3,4,3,4,3,4,3,4,3,4,3,4,3,4,3,4,3,4,3,4,3,4,3,4,3,4,3,4,3,4,3,4,3,4,3,4,3,4,3,4,3,4,3,4,3,4,3,4,3,4,3,4,3,4,3,4,3,4,3,4,3,4,3,4,3,4,3,4,3,4,3,4,3,4,3,4,3,4,3,4,3,4,3,4,3,4,3,4,3,4,3,4,3,4,3,4,3,4,3,4,3,4,3,4,3,4,3,4,3,4,3,4,3,4,3,4,3,4,3,4,3,4,3,4,3,4,3,4,3,4,3,4,3,4,3,4,3,4,3,4,3,4,3,4,3,4,3,4,3,4,3,4,3,4,3,4,3,4,3,4,3,4,3,4,3,4,3,4,3,4,3,4,3,4,3,4,3,4,3,4,3,4,3,4,3,4,3,4,3,4,3,4,3,4,3,4,3,4,3,4,3,4,3,4,3,4,3,4,3,4,3,4,3,4,3,4,3,4,3,4,3,4,3,4,3,4,3,4,3,4,3,4,3,4,3,4,3,4,3,4,3,4,3,4,3,4,3,4,3,4,3,4,3,4,3,4,3,4,3,4,3,4,3,4,3,4,3,4,3,4,3,4,3,4,3,4,
1,2,1,2,1,2,1,2,1,2,1,2,1,2,1,2,1,2,1,2,1,2,1,2,1,2,1,2,1,2,1,2,1,2,1,2,1,2,1,2,1,2,1,2,1,2,1,2,1,2,1,2,1,2,1,2,1,2,1,2,1,2,125,2,1,2,1,2,125,2,125,2,125,2,1,2,125,2,125,2,125,2,125,2,125,2,125,2,125,2,125,2,1,2,125,2,1,2,1,2,1,2,1,2,1,2,1,2,1,2,1,2,1,2,1,2,1,2,1,2,1,2,1,2,1,2,1,2,1,2,1,2,1,2,1,2,1,2,1,2,1,2,1,2,1,2,1,2,1,2,1,2,1,2,1,2,1,2,1,2,1,2,1,2,1,2,1,2,1,2,1,2,1,2,1,2,1,2,1,2,1,2,1,2,1,2,1,2,1,2,1,2,1,2,1,2,1,2,1,2,1,2,1,2,1,2,1,2,1,2,1,2,1,2,1,2,1,2,1,2,1,2,1,2,1,2,1,2,1,2,1,2,1,2,1,2,1,2,1,2,1,2,1,2,1,2,1,2,1,2,1,2,1,2,1,2,1,2,1,2,1,2,1,2,1,2,1,2,1,2,1,2,1,2,1,2,1,2,1,2,1,2,1,2,1,2,1,2,1,2,1,2,1,2,1,2,1,2,1,2,1,2,1,2,1,2,1,2,1,2,1,2,1,2,1,2,1,2,1,2,1,2,1,2,1,2,1,2,1,2,1,2,1,2,1,2,1,2,1,2,1,2,1,2,1,2,1,2,1,2,1,2,1,2,1,2,1,2,1,2,1,2,1,2,1,2,1,2,1,2,1,2,1,2,1,2,1,2,1,2,1,2,1,2,1,2,1,2,1,2,1,2,1,2,1,2,1,2,1,2,1,2,1,2,1,2,1,2,1,2,1,2,1,2,1,2,1,2,1,2,1,2,1,2,1,2,1,2,1,2,1,2,1,2,1,2,1,2,1,2,1,2,1,2,1,2,1,2,1,2,1,2,1,2,1,2,1,2,1,2,1,2,1,2,1,2,1,2,1,2,1,2,1,2,1,2,1,2,1,2,1,2,1,2,1,2,1,2,1,2,1,2,1,2,1,2,1,2,1,2,1,2,1,2,1,2,1,2,1,2,1,2,
3,4,3,4,3,4,3,4,3,4,3,4,3,4,3,4,3,4,3,4,3,4,3,4,3,4,3,4,3,4,3,4,3,4,3,4,3,4,3,4,3,4,3,4,3,4,3,4,3,4,3,4,3,4,3,4,3,4,3,4,3,4,126,127,3,4,3,4,126,127,126,127,126,127,3,4,126,127,126,127,126,127,126,127,126,127,126,127,126,127,126,127,3,4,126,127,3,4,3,4,3,4,3,4,3,4,3,4,3,4,3,4,3,4,3,4,3,4,3,4,3,4,3,4,3,4,3,4,3,4,3,4,3,4,3,4,3,4,3,4,3,4,3,4,3,4,3,4,3,4,3,4,3,4,3,4,3,4,3,4,3,4,3,4,3,4,3,4,3,4,3,4,3,4,3,4,3,4,3,4,3,4,3,4,3,4,3,4,3,4,3,4,3,4,3,4,3,4,3,4,3,4,3,4,3,4,3,4,3,4,3,4,3,4,3,4,3,4,3,4,3,4,3,4,3,4,3,4,3,4,3,4,3,4,3,4,3,4,3,4,3,4,3,4,3,4,3,4,3,4,3,4,3,4,3,4,3,4,3,4,3,4,3,4,3,4,3,4,3,4,3,4,3,4,3,4,3,4,3,4,3,4,3,4,3,4,3,4,3,4,3,4,3,4,3,4,3,4,3,4,3,4,3,4,3,4,3,4,3,4,3,4,3,4,3,4,3,4,3,4,3,4,3,4,3,4,3,4,3,4,3,4,3,4,3,4,3,4,3,4,3,4,3,4,3,4,3,4,3,4,3,4,3,4,3,4,3,4,3,4,3,4,3,4,3,4,3,4,3,4,3,4,3,4,3,4,3,4,3,4,3,4,3,4,3,4,3,4,3,4,3,4,3,4,3,4,3,4,3,4,3,4,3,4,3,4,3,4,3,4,3,4,3,4,3,4,3,4,3,4,3,4,3,4,3,4,3,4,3,4,3,4,3,4,3,4,3,4,3,4,3,4,3,4,3,4,3,4,3,4,3,4,3,4,3,4,3,4,3,4,3,4,3,4,3,4,3,4,3,4,3,4,3,4,3,4,3,4,3,4,3,4,3,4,3,4,3,4,3,4,3,4,3,4,3,4,3,4,3,4,3,4,3,4,3,4,3,4,3,4,3,4,
1,2,1,2,1,2,1,2,1,2,1,2,1,2,1,2,1,2,1,2,1,2,1,2,1,2,1,2,1,2,1,2,1,2,1,2,1,2,1,2,1,2,1,2,1,2,1,2,1,2,1,2,1,2,1,2,1,2,1,2,1,2,1,2,1,2,1,2,1,2,1,2,125,2,125,2,1,2,125,2,125,2,1,2,125,2,125,2,125,2,125,2,125,2,1,2,1,2,1,2,1,2,1,2,1,2,1,2,1,2,1,2,1,2,1,2,1,2,1,2,1,2,1,2,1,2,1,2,1,2,1,2,1,2,1,2,1,2,1,2,1,2,1,2,1,2,1,2,1,2,1,2,1,2,1,2,1,2,1,2,1,2,1,2,1,2,1,2,1,2,1,2,1,2,1,2,1,2,1,2,1,2,1,2,1,2,1,2,1,2,1,2,1,2,1,2,1,2,1,2,1,2,1,2,1,2,1,2,1,2,1,2,1,2,1,2,1,2,1,2,1,2,1,2,1,2,1,2,1,2,1,2,1,2,1,2,1,2,1,2,1,2,1,2,1,2,1,2,1,2,1,2,1,2,1,2,1,2,1,2,1,2,1,2,1,2,1,2,1,2,1,2,1,2,1,2,1,2,1,2,1,2,1,2,1,2,1,2,1,2,1,2,1,2,1,2,1,2,1,2,1,2,1,2,1,2,1,2,1,2,1,2,1,2,1,2,1,2,1,2,1,2,1,2,1,2,1,2,1,2,1,2,1,2,1,2,1,2,1,2,1,2,1,2,1,2,1,2,1,2,1,2,1,2,1,2,1,2,1,2,1,2,1,2,1,2,1,2,1,2,1,2,1,2,1,2,1,2,1,2,1,2,1,2,1,2,1,2,1,2,1,2,1,2,1,2,1,2,1,2,1,2,1,2,1,2,1,2,1,2,1,2,1,2,1,2,1,2,1,2,1,2,1,2,1,2,1,2,1,2,1,2,1,2,1,2,1,2,1,2,1,2,1,2,1,2,1,2,1,2,1,2,1,2,1,2,1,2,1,2,1,2,1,2,1,2,1,2,1,2,1,2,1,2,1,2,1,2,1,2,1,2,1,2,1,2,1,2,1,2,1,2,1,2,1,2,1,2,1,2,1,2,1,2,1,2,1,2,1,2,1,2,
3,4,3,4,3,4,3,4,3,4,3,4,3,4,3,4,3,4,3,4,3,4,3,4,3,4,3,4,3,4,3,4,3,4,3,4,3,4,3,4,3,4,3,4,3,4,3,4,3,4,3,4,3,4,3,4,3,4,3,4,3,4,3,4,3,4,3,4,3,4,3,4,126,127,126,127,3,4,126,127,126,127,3,4,126,127,126,127,126,127,126,127,126,127,3,4,3,4,3,4,3,4,3,4,3,4,3,4,3,4,3,4,3,4,3,4,3,4,3,4,3,4,3,4,3,4,3,4,3,4,3,4,3,4,3,4,3,4,3,4,3,4,3,4,3,4,3,4,3,4,3,4,3,4,3,4,3,4,3,4,3,4,3,4,3,4,3,4,3,4,3,4,3,4,3,4,3,4,3,4,3,4,3,4,3,4,3,4,3,4,3,4,3,4,3,4,3,4,3,4,3,4,3,4,3,4,3,4,3,4,3,4,3,4,3,4,3,4,3,4,3,4,3,4,3,4,3,4,3,4,3,4,3,4,3,4,3,4,3,4,3,4,3,4,3,4,3,4,3,4,3,4,3,4,3,4,3,4,3,4,3,4,3,4,3,4,3,4,3,4,3,4,3,4,3,4,3,4,3,4,3,4,3,4,3,4,3,4,3,4,3,4,3,4,3,4,3,4,3,4,3,4,3,4,3,4,3,4,3,4,3,4,3,4,3,4,3,4,3,4,3,4,3,4,3,4,3,4,3,4,3,4,3,4,3,4,3,4,3,4,3,4,3,4,3,4,3,4,3,4,3,4,3,4,3,4,3,4,3,4,3,4,3,4,3,4,3,4,3,4,3,4,3,4,3,4,3,4,3,4,3,4,3,4,3,4,3,4,3,4,3,4,3,4,3,4,3,4,3,4,3,4,3,4,3,4,3,4,3,4,3,4,3,4,3,4,3,4,3,4,3,4,3,4,3,4,3,4,3,4,3,4,3,4,3,4,3,4,3,4,3,4,3,4,3,4,3,4,3,4,3,4,3,4,3,4,3,4,3,4,3,4,3,4,3,4,3,4,3,4,3,4,3,4,3,4,3,4,3,4,3,4,3,4,3,4,3,4,3,4,3,4,3,4,3,4,3,4,3,4,3,4,3,4,3,4,3,4,3,4,3,4,
1,2,1,2,1,2,1,2,1,2,1,2,1,2,1,2,1,2,1,2,1,2,1,2,1,2,1,2,1,2,1,2,1,2,1,2,1,2,1,2,1,2,1,2,1,2,1,2,1,2,1,2,1,2,1,2,1,2,1,2,1,2,1,2,1,2,1,2,125,2,1,2,1,2,125,2,125,2,125,2,125,2,125,2,125,2,125,2,1,2,125,2,1,2,1,2,1,2,1,2,1,2,1,2,1,2,1,2,1,2,1,2,1,2,1,2,1,2,1,2,1,2,1,2,1,2,1,2,1,2,1,2,1,2,1,2,1,2,1,2,1,2,1,2,1,2,1,2,1,2,1,2,1,2,1,2,1,2,1,2,1,2,1,2,1,2,1,2,1,2,1,2,1,2,1,2,1,2,1,2,1,2,1,2,1,2,1,2,1,2,1,2,1,2,1,2,1,2,1,2,1,2,1,2,1,2,1,2,1,2,1,2,1,2,1,2,1,2,1,2,1,2,1,2,1,2,1,2,1,2,1,2,1,2,1,2,1,2,1,2,1,2,1,2,1,2,1,2,1,2,1,2,1,2,1,2,1,2,1,2,1,2,1,2,1,2,1,2,1,2,1,2,1,2,1,2,1,2,1,2,1,2,1,2,1,2,1,2,1,2,1,2,1,2,1,2,1,2,1,2,1,2,1,2,1,2,1,2,1,2,1,2,1,2,1,2,1,2,1,2,1,2,1,2,1,2,1,2,1,2,1,2,1,2,1,2,1,2,1,2,1,2,1,2,1,2,1,2,1,2,1,2,1,2,1,2,1,2,1,2,1,2,1,2,1,2,1,2,1,2,1,2,1,2,1,2,1,2,1,2,1,2,1,2,1,2,1,2,1,2,1,2,1,2,1,2,1,2,1,2,1,2,1,2,1,2,1,2,1,2,1,2,1,2,1,2,1,2,1,2,1,2,1,2,1,2,1,2,1,2,1,2,1,2,1,2,1,2,1,2,1,2,1,2,1,2,1,2,1,2,1,2,1,2,1,2,1,2,1,2,1,2,1,2,1,2,1,2,1,2,1,2,1,2,1,2,1,2,1,2,1,2,1,2,1,2,1,2,1,2,1,2,1,2,1,2,1,2,1,2,1,2,1,2,1,2,1,2,1,2,1,2,
3,4,3,4,3,4,3,4,3,4,3,4,3,4,3,4,3,4,3,4,3,4,3,4,3,4,3,4,3,4,3,4,3,4,3,4,3,4,3,4,3,4,3,4,3,4,3,4,3,4,3,4,3,4,3,4,3,4,3,4,3,4,3,4,3,4,3,4,126,127,3,4,3,4,126,127,126,127,126,127,126,127,126,127,126,127,126,127,3,4,126,127,3,4,3,4,3,4,3,4,3,4,3,4,3,4,3,4,3,4,3,4,3,4,3,4,3,4,3,4,3,4,3,4,3,4,3,4,3,4,3,4,3,4,3,4,3,4,3,4,3,4,3,4,3,4,3,4,3,4,3,4,3,4,3,4,3,4,3,4,3,4,3,4,3,4,3,4,3,4,3,4,3,4,3,4,3,4,3,4,3,4,3,4,3,4,3,4,3,4,3,4,3,4,3,4,3,4,3,4,3,4,3,4,3,4,3,4,3,4,3,4,3,4,3,4,3,4,3,4,3,4,3,4,3,4,3,4,3,4,3,4,3,4,3,4,3,4,3,4,3,4,3,4,3,4,3,4,3,4,3,4,3,4,3,4,3,4,3,4,3,4,3,4,3,4,3,4,3,4,3,4,3,4,3,4,3,4,3,4,3,4,3,4,3,4,3,4,3,4,3,4,3,4,3,4,3,4,3,4,3,4,3,4,3,4,3,4,3,4,3,4,3,4,3,4,3,4,3,4,3,4,3,4,3,4,3,4,3,4,3,4,3,4,3,4,3,4,3,4,3,4,3,4,3,4,3,4,3,4,3,4,3,4,3,4,3,4,3,4,3,4,3,4,3,4,3,4,3,4,3,4,3,4,3,4,3,4,3,4,3,4,3,4,3,4,3,4,3,4,3,4,3,4,3,4,3,4,3,4,3,4,3,4,3,4,3,4,3,4,3,4,3,4,3,4,3,4,3,4,3,4,3,4,3,4,3,4,3,4,3,4,3,4,3,4,3,4,3,4,3,4,3,4,3,4,3,4,3,4,3,4,3,4,3,4,3,4,3,4,3,4,3,4,3,4,3,4,3,4,3,4,3,4,3,4,3,4,3,4,3,4,3,4,3,4,3,4,3,4,3,4,3,4,3,4,3,4,3,4,3,4,3,4,3,4,3,4,3,4,3,4,
1,2,1,2,1,2,1,2,1,2,1,2,1,2,1,2,1,2,1,2,1,2,1,2,1,2,1,2,1,2,1,2,1,2,1,2,1,2,1,2,1,2,1,2,1,2,1,2,1,2,1,2,1,2,1,2,1,2,1,2,1,2,1,2,1,2,1,2,1,2,1,2,1,2,1,2,1,2,1,2,1,2,1,2,125,2,1,2,125,2,1,2,1,2,1,2,1,2,1,2,1,2,1,2,1,2,1,2,1,2,1,2,1,2,1,2,1,2,1,2,1,2,1,2,1,2,1,2,1,2,1,2,1,2,1,2,1,2,1,2,1,2,1,2,1,2,1,2,1,2,1,2,1,2,1,2,1,2,1,2,1,2,1,2,1,2,1,2,1,2,1,2,1,2,1,2,1,2,1,2,1,2,1,2,1,2,1,2,1,2,1,2,1,2,1,2,1,2,1,2,1,2,1,2,1,2,1,2,1,2,1,2,1,2,1,2,1,2,1,2,1,2,1,2,1,2,1,2,1,2,1,2,1,2,1,2,1,2,1,2,1,2,1,2,1,2,1,2,1,2,1,2,1,2,1,2,1,2,1,2,1,2,1,2,1,2,1,2,1,2,1,2,1,2,1,2,1,2,1,2,1,2,1,2,1,2,1,2,1,2,1,2,1,2,1,2,1,2,1,2,1,2,1,2,1,2,1,2,1,2,1,2,1,2,1,2,1,2,1,2,1,2,1,2,1,2,1,2,1,2,1,2,1,2,1,2,1,2,1,2,1,2,1,2,1,2,1,2,1,2,1,2,1,2,1,2,1,2,1,2,1,2,1,2,1,2,1,2,1,2,1,2,1,2,1,2,1,2,1,2,1,2,1,2,1,2,1,2,1,2,1,2,1,2,1,2,1,2,1,2,1,2,1,2,1,2,1,2,1,2,1,2,1,2,1,2,1,2,1,2,1,2,1,2,1,2,1,2,1,2,1,2,1,2,1,2,1,2,1,2,1,2,1,2,1,2,1,2,1,2,1,2,1,2,1,2,1,2,1,2,1,2,1,2,1,2,1,2,1,2,1,2,1,2,1,2,1,2,1,2,1,2,1,2,1,2,1,2,1,2,1,2,1,2,1,2,1,2,1,2,1,2,1,2,1,2,1,2,1,2,1,2,
3,4,3,4,3,4,3,4,3,4,3,4,3,4,3,4,3,4,3,4,3,4,3,4,3,4,3,4,3,4,3,4,3,4,3,4,3,4,3,4,3,4,3,4,3,4,3,4,3,4,3,4,3,4,3,4,3,4,3,4,3,4,3,4,3,4,3,4,3,4,3,4,3,4,3,4,3,4,3,4,3,4,3,4,126,127,3,4,126,127,3,4,3,4,3,4,3,4,3,4,3,4,3,4,3,4,3,4,3,4,3,4,3,4,3,4,3,4,3,4,3,4,3,4,3,4,3,4,3,4,3,4,3,4,3,4,3,4,3,4,3,4,3,4,3,4,3,4,3,4,3,4,3,4,3,4,3,4,3,4,3,4,3,4,3,4,3,4,3,4,3,4,3,4,3,4,3,4,3,4,3,4,3,4,3,4,3,4,3,4,3,4,3,4,3,4,3,4,3,4,3,4,3,4,3,4,3,4,3,4,3,4,3,4,3,4,3,4,3,4,3,4,3,4,3,4,3,4,3,4,3,4,3,4,3,4,3,4,3,4,3,4,3,4,3,4,3,4,3,4,3,4,3,4,3,4,3,4,3,4,3,4,3,4,3,4,3,4,3,4,3,4,3,4,3,4,3,4,3,4,3,4,3,4,3,4,3,4,3,4,3,4,3,4,3,4,3,4,3,4,3,4,3,4,3,4,3,4,3,4,3,4,3,4,3,4,3,4,3,4,3,4,3,4,3,4,3,4,3,4,3,4,3,4,3,4,3,4,3,4,3,4,3,4,3,4,3,4,3,4,3,4,3,4,3,4,3,4,3,4,3,4,3,4,3,4,3,4,3,4,3,4,3,4,3,4,3,4,3,4,3,4,3,4,3,4,3,4,3,4,3,4,3,4,3,4,3,4,3,4,3,4,3,4,3,4,3,4,3,4,3,4,3,4,3,4,3,4,3,4,3,4,3,4,3,4,3,4,3,4,3,4,3,4,3,4,3,4,3,4,3,4,3,4,3,4,3,4,3,4,3,4,3,4,3,4,3,4,3,4,3,4,3,4,3,4,3,4,3,4,3,4,3,4,3,4,3,4,3,4,3,4,3,4,3,4,3,4,3,4,3,4,3,4,3,4,3,4,3,4,3,4,3,4,3,4,3,4,3,4,3,4,
1,2,1,2,1,2,1,2,1,2,1,2,1,2,1,2,1,2,1,2,1,2,1,2,1,2,1,2,1,2,1,2,1,2,1,2,1,2,1,2,1,2,1,2,1,2,1,2,1,2,1,2,1,2,1,2,1,2,1,2,1,2,1,2,1,2,1,2,1,2,1,2,1,2,1,2,1,2,125,2,1,2,1,2,1,2,1,2,1,2,1,2,1,2,1,2,1,2,1,2,1,2,1,2,1,2,1,2,1,2,1,2,1,2,1,2,1,2,1,2,1,2,1,2,1,2,1,2,1,2,1,2,1,2,1,2,1,2,1,2,1,2,1,2,1,2,1,2,1,2,1,2,1,2,1,2,1,2,1,2,1,2,1,2,1,2,1,2,1,2,1,2,1,2,1,2,1,2,1,2,1,2,1,2,1,2,1,2,1,2,1,2,1,2,1,2,1,2,1,2,1,2,1,2,1,2,1,2,1,2,1,2,1,2,1,2,1,2,1,2,1,2,1,2,1,2,1,2,1,2,1,2,1,2,1,2,1,2,1,2,1,2,1,2,1,2,1,2,1,2,1,2,1,2,1,2,1,2,1,2,1,2,1,2,1,2,1,2,1,2,1,2,1,2,1,2,1,2,1,2,1,2,1,2,1,2,1,2,1,2,1,2,1,2,1,2,1,2,1,2,1,2,1,2,1,2,1,2,1,2,1,2,1,2,1,2,1,2,1,2,1,2,1,2,1,2,1,2,1,2,1,2,1,2,1,2,1,2,1,2,1,2,1,2,1,2,1,2,1,2,1,2,1,2,1,2,1,2,1,2,1,2,1,2,1,2,1,2,1,2,1,2,1,2,1,2,1,2,1,2,1,2,1,2,1,2,1,2,1,2,1,2,1,2,1,2,1,2,1,2,1,2,1,2,1,2,1,2,1,2,1,2,1,2,1,2,1,2,1,2,1,2,1,2,1,2,1,2,1,2,1,2,1,2,1,2,1,2,1,2,1,2,1,2,1,2,1,2,1,2,1,2,1,2,1,2,1,2,1,2,1,2,1,2,1,2,1,2,1,2,1,2,1,2,1,2,1,2,1,2,1,2,1,2,1,2,1,2,1,2,1,2,1,2,1,2,1,2,1,2,1,2,1,2,1,2,1,2,1,2,1,2,
3,4,3,4,3,4,3,4,3,4,3,4,3,4,3,4,3,4,3,4,3,4,3,4,3,4,3,4,3,4,3,4,3,4,3,4,3,4,3,4,3,4,3,4,3,4,3,4,3,4,3,4,3,4,3,4,3,4,3,4,3,4,3,4,3,4,3,4,3,4,3,4,3,4,3,4,3,4,126,127,3,4,3,4,3,4,3,4,3,4,3,4,3,4,3,4,3,4,3,4,3,4,3,4,3,4,3,4,3,4,3,4,3,4,3,4,3,4,3,4,3,4,3,4,3,4,3,4,3,4,3,4,3,4,3,4,3,4,3,4,3,4,3,4,3,4,3,4,3,4,3,4,3,4,3,4,3,4,3,4,3,4,3,4,3,4,3,4,3,4,3,4,3,4,3,4,3,4,3,4,3,4,3,4,3,4,3,4,3,4,3,4,3,4,3,4,3,4,3,4,3,4,3,4,3,4,3,4,3,4,3,4,3,4,3,4,3,4,3,4,3,4,3,4,3,4,3,4,3,4,3,4,3,4,3,4,3,4,3,4,3,4,3,4,3,4,3,4,3,4,3,4,3,4,3,4,3,4,3,4,3,4,3,4,3,4,3,4,3,4,3,4,3,4,3,4,3,4,3,4,3,4,3,4,3,4,3,4,3,4,3,4,3,4,3,4,3,4,3,4,3,4,3,4,3,4,3,4,3,4,3,4,3,4,3,4,3,4,3,4,3,4,3,4,3,4,3,4,3,4,3,4,3,4,3,4,3,4,3,4,3,4,3,4,3,4,3,4,3,4,3,4,3,4,3,4,3,4,3,4,3,4,3,4,3,4,3,4,3,4,3,4,3,4,3,4,3,4,3,4,3,4,3,4,3,4,3,4,3,4,3,4,3,4,3,4,3,4,3,4,3,4,3,4,3,4,3,4,3,4,3,4,3,4,3,4,3,4,3,4,3,4,3,4,3,4,3,4,3,4,3,4,3,4,3,4,3,4,3,4,3,4,3,4,3,4,3,4,3,4,3,4,3,4,3,4,3,4,3,4,3,4,3,4,3,4,3,4,3,4,3,4,3,4,3,4,3,4,3,4,3,4,3,4,3,4,3,4,3,4,3,4,3,4,3,4,3,4,3,4,3,4,3,4,3,4,3,4,3,4,3,4,
1,2,1,2,1,2,1,2,1,2,1,2,1,2,1,2,1,2,1,2,1,2,1,2,1,2,1,2,1,2,1,2,1,2,1,2,1,2,1,2,1,2,1,2,1,2,1,2,1,2,1,2,1,2,1,2,1,2,1,2,1,2,1,2,1,2,1,2,1,2,1,2,1,2,1,2,1,2,1,2,1,2,1,2,1,2,1,2,1,2,1,2,1,2,1,2,1,2,1,2,1,2,1,2,1,2,1,2,1,2,1,2,1,2,1,2,1,2,1,2,1,2,1,2,1,2,1,2,1,2,1,2,1,2,1,2,1,2,1,2,1,2,1,2,1,2,1,2,1,2,1,2,1,2,1,2,1,2,1,2,1,2,1,2,1,2,1,2,1,2,1,2,1,2,1,2,1,2,1,2,1,2,1,2,1,2,1,2,1,2,1,2,1,2,1,2,1,2,1,2,1,2,1,2,1,2,1,2,1,2,1,2,1,2,1,2,1,2,1,2,1,2,1,2,1,2,1,2,1,2,1,2,1,2,1,2,1,2,1,2,1,2,1,2,1,2,1,2,1,2,1,2,1,2,1,2,1,2,1,2,1,2,1,2,1,2,1,2,1,2,1,2,1,2,1,2,1,2,1,2,1,2,1,2,1,2,1,2,1,2,1,2,1,2,1,2,1,2,1,2,1,2,1,2,1,2,1,2,1,2,1,2,1,2,1,2,1,2,1,2,1,2,1,2,1,2,1,2,1,2,1,2,1,2,1,2,1,2,1,2,1,2,1,2,1,2,1,2,1,2,1,2,1,2,1,2,1,2,1,2,1,2,1,2,1,2,1,2,1,2,1,2,1,2,1,2,1,2,1,2,1,2,1,2,1,2,1,2,1,2,1,2,1,2,1,2,1,2,1,2,1,2,1,2,1,2,1,2,1,2,1,2,1,2,1,2,1,2,1,2,1,2,1,2,1,2,1,2,1,2,1,2,1,2,1,2,1,2,1,2,1,2,1,2,1,2,1,2,1,2,1,2,1,2,1,2,1,2,1,2,1,2,1,2,1,2,1,2,1,2,1,2,1,2,1,2,1,2,1,2,1,2,1,2,1,2,1,2,1,2,1,2,1,2,1,2,1,2,1,2,1,2,1,2,1,2,1,2,1,2,1,2,
3,4,3,4,3,4,3,4,3,4,3,4,3,4,3,4,3,4,3,4,3,4,3,4,3,4,3,4,3,4,3,4,3,4,3,4,3,4,3,4,3,4,3,4,3,4,3,4,3,4,3,4,3,4,3,4,3,4,3,4,3,4,3,4,3,4,3,4,3,4,3,4,3,4,3,4,3,4,3,4,3,4,3,4,3,4,3,4,3,4,3,4,3,4,3,4,3,4,3,4,3,4,3,4,3,4,3,4,3,4,3,4,3,4,3,4,3,4,3,4,3,4,3,4,3,4,3,4,3,4,3,4,3,4,3,4,3,4,3,4,3,4,3,4,3,4,3,4,3,4,3,4,3,4,3,4,3,4,3,4,3,4,3,4,3,4,3,4,3,4,3,4,3,4,3,4,3,4,3,4,3,4,3,4,3,4,3,4,3,4,3,4,3,4,3,4,3,4,3,4,3,4,3,4,3,4,3,4,3,4,3,4,3,4,3,4,3,4,3,4,3,4,3,4,3,4,3,4,3,4,3,4,3,4,3,4,3,4,3,4,3,4,3,4,3,4,3,4,3,4,3,4,3,4,3,4,3,4,3,4,3,4,3,4,3,4,3,4,3,4,3,4,3,4,3,4,3,4,3,4,3,4,3,4,3,4,3,4,3,4,3,4,3,4,3,4,3,4,3,4,3,4,3,4,3,4,3,4,3,4,3,4,3,4,3,4,3,4,3,4,3,4,3,4,3,4,3,4,3,4,3,4,3,4,3,4,3,4,3,4,3,4,3,4,3,4,3,4,3,4,3,4,3,4,3,4,3,4,3,4,3,4,3,4,3,4,3,4,3,4,3,4,3,4,3,4,3,4,3,4,3,4,3,4,3,4,3,4,3,4,3,4,3,4,3,4,3,4,3,4,3,4,3,4,3,4,3,4,3,4,3,4,3,4,3,4,3,4,3,4,3,4,3,4,3,4,3,4,3,4,3,4,3,4,3,4,3,4,3,4,3,4,3,4,3,4,3,4,3,4,3,4,3,4,3,4,3,4,3,4,3,4,3,4,3,4,3,4,3,4,3,4,3,4,3,4,3,4,3,4,3,4,3,4,3,4,3,4,3,4,3,4,3,4,3,4,3,4,3,4,3,4,3,4,3,4,3,4,3,4,3,4,
1,2,1,2,1,2,1,2,1,2,1,2,1,2,1,2,1,2,1,2,1,2,1,2,1,2,1,2,1,2,1,2,1,2,1,2,1,2,1,2,1,2,1,2,1,2,1,2,1,2,1,2,1,2,1,2,1,2,1,2,1,2,1,2,1,2,1,2,1,2,1,2,1,2,1,2,1,2,1,2,1,2,1,2,1,2,1,2,1,2,1,2,1,2,1,2,1,2,1,2,1,2,1,2,1,2,1,2,1,2,1,2,1,2,1,2,1,2,1,2,1,2,1,2,1,2,1,2,1,2,1,2,1,2,1,2,1,2,1,2,1,2,1,2,1,2,1,2,1,2,1,2,1,2,1,2,1,2,1,2,1,2,1,2,1,2,1,2,1,2,1,2,1,2,1,2,1,2,1,2,1,2,1,2,1,2,1,2,1,2,1,2,1,2,1,2,1,2,1,2,1,2,1,2,1,2,1,2,1,2,1,2,1,2,1,2,1,2,1,2,1,2,1,2,1,2,1,2,1,2,1,2,1,2,1,2,1,2,1,2,1,2,1,2,1,2,1,2,1,2,1,2,1,2,1,2,1,2,1,2,1,2,1,2,1,2,1,2,1,2,1,2,1,2,1,2,1,2,1,2,1,2,1,2,1,2,1,2,1,2,1,2,1,2,1,2,1,2,1,2,1,2,1,2,1,2,1,2,1,2,1,2,1,2,1,2,1,2,1,2,1,2,1,2,1,2,1,2,1,2,1,2,1,2,1,2,1,2,1,2,1,2,1,2,1,2,1,2,1,2,1,2,1,2,1,2,1,2,1,2,1,2,1,2,1,2,1,2,1,2,1,2,1,2,1,2,1,2,1,2,1,2,1,2,1,2,1,2,1,2,1,2,1,2,1,2,1,2,1,2,1,2,1,2,1,2,1,2,1,2,1,2,1,2,1,2,1,2,1,2,1,2,1,2,1,2,1,2,1,2,1,2,1,2,1,2,1,2,1,2,1,2,1,2,1,2,1,2,1,2,1,2,1,2,1,2,1,2,1,2,1,2,1,2,1,2,1,2,1,2,1,2,1,2,1,2,1,2,1,2,1,2,1,2,1,2,1,2,1,2,1,2,1,2,1,2,1,2,1,2,1,2,1,2,1,2,1,2,1,2,1,2,
3,4,3,4,3,4,3,4,3,4,3,4,3,4,3,4,3,4,3,4,3,4,3,4,3,4,3,4,3,4,3,4,3,4,3,4,3,4,3,4,3,4,3,4,3,4,3,4,3,4,3,4,3,4,3,4,3,4,3,4,3,4,3,4,3,4,3,4,3,4,3,4,3,4,3,4,3,4,3,4,3,4,3,4,3,4,3,4,3,4,3,4,3,4,3,4,3,4,3,4,3,4,3,4,3,4,3,4,3,4,3,4,3,4,3,4,3,4,3,4,3,4,3,4,3,4,3,4,3,4,3,4,3,4,3,4,3,4,3,4,3,4,3,4,3,4,3,4,3,4,3,4,3,4,3,4,3,4,3,4,3,4,3,4,3,4,3,4,3,4,3,4,3,4,3,4,3,4,3,4,3,4,3,4,3,4,3,4,3,4,3,4,3,4,3,4,3,4,3,4,3,4,3,4,3,4,3,4,3,4,3,4,3,4,3,4,3,4,3,4,3,4,3,4,3,4,3,4,3,4,3,4,3,4,3,4,3,4,3,4,3,4,3,4,3,4,3,4,3,4,3,4,3,4,3,4,3,4,3,4,3,4,3,4,3,4,3,4,3,4,3,4,3,4,3,4,3,4,3,4,3,4,3,4,3,4,3,4,3,4,3,4,3,4,3,4,3,4,3,4,3,4,3,4,3,4,3,4,3,4,3,4,3,4,3,4,3,4,3,4,3,4,3,4,3,4,3,4,3,4,3,4,3,4,3,4,3,4,3,4,3,4,3,4,3,4,3,4,3,4,3,4,3,4,3,4,3,4,3,4,3,4,3,4,3,4,3,4,3,4,3,4,3,4,3,4,3,4,3,4,3,4,3,4,3,4,3,4,3,4,3,4,3,4,3,4,3,4,3,4,3,4,3,4,3,4,3,4,3,4,3,4,3,4,3,4,3,4,3,4,3,4,3,4,3,4,3,4,3,4,3,4,3,4,3,4,3,4,3,4,3,4,3,4,3,4,3,4,3,4,3,4,3,4,3,4,3,4,3,4,3,4,3,4,3,4,3,4,3,4,3,4,3,4,3,4,3,4,3,4,3,4,3,4,3,4,3,4,3,4,3,4,3,4,3,4,3,4,3,4,3,4,3,4,3,4,3,4,3,4,3,4,
1,2,1,2,1,2,1,2,1,2,1,2,1,2,1,2,1,2,1,2,1,2,1,2,1,2,1,2,1,2,1,2,1,2,1,2,1,2,1,2,1,2,1,2,1,2,1,2,1,2,1,2,1,2,1,2,1,2,1,2,1,2,1,2,1,2,1,2,1,2,1,2,1,2,1,2,1,2,1,2,1,2,1,2,1,2,1,2,1,2,1,2,1,2,1,2,1,2,1,2,1,2,1,2,1,2,1,2,1,2,1,2,1,2,1,2,1,2,1,2,1,2,1,2,1,2,1,2,1,2,1,2,1,2,1,2,1,2,1,2,1,2,1,2,1,2,1,2,1,2,1,2,1,2,1,2,1,2,1,2,1,2,1,2,1,2,1,2,1,2,1,2,1,2,1,2,1,2,1,2,1,2,1,2,1,2,1,2,1,2,1,2,1,2,1,2,1,2,1,2,1,2,1,2,1,2,1,2,1,2,1,2,1,2,1,2,1,2,1,2,1,2,1,2,1,2,1,2,1,2,1,2,1,2,1,2,1,2,1,2,1,2,1,2,1,2,1,2,1,2,1,2,1,2,1,2,1,2,1,2,1,2,1,2,1,2,1,2,1,2,1,2,1,2,1,2,1,2,1,2,1,2,1,2,1,2,1,2,1,2,1,2,1,2,1,2,1,2,1,2,1,2,1,2,1,2,1,2,1,2,1,2,1,2,1,2,1,2,1,2,1,2,1,2,1,2,1,2,1,2,1,2,1,2,1,2,1,2,1,2,1,2,1,2,1,2,1,2,1,2,1,2,1,2,1,2,1,2,1,2,1,2,1,2,1,2,1,2,1,2,1,2,1,2,1,2,1,2,1,2,1,2,1,2,1,2,1,2,1,2,1,2,1,2,1,2,1,2,1,2,1,2,1,2,1,2,1,2,1,2,1,2,1,2,1,2,1,2,1,2,1,2,1,2,1,2,1,2,1,2,1,2,1,2,1,2,1,2,1,2,1,2,1,2,1,2,1,2,1,2,1,2,1,2,1,2,1,2,1,2,1,2,1,2,1,2,1,2,1,2,1,2,1,2,1,2,1,2,1,2,1,2,1,2,1,2,1,2,1,2,1,2,1,2,1,2,1,2,1,2,1,2,1,2,1,2,1,2,1,2,1,2,
3,4,3,4,3,4,3,4,3,4,3,4,3,4,3,4,3,4,3,4,3,4,3,4,3,4,3,4,3,4,3,4,3,4,3,4,3,4,3,4,3,4,3,4,3,4,3,4,3,4,3,4,3,4,3,4,3,4,3,4,3,4,3,4,3,4,3,4,3,4,3,4,3,4,3,4,3,4,3,4,3,4,3,4,3,4,3,4,3,4,3,4,3,4,3,4,3,4,3,4,3,4,3,4,3,4,3,4,3,4,3,4,3,4,3,4,3,4,3,4,3,4,3,4,3,4,3,4,3,4,3,4,3,4,3,4,3,4,3,4,3,4,3,4,3,4,3,4,3,4,3,4,3,4,3,4,3,4,3,4,3,4,3,4,3,4,3,4,3,4,3,4,3,4,3,4,3,4,3,4,3,4,3,4,3,4,3,4,3,4,3,4,3,4,3,4,3,4,3,4,3,4,3,4,3,4,3,4,3,4,3,4,3,4,3,4,3,4,3,4,3,4,3,4,3,4,3,4,3,4,3,4,3,4,3,4,3,4,3,4,3,4,3,4,3,4,3,4,3,4,3,4,3,4,3,4,3,4,3,4,3,4,3,4,3,4,3,4,3,4,3,4,3,4,3,4,3,4,3,4,3,4,3,4,3,4,3,4,3,4,3,4,3,4,3,4,3,4,3,4,3,4,3,4,3,4,3,4,3,4,3,4,3,4,3,4,3,4,3,4,3,4,3,4,3,4,3,4,3,4,3,4,3,4,3,4,3,4,3,4,3,4,3,4,3,4,3,4,3,4,3,4,3,4,3,4,3,4,3,4,3,4,3,4,3,4,3,4,3,4,3,4,3,4,3,4,3,4,3,4,3,4,3,4,3,4,3,4,3,4,3,4,3,4,3,4,3,4,3,4,3,4,3,4,3,4,3,4,3,4,3,4,3,4,3,4,3,4,3,4,3,4,3,4,3,4,3,4,3,4,3,4,3,4,3,4,3,4,3,4,3,4,3,4,3,4,3,4,3,4,3,4,3,4,3,4,3,4,3,4,3,4,3,4,3,4,3,4,3,4,3,4,3,4,3,4,3,4,3,4,3,4,3,4,3,4,3,4,3,4,3,4,3,4,3,4,3,4,3,4,3,4,3,4,3,4,3,4,3,4,3,4,
1,2,1,2,1,2,1,2,1,2,1,2,1,2,1,2,1,2,1,2,1,2,1,2,1,2,1,2,1,2,1,2,1,2,1,2,1,2,1,2,1,2,1,2,1,2,1,2,1,2,1,2,1,2,1,2,1,2,1,2,1,2,1,2,1,2,1,2,1,2,1,2,1,2,1,2,1,2,1,2,1,2,1,2,1,2,1,2,1,2,1,2,1,2,1,2,1,2,1,2,1,2,1,2,1,2,1,2,1,2,1,2,1,2,1,2,1,2,1,2,1,2,1,2,1,2,1,2,1,2,1,2,1,2,1,2,1,2,1,2,1,2,1,2,1,2,1,2,1,2,1,2,1,2,1,2,1,2,1,2,1,2,1,2,1,2,1,2,1,2,1,2,1,2,1,2,1,2,1,2,1,2,1,2,1,2,1,2,1,2,1,2,1,2,1,2,1,2,1,2,1,2,1,2,1,2,1,2,1,2,1,2,1,2,1,2,1,2,1,2,1,2,1,2,1,2,1,2,1,2,1,2,1,2,1,2,1,2,1,2,1,2,1,2,1,2,1,2,1,2,1,2,1,2,1,2,1,2,1,2,1,2,1,2,1,2,1,2,1,2,1,2,1,2,1,2,1,2,1,2,1,2,1,2,1,2,1,2,1,2,1,2,1,2,1,2,1,2,1,2,1,2,1,2,1,2,1,2,1,2,1,2,1,2,1,2,1,2,1,2,1,2,1,2,1,2,1,2,1,2,1,2,1,2,1,2,1,2,1,2,1,2,1,2,1,2,1,2,1,2,1,2,1,2,1,2,1,2,1,2,1,2,1,2,1,2,1,2,1,2,1,2,1,2,1,2,1,2,1,2,1,2,1,2,1,2,1,2,1,2,1,2,1,2,1,2,1,2,1,2,1,2,1,2,1,2,1,2,1,2,1,2,1,2,1,2,1,2,1,2,1,2,1,2,1,2,1,2,1,2,1,2,1,2,1,2,1,2,1,2,1,2,1,2,1,2,1,2,1,2,1,2,1,2,1,2,1,2,1,2,1,2,1,2,1,2,1,2,1,2,1,2,1,2,1,2,1,2,1,2,1,2,1,2,1,2,1,2,1,2,1,2,1,2,1,2,1,2,1,2,1,2,1,2,1,2,1,2,1,2,1,2,
3,4,3,4,3,4,3,4,3,4,3,4,3,4,3,4,3,4,3,4,3,4,3,4,3,4,3,4,3,4,3,4,3,4,3,4,3,4,3,4,3,4,3,4,3,4,3,4,3,4,3,4,3,4,3,4,3,4,3,4,3,4,3,4,3,4,3,4,3,4,3,4,3,4,3,4,3,4,3,4,3,4,3,4,3,4,3,4,3,4,3,4,3,4,3,4,3,4,3,4,3,4,3,4,3,4,3,4,3,4,3,4,3,4,3,4,3,4,3,4,3,4,3,4,3,4,3,4,3,4,3,4,3,4,3,4,3,4,3,4,3,4,3,4,3,4,3,4,3,4,3,4,3,4,3,4,3,4,3,4,3,4,3,4,3,4,3,4,3,4,3,4,3,4,3,4,3,4,3,4,3,4,3,4,3,4,3,4,3,4,3,4,3,4,3,4,3,4,3,4,3,4,3,4,3,4,3,4,3,4,3,4,3,4,3,4,3,4,3,4,3,4,3,4,3,4,3,4,3,4,3,4,3,4,3,4,3,4,3,4,3,4,3,4,3,4,3,4,3,4,3,4,3,4,3,4,3,4,3,4,3,4,3,4,3,4,3,4,3,4,3,4,3,4,3,4,3,4,3,4,3,4,3,4,3,4,3,4,3,4,3,4,3,4,3,4,3,4,3,4,3,4,3,4,3,4,3,4,3,4,3,4,3,4,3,4,3,4,3,4,3,4,3,4,3,4,3,4,3,4,3,4,3,4,3,4,3,4,3,4,3,4,3,4,3,4,3,4,3,4,3,4,3,4,3,4,3,4,3,4,3,4,3,4,3,4,3,4,3,4,3,4,3,4,3,4,3,4,3,4,3,4,3,4,3,4,3,4,3,4,3,4,3,4,3,4,3,4,3,4,3,4,3,4,3,4,3,4,3,4,3,4,3,4,3,4,3,4,3,4,3,4,3,4,3,4,3,4,3,4,3,4,3,4,3,4,3,4,3,4,3,4,3,4,3,4,3,4,3,4,3,4,3,4,3,4,3,4,3,4,3,4,3,4,3,4,3,4,3,4,3,4,3,4,3,4,3,4,3,4,3,4,3,4,3,4,3,4,3,4,3,4,3,4,3,4,3,4,3,4,3,4,3,4,3,4,3,4,3,4,3,4,
1,2,1,2,1,2,1,2,1,2,1,2,1,2,1,2,1,2,1,2,1,2,1,2,1,2,1,2,1,2,1,2,1,2,1,2,1,2,1,2,1,2,1,2,1,2,1,2,1,2,1,2,1,2,1,2,1,2,1,2,1,2,1,2,1,2,1,2,1,2,1,2,1,2,1,2,1,2,1,2,1,2,1,2,1,2,1,2,1,2,1,2,1,2,1,2,1,2,1,2,1,2,1,2,1,2,1,2,1,2,1,2,1,2,1,2,1,2,1,2,1,2,1,2,1,2,1,2,1,2,1,2,1,2,1,2,1,2,1,2,1,2,1,2,1,2,1,2,1,2,1,2,1,2,1,2,1,2,1,2,1,2,1,2,1,2,1,2,1,2,1,2,1,2,1,2,1,2,1,2,1,2,1,2,1,2,1,2,1,2,1,2,1,2,1,2,1,2,1,2,1,2,1,2,1,2,1,2,1,2,1,2,1,2,1,2,1,2,1,2,1,2,1,2,1,2,1,2,1,2,1,2,1,2,1,2,1,2,1,2,1,2,1,2,1,2,1,2,1,2,1,2,1,2,1,2,1,2,1,2,1,2,1,2,1,2,1,2,1,2,1,2,1,2,1,2,1,2,1,2,1,2,1,2,1,2,1,2,1,2,1,2,1,2,1,2,1,2,1,2,1,2,1,2,1,2,1,2,1,2,1,2,1,2,1,2,1,2,1,2,1,2,1,2,1,2,1,2,1,2,1,2,1,2,1,2,1,2,1,2,1,2,1,2,1,2,1,2,1,2,1,2,1,2,1,2,1,2,1,2,1,2,1,2,1,2,1,2,1,2,1,2,1,2,1,2,1,2,1,2,1,2,1,2,1,2,1,2,1,2,1,2,1,2,1,2,1,2,1,2,1,2,1,2,1,2,1,2,1,2,1,2,1,2,1,2,1,2,1,2,1,2,1,2,1,2,1,2,1,2,1,2,1,2,1,2,1,2,1,2,1,2,1,2,1,2,1,2,1,2,1,2,1,2,1,2,1,2,1,2,1,2,1,2,1,2,1,2,1,2,1,2,1,2,1,2,1,2,1,2,1,2,1,2,1,2,1,2,1,2,1,2,1,2,1,2,1,2,1,2,1,2,1,2,1,2,1,2,1,2,1,2,
3,4,3,4,3,4,3,4,3,4,3,4,3,4,3,4,3,4,3,4,3,4,3,4,3,4,3,4,3,4,3,4,3,4,3,4,3,4,3,4,3,4,3,4,3,4,3,4,3,4,3,4,3,4,3,4,3,4,3,4,3,4,3,4,3,4,3,4,3,4,3,4,3,4,3,4,3,4,3,4,3,4,3,4,3,4,3,4,3,4,3,4,3,4,3,4,3,4,3,4,3,4,3,4,3,4,3,4,3,4,3,4,3,4,3,4,3,4,3,4,3,4,3,4,3,4,3,4,3,4,3,4,3,4,3,4,3,4,3,4,3,4,3,4,3,4,3,4,3,4,3,4,3,4,3,4,3,4,3,4,3,4,3,4,3,4,3,4,3,4,3,4,3,4,3,4,3,4,3,4,3,4,3,4,3,4,3,4,3,4,3,4,3,4,3,4,3,4,3,4,3,4,3,4,3,4,3,4,3,4,3,4,3,4,3,4,3,4,3,4,3,4,3,4,3,4,3,4,3,4,3,4,3,4,3,4,3,4,3,4,3,4,3,4,3,4,3,4,3,4,3,4,3,4,3,4,3,4,3,4,3,4,3,4,3,4,3,4,3,4,3,4,3,4,3,4,3,4,3,4,3,4,3,4,3,4,3,4,3,4,3,4,3,4,3,4,3,4,3,4,3,4,3,4,3,4,3,4,3,4,3,4,3,4,3,4,3,4,3,4,3,4,3,4,3,4,3,4,3,4,3,4,3,4,3,4,3,4,3,4,3,4,3,4,3,4,3,4,3,4,3,4,3,4,3,4,3,4,3,4,3,4,3,4,3,4,3,4,3,4,3,4,3,4,3,4,3,4,3,4,3,4,3,4,3,4,3,4,3,4,3,4,3,4,3,4,3,4,3,4,3,4,3,4,3,4,3,4,3,4,3,4,3,4,3,4,3,4,3,4,3,4,3,4,3,4,3,4,3,4,3,4,3,4,3,4,3,4,3,4,3,4,3,4,3,4,3,4,3,4,3,4,3,4,3,4,3,4,3,4,3,4,3,4,3,4,3,4,3,4,3,4,3,4,3,4,3,4,3,4,3,4,3,4,3,4,3,4,3,4,3,4,3,4,3,4,3,4,3,4,3,4,3,4,3,4,3,4,3,4,3,4,
1,2,1,2,1,2,1,2,1,2,1,2,1,2,1,2,1,2,1,2,1,2,1,2,1,2,1,2,1,2,1,2,1,2,1,2,1,2,1,2,1,2,1,2,1,2,1,2,1,2,1,2,1,2,1,2,1,2,1,2,1,2,1,2,1,2,1,2,1,2,1,2,1,2,1,2,1,2,1,2,1,2,1,2,1,2,1,2,1,2,1,2,1,2,1,2,1,2,1,2,1,2,1,2,1,2,1,2,1,2,1,2,1,2,1,2,1,2,1,2,1,2,1,2,1,2,1,2,1,2,1,2,1,2,1,2,1,2,1,2,1,2,1,2,1,2,1,2,1,2,1,2,1,2,1,2,1,2,1,2,1,2,1,2,1,2,1,2,1,2,1,2,1,2,1,2,1,2,1,2,1,2,1,2,1,2,1,2,1,2,1,2,1,2,1,2,1,2,1,2,1,2,1,2,1,2,1,2,1,2,1,2,1,2,1,2,1,2,1,2,1,2,1,2,1,2,1,2,1,2,1,2,1,2,1,2,1,2,1,2,1,2,1,2,1,2,1,2,1,2,1,2,1,2,1,2,1,2,1,2,1,2,1,2,1,2,1,2,1,2,1,2,1,2,1,2,1,2,1,2,1,2,1,2,1,2,1,2,1,2,1,2,1,2,1,2,1,2,1,2,1,2,1,2,1,2,1,2,1,2,1,2,1,2,1,2,1,2,1,2,1,2,1,2,1,2,1,2,1,2,1,2,1,2,1,2,1,2,1,2,1,2,1,2,1,2,1,2,1,2,1,2,1,2,1,2,1,2,1,2,1,2,1,2,1,2,1,2,1,2,1,2,1,2,1,2,1,2,1,2,1,2,1,2,1,2,1,2,1,2,1,2,1,2,1,2,1,2,1,2,1,2,1,2,1,2,1,2,1,2,1,2,1,2,1,2,1,2,1,2,1,2,1,2,1,2,1,2,1,2,1,2,1,2,1,2,1,2,1,2,1,2,1,2,1,2,1,2,1,2,1,2,1,2,1,2,1,2,1,2,1,2,1,2,1,2,1,2,1,2,1,2,1,2,1,2,1,2,1,2,1,2,1,2,1,2,1,2,1,2,1,2,1,2,1,2,1,2,1,2,1,2,1,2,1,2,1,2,1,2,1,2,
3,4,3,4,3,4,3,4,3,4,3,4,3,4,3,4,3,4,3,4,3,4,3,4,3,4,3,4,3,4,3,4,3,4,3,4,3,4,3,4,3,4,3,4,3,4,3,4,3,4,3,4,3,4,3,4,3,4,3,4,3,4,3,4,3,4,3,4,3,4,3,4,3,4,3,4,3,4,3,4,3,4,3,4,3,4,3,4,3,4,3,4,3,4,3,4,3,4,3,4,3,4,3,4,3,4,3,4,3,4,3,4,3,4,3,4,3,4,3,4,3,4,3,4,3,4,3,4,3,4,3,4,3,4,3,4,3,4,3,4,3,4,3,4,3,4,3,4,3,4,3,4,3,4,3,4,3,4,3,4,3,4,3,4,3,4,3,4,3,4,3,4,3,4,3,4,3,4,3,4,3,4,3,4,3,4,3,4,3,4,3,4,3,4,3,4,3,4,3,4,3,4,3,4,3,4,3,4,3,4,3,4,3,4,3,4,3,4,3,4,3,4,3,4,3,4,3,4,3,4,3,4,3,4,3,4,3,4,3,4,3,4,3,4,3,4,3,4,3,4,3,4,3,4,3,4,3,4,3,4,3,4,3,4,3,4,3,4,3,4,3,4,3,4,3,4,3,4,3,4,3,4,3,4,3,4,3,4,3,4,3,4,3,4,3,4,3,4,3,4,3,4,3,4,3,4,3,4,3,4,3,4,3,4,3,4,3,4,3,4,3,4,3,4,3,4,3,4,3,4,3,4,3,4,3,4,3,4,3,4,3,4,3,4,3,4,3,4,3,4,3,4,3,4,3,4,3,4,3,4,3,4,3,4,3,4,3,4,3,4,3,4,3,4,3,4,3,4,3,4,3,4,3,4,3,4,3,4,3,4,3,4,3,4,3,4,3,4,3,4,3,4,3,4,3,4,3,4,3,4,3,4,3,4,3,4,3,4,3,4,3,4,3,4,3,4,3,4,3,4,3,4,3,4,3,4,3,4,3,4,3,4,3,4,3,4,3,4,3,4,3,4,3,4,3,4,3,4,3,4,3,4,3,4,3,4,3,4,3,4,3,4,3,4,3,4,3,4,3,4,3,4,3,4,3,4,3,4,3,4,3,4,3,4,3,4,3,4,3,4,3,4,3,4,3,4,3,4,3,4,3,4,
1,2,1,2,1,2,1,2,1,2,1,2,1,2,1,2,1,2,1,2,1,2,1,2,1,2,1,2,1,2,1,2,1,2,1,2,1,2,1,2,1,2,1,2,1,2,1,2,1,2,1,2,1,2,1,2,1,2,1,2,1,2,1,2,1,2,1,2,1,2,1,2,1,2,1,2,1,2,1,2,1,2,1,2,1,2,1,2,1,2,1,2,1,2,1,2,1,2,1,2,1,2,1,2,1,2,1,2,1,2,1,2,1,2,1,2,1,2,1,2,1,2,1,2,1,2,1,2,1,2,1,2,1,2,1,2,1,2,1,2,1,2,1,2,1,2,1,2,1,2,1,2,1,2,1,2,1,2,1,2,1,2,1,2,1,2,1,2,1,2,1,2,1,2,1,2,1,2,1,2,1,2,1,2,1,2,1,2,1,2,1,2,1,2,1,2,1,2,1,2,1,2,1,2,1,2,1,2,1,2,1,2,1,2,1,2,1,2,1,2,1,2,1,2,1,2,1,2,1,2,1,2,1,2,1,2,1,2,1,2,1,2,1,2,1,2,1,2,1,2,1,2,1,2,1,2,1,2,1,2,1,2,1,2,1,2,1,2,1,2,1,2,1,2,1,2,1,2,1,2,1,2,1,2,1,2,1,2,1,2,1,2,1,2,1,2,1,2,1,2,1,2,1,2,1,2,1,2,1,2,1,2,1,2,1,2,1,2,1,2,1,2,1,2,1,2,1,2,1,2,1,2,1,2,1,2,1,2,1,2,1,2,1,2,1,2,1,2,1,2,1,2,1,2,1,2,1,2,1,2,1,2,1,2,1,2,1,2,1,2,1,2,1,2,1,2,1,2,1,2,1,2,1,2,1,2,1,2,1,2,1,2,1,2,1,2,1,2,1,2,1,2,1,2,1,2,1,2,1,2,1,2,1,2,1,2,1,2,1,2,1,2,1,2,1,2,1,2,1,2,1,2,1,2,1,2,1,2,1,2,1,2,1,2,1,2,1,2,1,2,1,2,1,2,1,2,1,2,1,2,1,2,1,2,1,2,1,2,1,2,1,2,1,2,1,2,1,2,1,2,1,2,1,2,1,2,1,2,1,2,1,2,1,2,1,2,1,2,1,2,1,2,1,2,1,2,1,2,1,2,1,2,
3,4,3,4,3,4,3,4,3,4,3,4,3,4,3,4,3,4,3,4,3,4,3,4,3,4,3,4,3,4,3,4,3,4,3,4,3,4,3,4,3,4,3,4,3,4,3,4,3,4,3,4,3,4,3,4,3,4,3,4,3,4,3,4,3,4,3,4,3,4,3,4,3,4,3,4,3,4,3,4,3,4,3,4,3,4,3,4,3,4,3,4,3,4,3,4,3,4,3,4,3,4,3,4,3,4,3,4,3,4,3,4,3,4,3,4,3,4,3,4,3,4,3,4,3,4,3,4,3,4,3,4,3,4,3,4,3,4,3,4,3,4,3,4,3,4,3,4,3,4,3,4,3,4,3,4,3,4,3,4,3,4,3,4,3,4,3,4,3,4,3,4,3,4,3,4,3,4,3,4,3,4,3,4,3,4,3,4,3,4,3,4,3,4,3,4,3,4,3,4,3,4,3,4,3,4,3,4,3,4,3,4,3,4,3,4,3,4,3,4,3,4,3,4,3,4,3,4,3,4,3,4,3,4,3,4,3,4,3,4,3,4,3,4,3,4,3,4,3,4,3,4,3,4,3,4,3,4,3,4,3,4,3,4,3,4,3,4,3,4,3,4,3,4,3,4,3,4,3,4,3,4,3,4,3,4,3,4,3,4,3,4,3,4,3,4,3,4,3,4,3,4,3,4,3,4,3,4,3,4,3,4,3,4,3,4,3,4,3,4,3,4,3,4,3,4,3,4,3,4,3,4,3,4,3,4,3,4,3,4,3,4,3,4,3,4,3,4,3,4,3,4,3,4,3,4,3,4,3,4,3,4,3,4,3,4,3,4,3,4,3,4,3,4,3,4,3,4,3,4,3,4,3,4,3,4,3,4,3,4,3,4,3,4,3,4,3,4,3,4,3,4,3,4,3,4,3,4,3,4,3,4,3,4,3,4,3,4,3,4,3,4,3,4,3,4,3,4,3,4,3,4,3,4,3,4,3,4,3,4,3,4,3,4,3,4,3,4,3,4,3,4,3,4,3,4,3,4,3,4,3,4,3,4,3,4,3,4,3,4,3,4,3,4,3,4,3,4,3,4,3,4,3,4,3,4,3,4,3,4,3,4,3,4,3,4,3,4,3,4,3,4,3,4,3,4,3,4,3,4,3,4,
1,2,1,2,1,2,1,2,1,2,1,2,1,2,1,2,1,2,1,2,1,2,1,2,1,2,1,2,1,2,1,2,1,2,1,2,1,2,1,2,1,2,1,2,1,2,1,2,1,2,1,2,1,2,1,2,1,2,1,2,1,2,1,2,1,2,1,2,1,2,1,2,1,2,1,2,1,2,1,2,1,2,1,2,1,2,1,2,1,2,1,2,1,2,1,2,1,2,1,2,1,2,1,2,1,2,1,2,1,2,1,2,1,2,1,2,1,2,1,2,1,2,1,2,1,2,1,2,1,2,1,2,1,2,1,2,1,2,1,2,1,2,1,2,1,2,1,2,1,2,1,2,1,2,1,2,1,2,1,2,1,2,1,2,1,2,1,2,1,2,1,2,1,2,1,2,1,2,1,2,1,2,1,2,1,2,1,2,1,2,1,2,1,2,1,2,1,2,1,2,1,2,1,2,1,2,1,2,1,2,1,2,1,2,1,2,1,2,1,2,1,2,1,2,1,2,1,2,1,2,1,2,1,2,1,2,1,2,1,2,1,2,1,2,1,2,1,2,1,2,1,2,1,2,1,2,1,2,1,2,1,2,1,2,1,2,1,2,1,2,1,2,1,2,1,2,1,2,1,2,1,2,1,2,1,2,1,2,1,2,1,2,1,2,1,2,1,2,1,2,1,2,1,2,1,2,1,2,1,2,1,2,1,2,1,2,1,2,1,2,1,2,1,2,1,2,1,2,1,2,1,2,1,2,1,2,1,2,1,2,1,2,1,2,1,2,1,2,1,2,1,2,1,2,1,2,1,2,1,2,1,2,1,2,1,2,1,2,1,2,1,2,1,2,1,2,1,2,1,2,1,2,1,2,1,2,1,2,1,2,1,2,1,2,1,2,1,2,1,2,1,2,1,2,1,2,1,2,1,2,1,2,1,2,1,2,1,2,1,2,1,2,1,2,1,2,1,2,1,2,1,2,1,2,1,2,1,2,1,2,1,2,1,2,1,2,1,2,1,2,1,2,1,2,1,2,1,2,1,2,1,2,1,2,1,2,1,2,1,2,1,2,1,2,1,2,1,2,1,2,1,2,1,2,1,2,1,2,1,2,1,2,1,2,1,2,1,2,1,2,1,2,1,2,1,2,1,2,1,2,1,2,
3,4,3,4,3,4,3,4,3,4,3,4,3,4,3,4,3,4,3,4,3,4,3,4,3,4,3,4,3,4,3,4,3,4,3,4,3,4,3,4,3,4,3,4,3,4,3,4,3,4,3,4,3,4,3,4,3,4,3,4,3,4,3,4,3,4,3,4,3,4,3,4,3,4,3,4,3,4,3,4,3,4,3,4,3,4,3,4,3,4,3,4,3,4,3,4,3,4,3,4,3,4,3,4,3,4,3,4,3,4,3,4,3,4,3,4,3,4,3,4,3,4,3,4,3,4,3,4,3,4,3,4,3,4,3,4,3,4,3,4,3,4,3,4,3,4,3,4,3,4,3,4,3,4,3,4,3,4,3,4,3,4,3,4,3,4,3,4,3,4,3,4,3,4,3,4,3,4,3,4,3,4,3,4,3,4,3,4,3,4,3,4,3,4,3,4,3,4,3,4,3,4,3,4,3,4,3,4,3,4,3,4,3,4,3,4,3,4,3,4,3,4,3,4,3,4,3,4,3,4,3,4,3,4,3,4,3,4,3,4,3,4,3,4,3,4,3,4,3,4,3,4,3,4,3,4,3,4,3,4,3,4,3,4,3,4,3,4,3,4,3,4,3,4,3,4,3,4,3,4,3,4,3,4,3,4,3,4,3,4,3,4,3,4,3,4,3,4,3,4,3,4,3,4,3,4,3,4,3,4,3,4,3,4,3,4,3,4,3,4,3,4,3,4,3,4,3,4,3,4,3,4,3,4,3,4,3,4,3,4,3,4,3,4,3,4,3,4,3,4,3,4,3,4,3,4,3,4,3,4,3,4,3,4,3,4,3,4,3,4,3,4,3,4,3,4,3,4,3,4,3,4,3,4,3,4,3,4,3,4,3,4,3,4,3,4,3,4,3,4,3,4,3,4,3,4,3,4,3,4,3,4,3,4,3,4,3,4,3,4,3,4,3,4,3,4,3,4,3,4,3,4,3,4,3,4,3,4,3,4,3,4,3,4,3,4,3,4,3,4,3,4,3,4,3,4,3,4,3,4,3,4,3,4,3,4,3,4,3,4,3,4,3,4,3,4,3,4,3,4,3,4,3,4,3,4,3,4,3,4,3,4,3,4,3,4,3,4,3,4,3,4,3,4,3,4,3,4,3,4,3,4,
1,2,1,2,1,2,1,2,1,2,1,2,1,2,1,2,1,2,1,2,1,2,1,2,1,2,1,2,1,2,1,2,1,2,1,2,1,2,1,2,1,2,1,2,1,2,1,2,1,2,1,2,1,2,1,2,1,2,1,2,1,2,1,2,1,2,1,2,1,2,1,2,1,2,1,2,1,2,1,2,1,2,1,2,1,2,1,2,1,2,1,2,1,2,1,2,1,2,1,2,1,2,1,2,1,2,1,2,1,2,1,2,1,2,1,2,1,2,1,2,1,2,1,2,1,2,1,2,1,2,1,2,1,2,1,2,1,2,1,2,1,2,1,2,1,2,1,2,1,2,1,2,1,2,1,2,1,2,1,2,1,2,1,2,1,2,1,2,1,2,1,2,1,2,1,2,1,2,1,2,1,2,1,2,1,2,1,2,1,2,1,2,1,2,1,2,1,2,1,2,1,2,1,2,1,2,1,2,1,2,1,2,1,2,1,2,1,2,1,2,1,2,1,2,1,2,1,2,1,2,1,2,1,2,1,2,1,2,1,2,1,2,1,2,1,2,1,2,1,2,1,2,1,2,1,2,1,2,1,2,1,2,1,2,1,2,1,2,1,2,1,2,1,2,1,2,1,2,1,2,1,2,1,2,1,2,1,2,1,2,1,2,1,2,1,2,1,2,1,2,1,2,1,2,1,2,1,2,1,2,1,2,1,2,1,2,1,2,1,2,1,2,1,2,1,2,1,2,1,2,1,2,1,2,1,2,1,2,1,2,1,2,1,2,1,2,1,2,1,2,1,2,1,2,1,2,1,2,1,2,1,2,1,2,1,2,1,2,1,2,1,2,1,2,1,2,1,2,1,2,1,2,1,2,1,2,1,2,1,2,1,2,1,2,1,2,1,2,1,2,1,2,1,2,1,2,1,2,1,2,1,2,1,2,1,2,1,2,1,2,1,2,1,2,1,2,1,2,1,2,1,2,1,2,1,2,1,2,1,2,1,2,1,2,1,2,1,2,1,2,1,2,1,2,1,2,1,2,1,2,1,2,1,2,1,2,1,2,1,2,1,2,1,2,1,2,1,2,1,2,1,2,1,2,1,2,1,2,1,2,1,2,1,2,1,2,1,2,1,2,1,2,1,2,1,2,1,2,1,2,1,2,
3,4,3,4,3,4,3,4,3,4,3,4,3,4,3,4,3,4,3,4,3,4,3,4,3,4,3,4,3,4,3,4,3,4,3,4,3,4,3,4,3,4,3,4,3,4,3,4,3,4,3,4,3,4,3,4,3,4,3,4,3,4,3,4,3,4,3,4,3,4,3,4,3,4,3,4,3,4,3,4,3,4,3,4,3,4,3,4,3,4,3,4,3,4,3,4,3,4,3,4,3,4,3,4,3,4,3,4,3,4,3,4,3,4,3,4,3,4,3,4,3,4,3,4,3,4,3,4,3,4,3,4,3,4,3,4,3,4,3,4,3,4,3,4,3,4,3,4,3,4,3,4,3,4,3,4,3,4,3,4,3,4,3,4,3,4,3,4,3,4,3,4,3,4,3,4,3,4,3,4,3,4,3,4,3,4,3,4,3,4,3,4,3,4,3,4,3,4,3,4,3,4,3,4,3,4,3,4,3,4,3,4,3,4,3,4,3,4,3,4,3,4,3,4,3,4,3,4,3,4,3,4,3,4,3,4,3,4,3,4,3,4,3,4,3,4,3,4,3,4,3,4,3,4,3,4,3,4,3,4,3,4,3,4,3,4,3,4,3,4,3,4,3,4,3,4,3,4,3,4,3,4,3,4,3,4,3,4,3,4,3,4,3,4,3,4,3,4,3,4,3,4,3,4,3,4,3,4,3,4,3,4,3,4,3,4,3,4,3,4,3,4,3,4,3,4,3,4,3,4,3,4,3,4,3,4,3,4,3,4,3,4,3,4,3,4,3,4,3,4,3,4,3,4,3,4,3,4,3,4,3,4,3,4,3,4,3,4,3,4,3,4,3,4,3,4,3,4,3,4,3,4,3,4,3,4,3,4,3,4,3,4,3,4,3,4,3,4,3,4,3,4,3,4,3,4,3,4,3,4,3,4,3,4,3,4,3,4,3,4,3,4,3,4,3,4,3,4,3,4,3,4,3,4,3,4,3,4,3,4,3,4,3,4,3,4,3,4,3,4,3,4,3,4,3,4,3,4,3,4,3,4,3,4,3,4,3,4,3,4,3,4,3,4,3,4,3,4,3,4,3,4,3,4,3,4,3,4,3,4,3,4,3,4,3,4,3,4,3,4,3,4,3,4,3,4,3,4,3,4,3,4,
1,2,1,2,1,2,1,2,1,2,1,2,1,2,1,2,1,2,1,2,1,2,1,2,1,2,1,2,1,2,1,2,1,2,1,2,1,2,1,2,1,2,1,2,1,2,1,2,1,2,1,2,1,2,1,2,1,2,1,2,1,2,1,2,1,2,1,2,1,2,1,2,1,2,1,2,1,2,1,2,1,2,1,2,1,2,1,2,1,2,1,2,1,2,1,2,1,2,1,2,1,2,1,2,1,2,1,2,1,2,1,2,1,2,1,2,1,2,1,2,1,2,1,2,1,2,1,2,1,2,1,2,1,2,1,2,1,2,1,2,1,2,1,2,1,2,1,2,1,2,1,2,1,2,1,2,1,2,1,2,1,2,1,2,1,2,1,2,1,2,1,2,1,2,1,2,1,2,1,2,1,2,1,2,1,2,1,2,1,2,1,2,1,2,1,2,1,2,1,2,1,2,1,2,1,2,1,2,1,2,1,2,1,2,1,2,1,2,1,2,1,2,1,2,1,2,1,2,1,2,1,2,1,2,1,2,1,2,1,2,1,2,1,2,1,2,1,2,1,2,1,2,1,2,1,2,1,2,1,2,1,2,1,2,1,2,1,2,1,2,1,2,1,2,1,2,1,2,1,2,1,2,1,2,1,2,1,2,1,2,1,2,1,2,1,2,1,2,1,2,1,2,1,2,1,2,1,2,1,2,1,2,1,2,1,2,1,2,1,2,1,2,1,2,1,2,1,2,1,2,1,2,1,2,1,2,1,2,1,2,1,2,1,2,1,2,1,2,1,2,1,2,1,2,1,2,1,2,1,2,1,2,1,2,1,2,1,2,1,2,1,2,1,2,1,2,1,2,1,2,1,2,1,2,1,2,1,2,1,2,1,2,1,2,1,2,1,2,1,2,1,2,1,2,1,2,1,2,1,2,1,2,1,2,1,2,1,2,1,2,1,2,1,2,1,2,1,2,1,2,1,2,1,2,1,2,1,2,1,2,1,2,1,2,1,2,1,2,1,2,1,2,1,2,1,2,1,2,1,2,1,2,1,2,1,2,1,2,1,2,1,2,1,2,1,2,1,2,1,2,1,2,1,2,1,2,1,2,1,2,1,2,1,2,1,2,1,2,1,2,1,2,1,2,1,2,1,2,1,2,1,2,
3,4,3,4,3,4,3,4,3,4,3,4,3,4,3,4,3,4,3,4,3,4,3,4,3,4,3,4,3,4,3,4,3,4,3,4,3,4,3,4,3,4,3,4,3,4,3,4,3,4,3,4,3,4,3,4,3,4,3,4,3,4,3,4,3,4,3,4,3,4,3,4,3,4,3,4,3,4,3,4,3,4,3,4,3,4,3,4,3,4,3,4,3,4,3,4,3,4,3,4,3,4,3,4,3,4,3,4,3,4,3,4,3,4,3,4,3,4,3,4,3,4,3,4,3,4,3,4,3,4,3,4,3,4,3,4,3,4,3,4,3,4,3,4,3,4,3,4,3,4,3,4,3,4,3,4,3,4,3,4,3,4,3,4,3,4,3,4,3,4,3,4,3,4,3,4,3,4,3,4,3,4,3,4,3,4,3,4,3,4,3,4,3,4,3,4,3,4,3,4,3,4,3,4,3,4,3,4,3,4,3,4,3,4,3,4,3,4,3,4,3,4,3,4,3,4,3,4,3,4,3,4,3,4,3,4,3,4,3,4,3,4,3,4,3,4,3,4,3,4,3,4,3,4,3,4,3,4,3,4,3,4,3,4,3,4,3,4,3,4,3,4,3,4,3,4,3,4,3,4,3,4,3,4,3,4,3,4,3,4,3,4,3,4,3,4,3,4,3,4,3,4,3,4,3,4,3,4,3,4,3,4,3,4,3,4,3,4,3,4,3,4,3,4,3,4,3,4,3,4,3,4,3,4,3,4,3,4,3,4,3,4,3,4,3,4,3,4,3,4,3,4,3,4,3,4,3,4,3,4,3,4,3,4,3,4,3,4,3,4,3,4,3,4,3,4,3,4,3,4,3,4,3,4,3,4,3,4,3,4,3,4,3,4,3,4,3,4,3,4,3,4,3,4,3,4,3,4,3,4,3,4,3,4,3,4,3,4,3,4,3,4,3,4,3,4,3,4,3,4,3,4,3,4,3,4,3,4,3,4,3,4,3,4,3,4,3,4,3,4,3,4,3,4,3,4,3,4,3,4,3,4,3,4,3,4,3,4,3,4,3,4,3,4,3,4,3,4,3,4,3,4,3,4,3,4,3,4,3,4,3,4,3,4,3,4,3,4,3,4,3,4,3,4,3,4,3,4,3,4,3,4,
1,2,1,2,1,2,1,2,1,2,1,2,1,2,1,2,1,2,1,2,1,2,1,2,1,2,1,2,1,2,1,2,1,2,1,2,1,2,1,2,1,2,1,2,1,2,1,2,1,2,1,2,1,2,1,2,1,2,1,2,1,2,1,2,1,2,1,2,1,2,1,2,1,2,1,2,1,2,1,2,1,2,1,2,1,2,1,2,1,2,1,2,1,2,1,2,1,2,1,2,1,2,1,2,1,2,1,2,1,2,1,2,1,2,1,2,1,2,1,2,1,2,1,2,1,2,1,2,1,2,1,2,1,2,1,2,1,2,1,2,1,2,1,2,1,2,1,2,1,2,1,2,1,2,1,2,1,2,1,2,1,2,1,2,1,2,1,2,1,2,1,2,1,2,1,2,1,2,1,2,1,2,1,2,1,2,1,2,1,2,1,2,1,2,1,2,1,2,1,2,1,2,1,2,1,2,1,2,1,2,1,2,1,2,1,2,1,2,1,2,1,2,1,2,1,2,1,2,1,2,1,2,1,2,1,2,1,2,1,2,1,2,1,2,1,2,1,2,1,2,1,2,1,2,1,2,1,2,1,2,1,2,1,2,1,2,1,2,1,2,1,2,1,2,1,2,1,2,1,2,1,2,1,2,1,2,1,2,1,2,1,2,1,2,1,2,1,2,1,2,1,2,1,2,1,2,1,2,1,2,1,2,1,2,1,2,1,2,1,2,1,2,1,2,1,2,1,2,1,2,1,2,1,2,1,2,1,2,1,2,1,2,1,2,1,2,1,2,1,2,1,2,1,2,1,2,1,2,1,2,1,2,1,2,1,2,1,2,1,2,1,2,1,2,1,2,1,2,1,2,1,2,1,2,1,2,1,2,1,2,1,2,1,2,1,2,1,2,1,2,1,2,1,2,1,2,1,2,1,2,1,2,1,2,1,2,1,2,1,2,1,2,1,2,1,2,1,2,1,2,1,2,1,2,1,2,1,2,1,2,1,2,1,2,1,2,1,2,1,2,1,2,1,2,1,2,1,2,1,2,1,2,1,2,1,2,1,2,1,2,1,2,1,2,1,2,1,2,1,2,1,2,1,2,1,2,1,2,1,2,1,2,1,2,1,2,1,2,1,2,1,2,1,2,1,2,1,2,1,2,1,2,
3,4,3,4,3,4,3,4,3,4,3,4,3,4,3,4,3,4,3,4,3,4,3,4,3,4,3,4,3,4,3,4,3,4,3,4,3,4,3,4,3,4,3,4,3,4,3,4,3,4,3,4,3,4,3,4,3,4,3,4,3,4,3,4,3,4,3,4,3,4,3,4,3,4,3,4,3,4,3,4,3,4,3,4,3,4,3,4,3,4,3,4,3,4,3,4,3,4,3,4,3,4,3,4,3,4,3,4,3,4,3,4,3,4,3,4,3,4,3,4,3,4,3,4,3,4,3,4,3,4,3,4,3,4,3,4,3,4,3,4,3,4,3,4,3,4,3,4,3,4,3,4,3,4,3,4,3,4,3,4,3,4,3,4,3,4,3,4,3,4,3,4,3,4,3,4,3,4,3,4,3,4,3,4,3,4,3,4,3,4,3,4,3,4,3,4,3,4,3,4,3,4,3,4,3,4,3,4,3,4,3,4,3,4,3,4,3,4,3,4,3,4,3,4,3,4,3,4,3,4,3,4,3,4,3,4,3,4,3,4,3,4,3,4,3,4,3,4,3,4,3,4,3,4,3,4,3,4,3,4,3,4,3,4,3,4,3,4,3,4,3,4,3,4,3,4,3,4,3,4,3,4,3,4,3,4,3,4,3,4,3,4,3,4,3,4,3,4,3,4,3,4,3,4,3,4,3,4,3,4,3,4,3,4,3,4,3,4,3,4,3,4,3,4,3,4,3,4,3,4,3,4,3,4,3,4,3,4,3,4,3,4,3,4,3,4,3,4,3,4,3,4,3,4,3,4,3,4,3,4,3,4,3,4,3,4,3,4,3,4,3,4,3,4,3,4,3,4,3,4,3,4,3,4,3,4,3,4,3,4,3,4,3,4,3,4,3,4,3,4,3,4,3,4,3,4,3,4,3,4,3,4,3,4,3,4,3,4,3,4,3,4,3,4,3,4,3,4,3,4,3,4,3,4,3,4,3,4,3,4,3,4,3,4,3,4,3,4,3,4,3,4,3,4,3,4,3,4,3,4,3,4,3,4,3,4,3,4,3,4,3,4,3,4,3,4,3,4,3,4,3,4,3,4,3,4,3,4,3,4,3,4,3,4,3,4,3,4,3,4,3,4,3,4,3,4,3,4,3,4,3,4,
1,2,1,2,1,2,1,2,1,2,1,2,1,2,1,2,1,2,1,2,1,2,1,2,1,2,1,2,1,2,1,2,1,2,1,2,1,2,1,2,1,2,1,2,1,2,1,2,1,2,1,2,1,2,1,2,1,2,1,2,1,2,1,2,1,2,1,2,1,2,1,2,1,2,1,2,1,2,1,2,1,2,1,2,1,2,1,2,1,2,1,2,1,2,1,2,1,2,1,2,1,2,1,2,1,2,1,2,1,2,1,2,1,2,1,2,1,2,1,2,1,2,1,2,1,2,1,2,1,2,1,2,1,2,1,2,1,2,1,2,1,2,1,2,1,2,1,2,1,2,1,2,1,2,1,2,1,2,1,2,1,2,1,2,1,2,1,2,1,2,1,2,1,2,1,2,1,2,1,2,1,2,1,2,1,2,1,2,1,2,1,2,1,2,1,2,1,2,1,2,1,2,1,2,1,2,1,2,1,2,1,2,1,2,1,2,1,2,1,2,1,2,1,2,1,2,1,2,1,2,1,2,1,2,1,2,1,2,1,2,1,2,1,2,1,2,1,2,1,2,1,2,1,2,1,2,1,2,1,2,1,2,1,2,1,2,1,2,1,2,1,2,1,2,1,2,1,2,1,2,1,2,1,2,1,2,1,2,1,2,1,2,1,2,1,2,1,2,1,2,1,2,1,2,1,2,1,2,1,2,1,2,1,2,1,2,1,2,1,2,1,2,1,2,1,2,1,2,1,2,1,2,1,2,1,2,1,2,1,2,1,2,1,2,1,2,1,2,1,2,1,2,1,2,1,2,1,2,1,2,1,2,1,2,1,2,1,2,1,2,1,2,1,2,1,2,1,2,1,2,1,2,1,2,1,2,1,2,1,2,1,2,1,2,1,2,1,2,1,2,1,2,1,2,1,2,1,2,1,2,1,2,1,2,1,2,1,2,1,2,1,2,1,2,1,2,1,2,1,2,1,2,1,2,1,2,1,2,1,2,1,2,1,2,1,2,1,2,1,2,1,2,1,2,1,2,1,2,1,2,1,2,1,2,1,2,1,2,1,2,1,2,1,2,1,2,1,2,1,2,1,2,1,2,1,2,1,2,1,2,1,2,1,2,1,2,1,2,1,2,1,2,1,2,1,2,1,2,1,2,1,2,
3,4,3,4,3,4,3,4,3,4,3,4,3,4,3,4,3,4,3,4,3,4,3,4,3,4,3,4,3,4,3,4,3,4,3,4,3,4,3,4,3,4,3,4,3,4,3,4,3,4,3,4,3,4,3,4,3,4,3,4,3,4,3,4,3,4,3,4,3,4,3,4,3,4,3,4,3,4,3,4,3,4,3,4,3,4,3,4,3,4,3,4,3,4,3,4,3,4,3,4,3,4,3,4,3,4,3,4,3,4,3,4,3,4,3,4,3,4,3,4,3,4,3,4,3,4,3,4,3,4,3,4,3,4,3,4,3,4,3,4,3,4,3,4,3,4,3,4,3,4,3,4,3,4,3,4,3,4,3,4,3,4,3,4,3,4,3,4,3,4,3,4,3,4,3,4,3,4,3,4,3,4,3,4,3,4,3,4,3,4,3,4,3,4,3,4,3,4,3,4,3,4,3,4,3,4,3,4,3,4,3,4,3,4,3,4,3,4,3,4,3,4,3,4,3,4,3,4,3,4,3,4,3,4,3,4,3,4,3,4,3,4,3,4,3,4,3,4,3,4,3,4,3,4,3,4,3,4,3,4,3,4,3,4,3,4,3,4,3,4,3,4,3,4,3,4,3,4,3,4,3,4,3,4,3,4,3,4,3,4,3,4,3,4,3,4,3,4,3,4,3,4,3,4,3,4,3,4,3,4,3,4,3,4,3,4,3,4,3,4,3,4,3,4,3,4,3,4,3,4,3,4,3,4,3,4,3,4,3,4,3,4,3,4,3,4,3,4,3,4,3,4,3,4,3,4,3,4,3,4,3,4,3,4,3,4,3,4,3,4,3,4,3,4,3,4,3,4,3,4,3,4,3,4,3,4,3,4,3,4,3,4,3,4,3,4,3,4,3,4,3,4,3,4,3,4,3,4,3,4,3,4,3,4,3,4,3,4,3,4,3,4,3,4,3,4,3,4,3,4,3,4,3,4,3,4,3,4,3,4,3,4,3,4,3,4,3,4,3,4,3,4,3,4,3,4,3,4,3,4,3,4,3,4,3,4,3,4,3,4,3,4,3,4,3,4,3,4,3,4,3,4,3,4,3,4,3,4,3,4,3,4,3,4,3,4,3,4,3,4,3,4,3,4,3,4,3,4,3,4,3,4,
1,2,1,2,1,2,1,2,1,2,1,2,1,2,1,2,1,2,1,2,1,2,1,2,1,2,1,2,1,2,1,2,1,2,1,2,1,2,1,2,1,2,1,2,1,2,1,2,1,2,1,2,1,2,1,2,1,2,1,2,1,2,1,2,1,2,1,2,1,2,1,2,1,2,1,2,1,2,1,2,1,2,1,2,1,2,1,2,1,2,1,2,1,2,1,2,1,2,1,2,1,2,1,2,1,2,1,2,1,2,1,2,1,2,1,2,1,2,1,2,1,2,1,2,1,2,1,2,1,2,1,2,1,2,1,2,1,2,1,2,1,2,1,2,1,2,1,2,1,2,1,2,1,2,1,2,1,2,1,2,1,2,1,2,1,2,1,2,1,2,1,2,1,2,1,2,1,2,1,2,1,2,1,2,1,2,1,2,1,2,1,2,1,2,1,2,1,2,1,2,1,2,1,2,1,2,1,2,1,2,1,2,1,2,1,2,1,2,1,2,1,2,1,2,1,2,1,2,1,2,1,2,1,2,1,2,1,2,1,2,1,2,1,2,1,2,1,2,1,2,1,2,1,2,1,2,1,2,1,2,1,2,1,2,1,2,1,2,1,2,1,2,1,2,1,2,1,2,1,2,1,2,1,2,1,2,1,2,1,2,1,2,1,2,1,2,1,2,1,2,1,2,1,2,1,2,1,2,1,2,1,2,1,2,1,2,1,2,1,2,1,2,1,2,1,2,1,2,1,2,1,2,1,2,1,2,1,2,1,2,1,2,1,2,1,2,1,2,1,2,1,2,1,2,1,2,1,2,1,2,1,2,1,2,1,2,1,2,1,2,1,2,1,2,1,2,1,2,1,2,1,2,1,2,1,2,1,2,1,2,1,2,1,2,1,2,1,2,1,2,1,2,1,2,1,2,1,2,1,2,1,2,1,2,1,2,1,2,1,2,1,2,1,2,1,2,1,2,1,2,1,2,1,2,1,2,1,2,1,2,1,2,1,2,1,2,1,2,1,2,1,2,1,2,1,2,1,2,1,2,1,2,1,2,1,2,1,2,1,2,1,2,1,2,1,2,1,2,1,2,1,2,1,2,1,2,1,2,1,2,1,2,1,2,1,2,1,2,1,2,1,2,1,2,1,2,1,2,1,2,1,2,
3,4,3,4,3,4,3,4,3,4,3,4,3,4,3,4,3,4,3,4,3,4,3,4,3,4,3,4,3,4,3,4,3,4,3,4,3,4,3,4,3,4,3,4,3,4,3,4,3,4,3,4,3,4,3,4,3,4,3,4,3,4,3,4,3,4,3,4,3,4,3,4,3,4,3,4,3,4,3,4,3,4,3,4,3,4,3,4,3,4,3,4,3,4,3,4,3,4,3,4,3,4,3,4,3,4,3,4,3,4,3,4,3,4,3,4,3,4,3,4,3,4,3,4,3,4,3,4,3,4,3,4,3,4,3,4,3,4,3,4,3,4,3,4,3,4,3,4,3,4,3,4,3,4,3,4,3,4,3,4,3,4,3,4,3,4,3,4,3,4,3,4,3,4,3,4,3,4,3,4,3,4,3,4,3,4,3,4,3,4,3,4,3,4,3,4,3,4,3,4,3,4,3,4,3,4,3,4,3,4,3,4,3,4,3,4,3,4,3,4,3,4,3,4,3,4,3,4,3,4,3,4,3,4,3,4,3,4,3,4,3,4,3,4,3,4,3,4,3,4,3,4,3,4,3,4,3,4,3,4,3,4,3,4,3,4,3,4,3,4,3,4,3,4,3,4,3,4,3,4,3,4,3,4,3,4,3,4,3,4,3,4,3,4,3,4,3,4,3,4,3,4,3,4,3,4,3,4,3,4,3,4,3,4,3,4,3,4,3,4,3,4,3,4,3,4,3,4,3,4,3,4,3,4,3,4,3,4,3,4,3,4,3,4,3,4,3,4,3,4,3,4,3,4,3,4,3,4,3,4,3,4,3,4,3,4,3,4,3,4,3,4,3,4,3,4,3,4,3,4,3,4,3,4,3,4,3,4,3,4,3,4,3,4,3,4,3,4,3,4,3,4,3,4,3,4,3,4,3,4,3,4,3,4,3,4,3,4,3,4,3,4,3,4,3,4,3,4,3,4,3,4,3,4,3,4,3,4,3,4,3,4,3,4,3,4,3,4,3,4,3,4,3,4,3,4,3,4,3,4,3,4,3,4,3,4,3,4,3,4,3,4,3,4,3,4,3,4,3,4,3,4,3,4,3,4,3,4,3,4,3,4,3,4,3,4,3,4,3,4,3,4,3,4,3,4,3,4,3,4,3,4,
1,2,1,2,1,2,1,2,1,2,1,2,1,2,1,2,1,2,1,2,1,2,1,2,1,2,1,2,1,2,1,2,1,2,1,2,1,2,1,2,1,2,1,2,1,2,1,2,1,2,1,2,1,2,1,2,1,2,1,2,1,2,1,2,1,2,1,2,1,2,1,2,1,2,1,2,1,2,1,2,1,2,1,2,1,2,1,2,1,2,1,2,1,2,1,2,1,2,1,2,1,2,1,2,1,2,1,2,1,2,1,2,1,2,1,2,1,2,1,2,1,2,1,2,1,2,1,2,1,2,1,2,1,2,1,2,1,2,1,2,1,2,1,2,1,2,1,2,1,2,1,2,1,2,1,2,1,2,1,2,1,2,1,2,1,2,1,2,1,2,1,2,1,2,1,2,1,2,1,2,1,2,1,2,1,2,1,2,1,2,1,2,1,2,1,2,1,2,1,2,1,2,1,2,1,2,1,2,1,2,1,2,1,2,1,2,1,2,1,2,1,2,1,2,1,2,1,2,1,2,1,2,1,2,1,2,1,2,1,2,1,2,1,2,1,2,1,2,1,2,1,2,1,2,1,2,1,2,1,2,1,2,1,2,1,2,1,2,1,2,1,2,1,2,1,2,1,2,1,2,1,2,1,2,1,2,1,2,1,2,1,2,1,2,1,2,1,2,1,2,1,2,1,2,1,2,1,2,1,2,1,2,1,2,1,2,1,2,1,2,1,2,1,2,1,2,1,2,1,2,1,2,1,2,1,2,1,2,1,2,1,2,1,2,1,2,1,2,1,2,1,2,1,2,1,2,1,2,1,2,1,2,1,2,1,2,1,2,1,2,1,2,1,2,1,2,1,2,1,2,1,2,1,2,1,2,1,2,1,2,1,2,1,2,1,2,1,2,1,2,1,2,1,2,1,2,1,2,1,2,1,2,1,2,1,2,1,2,1,2,1,2,1,2,1,2,1,2,1,2,1,2,1,2,1,2,1,2,1,2,1,2,1,2,1,2,1,2,1,2,1,2,1,2,1,2,1,2,1,2,1,2,1,2,1,2,1,2,1,2,1,2,1,2,1,2,1,2,1,2,1,2,1,2,1,2,1,2,1,2,1,2,1,2,1,2,1,2,1,2,1,2,1,2,1,2,1,2,1,2,1,2,
3,4,3,4,3,4,3,4,3,4,3,4,3,4,3,4,3,4,3,4,3,4,3,4,3,4,3,4,3,4,3,4,3,4,3,4,3,4,3,4,3,4,3,4,3,4,3,4,3,4,3,4,3,4,3,4,3,4,3,4,3,4,3,4,3,4,3,4,3,4,3,4,3,4,3,4,3,4,3,4,3,4,3,4,3,4,3,4,3,4,3,4,3,4,3,4,3,4,3,4,3,4,3,4,3,4,3,4,3,4,3,4,3,4,3,4,3,4,3,4,3,4,3,4,3,4,3,4,3,4,3,4,3,4,3,4,3,4,3,4,3,4,3,4,3,4,3,4,3,4,3,4,3,4,3,4,3,4,3,4,3,4,3,4,3,4,3,4,3,4,3,4,3,4,3,4,3,4,3,4,3,4,3,4,3,4,3,4,3,4,3,4,3,4,3,4,3,4,3,4,3,4,3,4,3,4,3,4,3,4,3,4,3,4,3,4,3,4,3,4,3,4,3,4,3,4,3,4,3,4,3,4,3,4,3,4,3,4,3,4,3,4,3,4,3,4,3,4,3,4,3,4,3,4,3,4,3,4,3,4,3,4,3,4,3,4,3,4,3,4,3,4,3,4,3,4,3,4,3,4,3,4,3,4,3,4,3,4,3,4,3,4,3,4,3,4,3,4,3,4,3,4,3,4,3,4,3,4,3,4,3,4,3,4,3,4,3,4,3,4,3,4,3,4,3,4,3,4,3,4,3,4,3,4,3,4,3,4,3,4,3,4,3,4,3,4,3,4,3,4,3,4,3,4,3,4,3,4,3,4,3,4,3,4,3,4,3,4,3,4,3,4,3,4,3,4,3,4,3,4,3,4,3,4,3,4,3,4,3,4,3,4,3,4,3,4,3,4,3,4,3,4,3,4,3,4,3,4,3,4,3,4,3,4,3,4,3,4,3,4,3,4,3,4,3,4,3,4,3,4,3,4,3,4,3,4,3,4,3,4,3,4,3,4,3,4,3,4,3,4,3,4,3,4,3,4,3,4,3,4,3,4,3,4,3,4,3,4,3,4,3,4,3,4,3,4,3,4,3,4,3,4,3,4,3,4,3,4,3,4,3,4,3,4,3,4,3,4,3,4,3,4,3,4,3,4,3,4,3,4,3,4,
1,2,1,2,1,2,1,2,1,2,1,2,1,2,1,2,1,2,1,2,1,2,1,2,1,2,1,2,1,2,1,2,1,2,1,2,1,2,1,2,1,2,1,2,1,2,1,2,1,2,1,2,1,2,1,2,1,2,1,2,1,2,1,2,1,2,1,2,1,2,1,2,1,2,1,2,1,2,1,2,1,2,1,2,1,2,1,2,1,2,1,2,1,2,1,2,1,2,1,2,1,2,1,2,1,2,1,2,1,2,1,2,1,2,1,2,1,2,1,2,1,2,1,2,1,2,1,2,1,2,1,2,1,2,1,2,1,2,1,2,1,2,1,2,1,2,1,2,1,2,1,2,1,2,1,2,1,2,1,2,1,2,1,2,1,2,1,2,1,2,1,2,1,2,1,2,1,2,1,2,1,2,1,2,1,2,1,2,1,2,1,2,1,2,1,2,1,2,1,2,1,2,1,2,1,2,1,2,1,2,1,2,1,2,1,2,1,2,1,2,1,2,1,2,1,2,1,2,1,2,1,2,1,2,1,2,1,2,1,2,1,2,1,2,1,2,1,2,1,2,1,2,1,2,1,2,1,2,1,2,1,2,1,2,1,2,1,2,1,2,1,2,1,2,1,2,1,2,1,2,1,2,1,2,1,2,1,2,1,2,1,2,1,2,1,2,1,2,1,2,1,2,1,2,1,2,1,2,1,2,1,2,1,2,1,2,1,2,1,2,1,2,1,2,1,2,1,2,1,2,1,2,1,2,1,2,1,2,1,2,1,2,1,2,1,2,1,2,1,2,1,2,1,2,1,2,1,2,1,2,1,2,1,2,1,2,1,2,1,2,1,2,1,2,1,2,1,2,1,2,1,2,1,2,1,2,1,2,1,2,1,2,1,2,1,2,1,2,1,2,1,2,1,2,1,2,1,2,1,2,1,2,1,2,1,2,1,2,1,2,1,2,1,2,1,2,1,2,1,2,1,2,1,2,1,2,1,2,1,2,1,2,1,2,1,2,1,2,1,2,1,2,1,2,1,2,1,2,1,2,1,2,1,2,1,2,1,2,1,2,1,2,1,2,1,2,1,2,1,2,1,2,1,2,1,2,1,2,1,2,1,2,1,2,1,2,1,2,1,2,1,2,1,2,1,2,1,2,1,2,1,2,
3,4,3,4,3,4,3,4,3,4,3,4,3,4,3,4,3,4,3,4,3,4,3,4,3,4,3,4,3,4,3,4,3,4,3,4,3,4,3,4,3,4,3,4,3,4,3,4,3,4,3,4,3,4,3,4,3,4,3,4,3,4,3,4,3,4,3,4,3,4,3,4,3,4,3,4,3,4,3,4,3,4,3,4,3,4,3,4,3,4,3,4,3,4,3,4,3,4,3,4,3,4,3,4,3,4,3,4,3,4,3,4,3,4,3,4,3,4,3,4,3,4,3,4,3,4,3,4,3,4,3,4,3,4,3,4,3,4,3,4,3,4,3,4,3,4,3,4,3,4,3,4,3,4,3,4,3,4,3,4,3,4,3,4,3,4,3,4,3,4,3,4,3,4,3,4,3,4,3,4,3,4,3,4,3,4,3,4,3,4,3,4,3,4,3,4,3,4,3,4,3,4,3,4,3,4,3,4,3,4,3,4,3,4,3,4,3,4,3,4,3,4,3,4,3,4,3,4,3,4,3,4,3,4,3,4,3,4,3,4,3,4,3,4,3,4,3,4,3,4,3,4,3,4,3,4,3,4,3,4,3,4,3,4,3,4,3,4,3,4,3,4,3,4,3,4,3,4,3,4,3,4,3,4,3,4,3,4,3,4,3,4,3,4,3,4,3,4,3,4,3,4,3,4,3,4,3,4,3,4,3,4,3,4,3,4,3,4,3,4,3,4,3,4,3,4,3,4,3,4,3,4,3,4,3,4,3,4,3,4,3,4,3,4,3,4,3,4,3,4,3,4,3,4,3,4,3,4,3,4,3,4,3,4,3,4,3,4,3,4,3,4,3,4,3,4,3,4,3,4,3,4,3,4,3,4,3,4,3,4,3,4,3,4,3,4,3,4,3,4,3,4,3,4,3,4,3,4,3,4,3,4,3,4,3,4,3,4,3,4,3,4,3,4,3,4,3,4,3,4,3,4,3,4,3,4,3,4,3,4,3,4,3,4,3,4,3,4,3,4,3,4,3,4,3,4,3,4,3,4,3,4,3,4,3,4,3,4,3,4,3,4,3,4,3,4,3,4,3,4,3,4,3,4,3,4,3,4,3,4,3,4,3,4,3,4,3,4,3,4,3,4,3,4,3,4,3,4,3,4,3,4,
1,2,1,2,1,2,1,2,1,2,1,2,1,2,1,2,1,2,1,2,1,2,1,2,1,2,1,2,1,2,1,2,1,2,1,2,1,2,1,2,1,2,1,2,1,2,1,2,1,2,1,2,1,2,1,2,1,2,1,2,1,2,1,2,1,2,1,2,1,2,1,2,1,2,1,2,1,2,1,2,1,2,1,2,1,2,1,2,1,2,1,2,1,2,1,2,1,2,1,2,1,2,1,2,1,2,1,2,1,2,1,2,1,2,1,2,1,2,1,2,1,2,1,2,1,2,1,2,1,2,1,2,1,2,1,2,1,2,1,2,1,2,1,2,1,2,1,2,1,2,1,2,1,2,1,2,1,2,1,2,1,2,1,2,1,2,1,2,1,2,1,2,1,2,1,2,1,2,1,2,1,2,1,2,1,2,1,2,1,2,1,2,1,2,1,2,1,2,1,2,1,2,1,2,1,2,1,2,1,2,1,2,1,2,1,2,1,2,1,2,1,2,1,2,1,2,1,2,1,2,1,2,1,2,1,2,1,2,1,2,1,2,1,2,1,2,1,2,1,2,1,2,1,2,1,2,1,2,1,2,1,2,1,2,1,2,1,2,1,2,1,2,1,2,1,2,1,2,1,2,1,2,1,2,1,2,1,2,1,2,1,2,1,2,1,2,1,2,1,2,1,2,1,2,1,2,1,2,1,2,1,2,1,2,1,2,1,2,1,2,1,2,1,2,1,2,1,2,1,2,1,2,1,2,1,2,1,2,1,2,1,2,1,2,1,2,1,2,1,2,1,2,1,2,1,2,1,2,1,2,1,2,1,2,1,2,1,2,1,2,1,2,1,2,1,2,1,2,1,2,1,2,1,2,1,2,1,2,1,2,1,2,1,2,1,2,1,2,1,2,1,2,1,2,1,2,1,2,1,2,1,2,1,2,1,2,1,2,1,2,1,2,1,2,1,2,1,2,1,2,1,2,1,2,1,2,1,2,1,2,1,2,1,2,1,2,1,2,1,2,1,2,1,2,1,2,1,2,1,2,1,2,1,2,1,2,1,2,1,2,1,2,1,2,1,2,1,2,1,2,1,2,1,2,1,2,1,2,1,2,1,2,1,2,1,2,1,2,1,2,1,2,1,2,1,2,1,2,1,2,1,2,
3,4,3,4,3,4,3,4,3,4,3,4,3,4,3,4,3,4,3,4,3,4,3,4,3,4,3,4,3,4,3,4,3,4,3,4,3,4,3,4,3,4,3,4,3,4,3,4,3,4,3,4,3,4,3,4,3,4,3,4,3,4,3,4,3,4,3,4,3,4,3,4,3,4,3,4,3,4,3,4,3,4,3,4,3,4,3,4,3,4,3,4,3,4,3,4,3,4,3,4,3,4,3,4,3,4,3,4,3,4,3,4,3,4,3,4,3,4,3,4,3,4,3,4,3,4,3,4,3,4,3,4,3,4,3,4,3,4,3,4,3,4,3,4,3,4,3,4,3,4,3,4,3,4,3,4,3,4,3,4,3,4,3,4,3,4,3,4,3,4,3,4,3,4,3,4,3,4,3,4,3,4,3,4,3,4,3,4,3,4,3,4,3,4,3,4,3,4,3,4,3,4,3,4,3,4,3,4,3,4,3,4,3,4,3,4,3,4,3,4,3,4,3,4,3,4,3,4,3,4,3,4,3,4,3,4,3,4,3,4,3,4,3,4,3,4,3,4,3,4,3,4,3,4,3,4,3,4,3,4,3,4,3,4,3,4,3,4,3,4,3,4,3,4,3,4,3,4,3,4,3,4,3,4,3,4,3,4,3,4,3,4,3,4,3,4,3,4,3,4,3,4,3,4,3,4,3,4,3,4,3,4,3,4,3,4,3,4,3,4,3,4,3,4,3,4,3,4,3,4,3,4,3,4,3,4,3,4,3,4,3,4,3,4,3,4,3,4,3,4,3,4,3,4,3,4,3,4,3,4,3,4,3,4,3,4,3,4,3,4,3,4,3,4,3,4,3,4,3,4,3,4,3,4,3,4,3,4,3,4,3,4,3,4,3,4,3,4,3,4,3,4,3,4,3,4,3,4,3,4,3,4,3,4,3,4,3,4,3,4,3,4,3,4,3,4,3,4,3,4,3,4,3,4,3,4,3,4,3,4,3,4,3,4,3,4,3,4,3,4,3,4,3,4,3,4,3,4,3,4,3,4,3,4,3,4,3,4,3,4,3,4,3,4,3,4,3,4,3,4,3,4,3,4,3,4,3,4,3,4,3,4,3,4,3,4,3,4,3,4,3,4,3,4,3,4,3,4,3,4,3,4,
1,2,1,2,1,2,1,2,1,2,1,2,1,2,1,2,1,2,1,2,1,2,1,2,1,2,1,2,1,2,1,2,1,2,1,2,1,2,1,2,1,2,1,2,1,2,1,2,1,2,1,2,1,2,1,2,1,2,1,2,1,2,1,2,1,2,1,2,1,2,1,2,1,2,1,2,1,2,1,2,1,2,1,2,1,2,1,2,1,2,1,2,1,2,1,2,1,2,1,2,1,2,1,2,1,2,1,2,1,2,1,2,1,2,1,2,1,2,1,2,1,2,1,2,1,2,1,2,1,2,1,2,1,2,1,2,1,2,1,2,1,2,1,2,1,2,1,2,1,2,1,2,1,2,1,2,1,2,1,2,1,2,1,2,1,2,1,2,1,2,1,2,1,2,1,2,1,2,1,2,1,2,1,2,1,2,1,2,1,2,1,2,1,2,1,2,1,2,1,2,1,2,1,2,1,2,1,2,1,2,1,2,1,2,1,2,1,2,1,2,1,2,1,2,1,2,1,2,1,2,1,2,1,2,1,2,1,2,1,2,1,2,1,2,1,2,1,2,1,2,1,2,1,2,1,2,1,2,1,2,1,2,1,2,1,2,1,2,1,2,1,2,1,2,1,2,1,2,1,2,1,2,1,2,1,2,1,2,1,2,1,2,1,2,1,2,1,2,1,2,1,2,1,2,1,2,1,2,1,2,1,2,1,2,1,2,1,2,1,2,1,2,1,2,1,2,1,2,1,2,1,2,1,2,1,2,1,2,1,2,1,2,1,2,1,2,1,2,1,2,1,2,1,2,1,2,1,2,1,2,1,2,1,2,1,2,1,2,1,2,1,2,1,2,1,2,1,2,1,2,1,2,1,2,1,2,1,2,1,2,1,2,1,2,1,2,1,2,1,2,1,2,1,2,1,2,1,2,1,2,1,2,1,2,1,2,1,2,1,2,1,2,1,2,1,2,1,2,1,2,1,2,1,2,1,2,1,2,1,2,1,2,1,2,1,2,1,2,1,2,1,2,1,2,1,2,1,2,1,2,1,2,1,2,1,2,1,2,1,2,1,2,1,2,1,2,1,2,1,2,1,2,1,2,1,2,1,2,1,2,1,2,1,2,1,2,1,2,1,2,1,2,1,2,1,2,1,2,1,2,1,2,
3,4,3,4,3,4,3,4,3,4,3,4,3,4,3,4,3,4,3,4,3,4,3,4,3,4,3,4,3,4,3,4,3,4,3,4,3,4,3,4,3,4,3,4,3,4,3,4,3,4,3,4,3,4,3,4,3,4,3,4,3,4,3,4,3,4,3,4,3,4,3,4,3,4,3,4,3,4,3,4,3,4,3,4,3,4,3,4,3,4,3,4,3,4,3,4,3,4,3,4,3,4,3,4,3,4,3,4,3,4,3,4,3,4,3,4,3,4,3,4,3,4,3,4,3,4,3,4,3,4,3,4,3,4,3,4,3,4,3,4,3,4,3,4,3,4,3,4,3,4,3,4,3,4,3,4,3,4,3,4,3,4,3,4,3,4,3,4,3,4,3,4,3,4,3,4,3,4,3,4,3,4,3,4,3,4,3,4,3,4,3,4,3,4,3,4,3,4,3,4,3,4,3,4,3,4,3,4,3,4,3,4,3,4,3,4,3,4,3,4,3,4,3,4,3,4,3,4,3,4,3,4,3,4,3,4,3,4,3,4,3,4,3,4,3,4,3,4,3,4,3,4,3,4,3,4,3,4,3,4,3,4,3,4,3,4,3,4,3,4,3,4,3,4,3,4,3,4,3,4,3,4,3,4,3,4,3,4,3,4,3,4,3,4,3,4,3,4,3,4,3,4,3,4,3,4,3,4,3,4,3,4,3,4,3,4,3,4,3,4,3,4,3,4,3,4,3,4,3,4,3,4,3,4,3,4,3,4,3,4,3,4,3,4,3,4,3,4,3,4,3,4,3,4,3,4,3,4,3,4,3,4,3,4,3,4,3,4,3,4,3,4,3,4,3,4,3,4,3,4,3,4,3,4,3,4,3,4,3,4,3,4,3,4,3,4,3,4,3,4,3,4,3,4,3,4,3,4,3,4,3,4,3,4,3,4,3,4,3,4,3,4,3,4,3,4,3,4,3,4,3,4,3,4,3,4,3,4,3,4,3,4,3,4,3,4,3,4,3,4,3,4,3,4,3,4,3,4,3,4,3,4,3,4,3,4,3,4,3,4,3,4,3,4,3,4,3,4,3,4,3,4,3,4,3,4,3,4,3,4,3,4,3,4,3,4,3,4,3,4,3,4,3,4,3,4,3,4,3,4,3,4,
1,2,1,2,1,2,1,2,1,2,1,2,1,2,1,2,1,2,1,2,1,2,1,2,1,2,1,2,1,2,1,2,1,2,1,2,1,2,1,2,1,2,1,2,1,2,1,2,1,2,1,2,1,2,1,2,1,2,1,2,1,2,1,2,1,2,1,2,1,2,1,2,1,2,1,2,1,2,1,2,1,2,1,2,1,2,1,2,1,2,1,2,1,2,1,2,1,2,1,2,1,2,1,2,1,2,1,2,1,2,1,2,1,2,1,2,1,2,1,2,1,2,1,2,1,2,1,2,1,2,1,2,1,2,1,2,1,2,1,2,1,2,1,2,1,2,1,2,1,2,1,2,1,2,1,2,1,2,1,2,1,2,1,2,1,2,1,2,1,2,1,2,1,2,1,2,1,2,1,2,1,2,1,2,1,2,1,2,1,2,1,2,1,2,1,2,1,2,1,2,1,2,1,2,1,2,1,2,1,2,1,2,1,2,1,2,1,2,1,2,1,2,1,2,1,2,1,2,1,2,1,2,1,2,1,2,1,2,1,2,1,2,1,2,1,2,1,2,1,2,1,2,1,2,1,2,1,2,1,2,1,2,1,2,1,2,1,2,1,2,1,2,1,2,1,2,1,2,1,2,1,2,1,2,1,2,1,2,1,2,1,2,1,2,1,2,1,2,1,2,1,2,1,2,1,2,1,2,1,2,1,2,1,2,1,2,1,2,1,2,1,2,1,2,1,2,1,2,1,2,1,2,1,2,1,2,1,2,1,2,1,2,1,2,1,2,1,2,1,2,1,2,1,2,1,2,1,2,1,2,1,2,1,2,1,2,1,2,1,2,1,2,1,2,1,2,1,2,1,2,1,2,1,2,1,2,1,2,1,2,1,2,1,2,1,2,1,2,1,2,1,2,1,2,1,2,1,2,1,2,1,2,1,2,1,2,1,2,1,2,1,2,1,2,1,2,1,2,1,2,1,2,1,2,1,2,1,2,1,2,1,2,1,2,1,2,1,2,1,2,1,2,1,2,1,2,1,2,1,2,1,2,1,2,1,2,1,2,1,2,1,2,1,2,1,2,1,2,1,2,1,2,1,2,1,2,1,2,1,2,1,2,1,2,1,2,1,2,1,2,1,2,1,2,1,2,1,2,1,2,1,2,
3,4,3,4,3,4,3,4,3,4,3,4,3,4,3,4,3,4,3,4,3,4,3,4,3,4,3,4,3,4,3,4,3,4,3,4,3,4,3,4,3,4,3,4,3,4,3,4,3,4,3,4,3,4,3,4,3,4,3,4,3,4,3,4,3,4,3,4,3,4,3,4,3,4,3,4,3,4,3,4,3,4,3,4,3,4,3,4,3,4,3,4,3,4,3,4,3,4,3,4,3,4,3,4,3,4,3,4,3,4,3,4,3,4,3,4,3,4,3,4,3,4,3,4,3,4,3,4,3,4,3,4,3,4,3,4,3,4,3,4,3,4,3,4,3,4,3,4,3,4,3,4,3,4,3,4,3,4,3,4,3,4,3,4,3,4,3,4,3,4,3,4,3,4,3,4,3,4,3,4,3,4,3,4,3,4,3,4,3,4,3,4,3,4,3,4,3,4,3,4,3,4,3,4,3,4,3,4,3,4,3,4,3,4,3,4,3,4,3,4,3,4,3,4,3,4,3,4,3,4,3,4,3,4,3,4,3,4,3,4,3,4,3,4,3,4,3,4,3,4,3,4,3,4,3,4,3,4,3,4,3,4,3,4,3,4,3,4,3,4,3,4,3,4,3,4,3,4,3,4,3,4,3,4,3,4,3,4,3,4,3,4,3,4,3,4,3,4,3,4,3,4,3,4,3,4,3,4,3,4,3,4,3,4,3,4,3,4,3,4,3,4,3,4,3,4,3,4,3,4,3,4,3,4,3,4,3,4,3,4,3,4,3,4,3,4,3,4,3,4,3,4,3,4,3,4,3,4,3,4,3,4,3,4,3,4,3,4,3,4,3,4,3,4,3,4,3,4,3,4,3,4,3,4,3,4,3,4,3,4,3,4,3,4,3,4,3,4,3,4,3,4,3,4,3,4,3,4,3,4,3,4,3,4,3,4,3,4,3,4,3,4,3,4,3,4,3,4,3,4,3,4,3,4,3,4,3,4,3,4,3,4,3,4,3,4,3,4,3,4,3,4,3,4,3,4,3,4,3,4,3,4,3,4,3,4,3,4,3,4,3,4,3,4,3,4,3,4,3,4,3,4,3,4,3,4,3,4,3,4,3,4,3,4,3,4,3,4,3,4,3,4,3,4,3,4,3,4,3,4,3,4,
1,2,1,2,1,2,1,2,1,2,1,2,1,2,1,2,1,2,1,2,1,2,1,2,1,2,1,2,1,2,1,2,1,2,1,2,1,2,1,2,1,2,1,2,1,2,1,2,1,2,1,2,1,2,1,2,1,2,1,2,1,2,1,2,1,2,1,2,1,2,1,2,1,2,1,2,1,2,1,2,1,2,1,2,1,2,1,2,1,2,1,2,1,2,1,2,1,2,1,2,1,2,1,2,1,2,1,2,1,2,1,2,1,2,1,2,1,2,1,2,1,2,1,2,1,2,1,2,1,2,1,2,1,2,1,2,1,2,1,2,1,2,1,2,1,2,1,2,1,2,1,2,1,2,1,2,1,2,1,2,1,2,1,2,1,2,1,2,1,2,1,2,1,2,1,2,1,2,1,2,1,2,1,2,1,2,1,2,1,2,1,2,1,2,1,2,1,2,1,2,1,2,1,2,1,2,1,2,1,2,1,2,1,2,1,2,1,2,1,2,1,2,1,2,1,2,1,2,1,2,1,2,1,2,1,2,1,2,1,2,1,2,1,2,1,2,1,2,1,2,1,2,1,2,1,2,1,2,1,2,1,2,1,2,1,2,1,2,1,2,1,2,1,2,1,2,1,2,1,2,1,2,1,2,1,2,1,2,1,2,1,2,1,2,1,2,1,2,1,2,1,2,1,2,1,2,1,2,1,2,1,2,1,2,1,2,1,2,1,2,1,2,1,2,1,2,1,2,1,2,1,2,1,2,1,2,1,2,1,2,1,2,1,2,1,2,1,2,1,2,1,2,1,2,1,2,1,2,1,2,1,2,1,2,1,2,1,2,1,2,1,2,1,2,1,2,1,2,1,2,1,2,1,2,1,2,1,2,1,2,1,2,1,2,1,2,1,2,1,2,1,2,1,2,1,2,1,2,1,2,1,2,1,2,1,2,1,2,1,2,1,2,1,2,1,2,1,2,1,2,1,2,1,2,1,2,1,2,1,2,1,2,1,2,1,2,1,2,1,2,1,2,1,2,1,2,1,2,1,2,1,2,1,2,1,2,1,2,1,2,1,2,1,2,1,2,1,2,1,2,1,2,1,2,1,2,1,2,1,2,1,2,1,2,1,2,1,2,1,2,1,2,1,2,1,2,1,2,1,2,1,2,
3,4,3,4,3,4,3,4,3,4,3,4,3,4,3,4,3,4,3,4,3,4,3,4,3,4,3,4,3,4,3,4,3,4,3,4,3,4,3,4,3,4,3,4,3,4,3,4,3,4,3,4,3,4,3,4,3,4,3,4,3,4,3,4,3,4,3,4,3,4,3,4,3,4,3,4,3,4,3,4,3,4,3,4,3,4,3,4,3,4,3,4,3,4,3,4,3,4,3,4,3,4,3,4,3,4,3,4,3,4,3,4,3,4,3,4,3,4,3,4,3,4,3,4,3,4,3,4,3,4,3,4,3,4,3,4,3,4,3,4,3,4,3,4,3,4,3,4,3,4,3,4,3,4,3,4,3,4,3,4,3,4,3,4,3,4,3,4,3,4,3,4,3,4,3,4,3,4,3,4,3,4,3,4,3,4,3,4,3,4,3,4,3,4,3,4,3,4,3,4,3,4,3,4,3,4,3,4,3,4,3,4,3,4,3,4,3,4,3,4,3,4,3,4,3,4,3,4,3,4,3,4,3,4,3,4,3,4,3,4,3,4,3,4,3,4,3,4,3,4,3,4,3,4,3,4,3,4,3,4,3,4,3,4,3,4,3,4,3,4,3,4,3,4,3,4,3,4,3,4,3,4,3,4,3,4,3,4,3,4,3,4,3,4,3,4,3,4,3,4,3,4,3,4,3,4,3,4,3,4,3,4,3,4,3,4,3,4,3,4,3,4,3,4,3,4,3,4,3,4,3,4,3,4,3,4,3,4,3,4,3,4,3,4,3,4,3,4,3,4,3,4,3,4,3,4,3,4,3,4,3,4,3,4,3,4,3,4,3,4,3,4,3,4,3,4,3,4,3,4,3,4,3,4,3,4,3,4,3,4,3,4,3,4,3,4,3,4,3,4,3,4,3,4,3,4,3,4,3,4,3,4,3,4,3,4,3,4,3,4,3,4,3,4,3,4,3,4,3,4,3,4,3,4,3,4,3,4,3,4,3,4,3,4,3,4,3,4,3,4,3,4,3,4,3,4,3,4,3,4,3,4,3,4,3,4,3,4,3,4,3,4,3,4,3,4,3,4,3,4,3,4,3,4,3,4,3,4,3,4,3,4,3,4,3,4,3,4,3,4,3,4,3,4,3,4,3,4,3,4,3,4,
1,2,1,2,1,2,1,2,1,2,1,2,1,2,1,2,1,2,1,2,1,2,1,2,1,2,1,2,1,2,1,2,1,2,1,2,1,2,1,2,1,2,1,2,1,2,1,2,1,2,1,2,1,2,1,2,1,2,1,2,1,2,1,2,1,2,1,2,1,2,1,2,1,2,1,2,1,2,1,2,1,2,1,2,1,2,1,2,1,2,1,2,1,2,1,2,1,2,1,2,1,2,1,2,1,2,1,2,1,2,1,2,1,2,1,2,1,2,1,2,1,2,1,2,1,2,1,2,1,2,1,2,1,2,1,2,1,2,1,2,1,2,1,2,1,2,1,2,1,2,1,2,1,2,1,2,1,2,1,2,1,2,1,2,1,2,1,2,1,2,1,2,1,2,1,2,1,2,1,2,1,2,1,2,1,2,1,2,1,2,1,2,1,2,1,2,1,2,1,2,1,2,1,2,1,2,1,2,1,2,1,2,1,2,1,2,1,2,1,2,1,2,1,2,1,2,1,2,1,2,1,2,1,2,1,2,1,2,1,2,1,2,1,2,1,2,1,2,1,2,1,2,1,2,1,2,1,2,1,2,1,2,1,2,1,2,1,2,1,2,1,2,1,2,1,2,1,2,1,2,1,2,1,2,1,2,1,2,1,2,1,2,1,2,1,2,1,2,1,2,1,2,1,2,1,2,1,2,1,2,1,2,1,2,1,2,1,2,1,2,1,2,1,2,1,2,1,2,1,2,1,2,1,2,1,2,1,2,1,2,1,2,1,2,1,2,1,2,1,2,1,2,1,2,1,2,1,2,1,2,1,2,1,2,1,2,1,2,1,2,1,2,1,2,1,2,1,2,1,2,1,2,1,2,1,2,1,2,1,2,1,2,1,2,1,2,1,2,1,2,1,2,1,2,1,2,1,2,1,2,1,2,1,2,1,2,1,2,1,2,1,2,1,2,1,2,1,2,1,2,1,2,1,2,1,2,1,2,1,2,1,2,1,2,1,2,1,2,1,2,1,2,1,2,1,2,1,2,1,2,1,2,1,2,1,2,1,2,1,2,1,2,1,2,1,2,1,2,1,2,1,2,1,2,1,2,1,2,1,2,1,2,1,2,1,2,1,2,1,2,1,2,1,2,1,2,1,2,1,2,1,2,
3,4,3,4,3,4,3,4,3,4,3,4,3,4,3,4,3,4,3,4,3,4,3,4,3,4,3,4,3,4,3,4,3,4,3,4,3,4,3,4,3,4,3,4,3,4,3,4,3,4,3,4,3,4,3,4,3,4,3,4,3,4,3,4,3,4,3,4,3,4,3,4,3,4,3,4,3,4,3,4,3,4,3,4,3,4,3,4,3,4,3,4,3,4,3,4,3,4,3,4,3,4,3,4,3,4,3,4,3,4,3,4,3,4,3,4,3,4,3,4,3,4,3,4,3,4,3,4,3,4,3,4,3,4,3,4,3,4,3,4,3,4,3,4,3,4,3,4,3,4,3,4,3,4,3,4,3,4,3,4,3,4,3,4,3,4,3,4,3,4,3,4,3,4,3,4,3,4,3,4,3,4,3,4,3,4,3,4,3,4,3,4,3,4,3,4,3,4,3,4,3,4,3,4,3,4,3,4,3,4,3,4,3,4,3,4,3,4,3,4,3,4,3,4,3,4,3,4,3,4,3,4,3,4,3,4,3,4,3,4,3,4,3,4,3,4,3,4,3,4,3,4,3,4,3,4,3,4,3,4,3,4,3,4,3,4,3,4,3,4,3,4,3,4,3,4,3,4,3,4,3,4,3,4,3,4,3,4,3,4,3,4,3,4,3,4,3,4,3,4,3,4,3,4,3,4,3,4,3,4,3,4,3,4,3,4,3,4,3,4,3,4,3,4,3,4,3,4,3,4,3,4,3,4,3,4,3,4,3,4,3,4,3,4,3,4,3,4,3,4,3,4,3,4,3,4,3,4,3,4,3,4,3,4,3,4,3,4,3,4,3,4,3,4,3,4,3,4,3,4,3,4,3,4,3,4,3,4,3,4,3,4,3,4,3,4,3,4,3,4,3,4,3,4,3,4,3,4,3,4,3,4,3,4,3,4,3,4,3,4,3,4,3,4,3,4,3,4,3,4,3,4,3,4,3,4,3,4,3,4,3,4,3,4,3,4,3,4,3,4,3,4,3,4,3,4,3,4,3,4,3,4,3,4,3,4,3,4,3,4,3,4,3,4,3,4,3,4,3,4,3,4,3,4,3,4,3,4,3,4,3,4,3,4,3,4,3,4,3,4,3,4,3,4,3,4,3,4,3,4,3,4,
1,2,1,2,1,2,1,2,1,2,1,2,1,2,1,2,1,2,1,2,1,2,1,2,1,2,1,2,1,2,1,2,1,2,1,2,1,2,1,2,1,2,1,2,1,2,1,2,1,2,1,2,1,2,1,2,1,2,1,2,1,2,1,2,1,2,1,2,1,2,1,2,1,2,1,2,1,2,1,2,1,2,1,2,1,2,1,2,1,2,1,2,1,2,1,2,1,2,1,2,1,2,1,2,1,2,1,2,1,2,1,2,1,2,1,2,1,2,1,2,1,2,1,2,1,2,1,2,1,2,1,2,1,2,1,2,1,2,1,2,1,2,1,2,1,2,1,2,1,2,1,2,1,2,1,2,1,2,1,2,1,2,1,2,1,2,1,2,1,2,1,2,1,2,1,2,1,2,1,2,1,2,1,2,1,2,1,2,1,2,1,2,1,2,1,2,1,2,1,2,1,2,1,2,1,2,1,2,1,2,1,2,1,2,1,2,1,2,1,2,1,2,1,2,1,2,1,2,1,2,1,2,1,2,1,2,1,2,1,2,1,2,1,2,1,2,1,2,1,2,1,2,1,2,1,2,1,2,1,2,1,2,1,2,1,2,1,2,1,2,1,2,1,2,1,2,1,2,1,2,1,2,1,2,1,2,1,2,1,2,1,2,1,2,1,2,1,2,1,2,1,2,1,2,1,2,1,2,1,2,1,2,1,2,1,2,1,2,1,2,1,2,1,2,1,2,1,2,1,2,1,2,1,2,1,2,1,2,1,2,1,2,1,2,1,2,1,2,1,2,1,2,1,2,1,2,1,2,1,2,1,2,1,2,1,2,1,2,1,2,1,2,1,2,1,2,1,2,1,2,1,2,1,2,1,2,1,2,1,2,1,2,1,2,1,2,1,2,1,2,1,2,1,2,1,2,1,2,1,2,1,2,1,2,1,2,1,2,1,2,1,2,1,2,1,2,1,2,1,2,1,2,1,2,1,2,1,2,1,2,1,2,1,2,1,2,1,2,1,2,1,2,1,2,1,2,1,2,1,2,1,2,1,2,1,2,1,2,1,2,1,2,1,2,1,2,1,2,1,2,1,2,1,2,1,2,1,2,1,2,1,2,1,2,1,2,1,2,1,2,1,2,1,2,1,2,1,2,1,2,1,2,
3,4,3,4,3,4,3,4,3,4,3,4,3,4,3,4,3,4,3,4,3,4,3,4,3,4,3,4,3,4,3,4,3,4,3,4,3,4,3,4,3,4,3,4,3,4,3,4,3,4,3,4,3,4,3,4,3,4,3,4,3,4,3,4,3,4,3,4,3,4,3,4,3,4,3,4,3,4,3,4,3,4,3,4,3,4,3,4,3,4,3,4,3,4,3,4,3,4,3,4,3,4,3,4,3,4,3,4,3,4,3,4,3,4,3,4,3,4,3,4,3,4,3,4,3,4,3,4,3,4,3,4,3,4,3,4,3,4,3,4,3,4,3,4,3,4,3,4,3,4,3,4,3,4,3,4,3,4,3,4,3,4,3,4,3,4,3,4,3,4,3,4,3,4,3,4,3,4,3,4,3,4,3,4,3,4,3,4,3,4,3,4,3,4,3,4,3,4,3,4,3,4,3,4,3,4,3,4,3,4,3,4,3,4,3,4,3,4,3,4,3,4,3,4,3,4,3,4,3,4,3,4,3,4,3,4,3,4,3,4,3,4,3,4,3,4,3,4,3,4,3,4,3,4,3,4,3,4,3,4,3,4,3,4,3,4,3,4,3,4,3,4,3,4,3,4,3,4,3,4,3,4,3,4,3,4,3,4,3,4,3,4,3,4,3,4,3,4,3,4,3,4,3,4,3,4,3,4,3,4,3,4,3,4,3,4,3,4,3,4,3,4,3,4,3,4,3,4,3,4,3,4,3,4,3,4,3,4,3,4,3,4,3,4,3,4,3,4,3,4,3,4,3,4,3,4,3,4,3,4,3,4,3,4,3,4,3,4,3,4,3,4,3,4,3,4,3,4,3,4,3,4,3,4,3,4,3,4,3,4,3,4,3,4,3,4,3,4,3,4,3,4,3,4,3,4,3,4,3,4,3,4,3,4,3,4,3,4,3,4,3,4,3,4,3,4,3,4,3,4,3,4,3,4,3,4,3,4,3,4,3,4,3,4,3,4,3,4,3,4,3,4,3,4,3,4,3,4,3,4,3,4,3,4,3,4,3,4,3,4,3,4,3,4,3,4,3,4,3,4,3,4,3,4,3,4,3,4,3,4,3,4,3,4,3,4,3,4,3,4,3,4,3,4,3,4,3,4,3,4,3,4,
1,2,1,2,1,2,1,2,1,2,1,2,1,2,1,2,1,2,1,2,1,2,1,2,1,2,1,2,1,2,1,2,1,2,1,2,1,2,1,2,1,2,1,2,1,2,1,2,1,2,1,2,1,2,1,2,1,2,1,2,1,2,1,2,1,2,1,2,1,2,1,2,1,2,1,2,1,2,1,2,1,2,1,2,1,2,1,2,1,2,1,2,1,2,1,2,1,2,1,2,1,2,1,2,1,2,1,2,1,2,1,2,1,2,1,2,1,2,1,2,1,2,1,2,1,2,1,2,1,2,1,2,1,2,1,2,1,2,1,2,1,2,1,2,1,2,1,2,1,2,1,2,1,2,1,2,1,2,1,2,1,2,1,2,1,2,1,2,1,2,1,2,1,2,1,2,1,2,1,2,1,2,1,2,1,2,1,2,1,2,1,2,1,2,1,2,1,2,1,2,1,2,1,2,1,2,1,2,1,2,1,2,1,2,1,2,1,2,1,2,1,2,1,2,1,2,1,2,1,2,1,2,1,2,1,2,1,2,1,2,1,2,1,2,1,2,1,2,1,2,1,2,1,2,1,2,1,2,1,2,1,2,1,2,1,2,1,2,1,2,1,2,1,2,1,2,1,2,1,2,1,2,1,2,1,2,1,2,1,2,1,2,1,2,1,2,1,2,1,2,1,2,1,2,1,2,1,2,1,2,1,2,1,2,1,2,1,2,1,2,1,2,1,2,1,2,1,2,1,2,1,2,1,2,1,2,1,2,1,2,1,2,1,2,1,2,1,2,1,2,1,2,1,2,1,2,1,2,1,2,1,2,1,2,1,2,1,2,1,2,1,2,1,2,1,2,1,2,1,2,1,2,1,2,1,2,1,2,1,2,1,2,1,2,1,2,1,2,1,2,1,2,1,2,1,2,1,2,1,2,1,2,1,2,1,2,1,2,1,2,1,2,1,2,1,2,1,2,1,2,1,2,1,2,1,2,1,2,1,2,1,2,1,2,1,2,1,2,1,2,1,2,1,2,1,2,1,2,1,2,1,2,1,2,1,2,1,2,1,2,1,2,1,2,1,2,1,2,1,2,1,2,1,2,1,2,1,2,1,2,1,2,1,2,1,2,1,2,1,2,1,2,1,2,1,2,1,2,1,2,1,2,
3,4,3,4,3,4,3,4,3,4,3,4,3,4,3,4,3,4,3,4,3,4,3,4,3,4,3,4,3,4,3,4,3,4,3,4,3,4,3,4,3,4,3,4,3,4,3,4,3,4,3,4,3,4,3,4,3,4,3,4,3,4,3,4,3,4,3,4,3,4,3,4,3,4,3,4,3,4,3,4,3,4,3,4,3,4,3,4,3,4,3,4,3,4,3,4,3,4,3,4,3,4,3,4,3,4,3,4,3,4,3,4,3,4,3,4,3,4,3,4,3,4,3,4,3,4,3,4,3,4,3,4,3,4,3,4,3,4,3,4,3,4,3,4,3,4,3,4,3,4,3,4,3,4,3,4,3,4,3,4,3,4,3,4,3,4,3,4,3,4,3,4,3,4,3,4,3,4,3,4,3,4,3,4,3,4,3,4,3,4,3,4,3,4,3,4,3,4,3,4,3,4,3,4,3,4,3,4,3,4,3,4,3,4,3,4,3,4,3,4,3,4,3,4,3,4,3,4,3,4,3,4,3,4,3,4,3,4,3,4,3,4,3,4,3,4,3,4,3,4,3,4,3,4,3,4,3,4,3,4,3,4,3,4,3,4,3,4,3,4,3,4,3,4,3,4,3,4,3,4,3,4,3,4,3,4,3,4,3,4,3,4,3,4,3,4,3,4,3,4,3,4,3,4,3,4,3,4,3,4,3,4,3,4,3,4,3,4,3,4,3,4,3,4,3,4,3,4,3,4,3,4,3,4,3,4,3,4,3,4,3,4,3,4,3,4,3,4,3,4,3,4,3,4,3,4,3,4,3,4,3,4,3,4,3,4,3,4,3,4,3,4,3,4,3,4,3,4,3,4,3,4,3,4,3,4,3,4,3,4,3,4,3,4,3,4,3,4,3,4,3,4,3,4,3,4,3,4,3,4,3,4,3,4,3,4,3,4,3,4,3,4,3,4,3,4,3,4,3,4,3,4,3,4,3,4,3,4,3,4,3,4,3,4,3,4,3,4,3,4,3,4,3,4,3,4,3,4,3,4,3,4,3,4,3,4,3,4,3,4,3,4,3,4,3,4,3,4,3,4,3,4,3,4,3,4,3,4,3,4,3,4,3,4,3,4,3,4,3,4,3,4,3,4,3,4,3,4,3,4,3,4,
1,2,1,2,1,2,1,2,1,2,1,2,1,2,1,2,1,2,1,2,1,2,1,2,1,2,1,2,1,2,1,2,1,2,1,2,1,2,1,2,1,2,1,2,1,2,1,2,1,2,1,2,1,2,1,2,1,2,1,2,1,2,1,2,1,2,1,2,1,2,1,2,1,2,1,2,1,2,1,2,1,2,1,2,1,2,1,2,1,2,1,2,1,2,1,2,1,2,1,2,1,2,1,2,1,2,1,2,1,2,1,2,1,2,1,2,1,2,1,2,1,2,1,2,1,2,1,2,1,2,1,2,1,2,1,2,1,2,1,2,1,2,1,2,1,2,1,2,1,2,1,2,1,2,1,2,1,2,1,2,1,2,1,2,1,2,1,2,1,2,1,2,1,2,1,2,1,2,1,2,1,2,1,2,1,2,1,2,1,2,1,2,1,2,1,2,1,2,1,2,1,2,1,2,1,2,1,2,1,2,1,2,1,2,1,2,1,2,1,2,1,2,1,2,1,2,1,2,1,2,1,2,1,2,1,2,1,2,1,2,1,2,1,2,1,2,1,2,1,2,1,2,1,2,1,2,1,2,1,2,1,2,1,2,1,2,1,2,1,2,1,2,1,2,1,2,1,2,1,2,1,2,1,2,1,2,1,2,1,2,1,2,1,2,1,2,1,2,1,2,1,2,1,2,1,2,1,2,1,2,1,2,1,2,1,2,1,2,1,2,1,2,1,2,1,2,1,2,1,2,1,2,1,2,1,2,1,2,1,2,1,2,1,2,1,2,1,2,1,2,1,2,1,2,1,2,1,2,1,2,1,2,1,2,1,2,1,2,1,2,1,2,1,2,1,2,1,2,1,2,1,2,1,2,1,2,1,2,1,2,1,2,1,2,1,2,1,2,1,2,1,2,1,2,1,2,1,2,1,2,1,2,1,2,1,2,1,2,1,2,1,2,1,2,1,2,1,2,1,2,1,2,1,2,1,2,1,2,1,2,1,2,1,2,1,2,1,2,1,2,1,2,1,2,1,2,1,2,1,2,1,2,1,2,1,2,1,2,1,2,1,2,1,2,1,2,1,2,1,2,1,2,1,2,1,2,1,2,1,2,1,2,1,2,1,2,1,2,1,2,1,2,1,2,1,2,1,2,1,2,1,2,
3,4,3,4,3,4,3,4,3,4,3,4,3,4,3,4,3,4,3,4,3,4,3,4,3,4,3,4,3,4,3,4,3,4,3,4,3,4,3,4,3,4,3,4,3,4,3,4,3,4,3,4,3,4,3,4,3,4,3,4,3,4,3,4,3,4,3,4,3,4,3,4,3,4,3,4,3,4,3,4,3,4,3,4,3,4,3,4,3,4,3,4,3,4,3,4,3,4,3,4,3,4,3,4,3,4,3,4,3,4,3,4,3,4,3,4,3,4,3,4,3,4,3,4,3,4,3,4,3,4,3,4,3,4,3,4,3,4,3,4,3,4,3,4,3,4,3,4,3,4,3,4,3,4,3,4,3,4,3,4,3,4,3,4,3,4,3,4,3,4,3,4,3,4,3,4,3,4,3,4,3,4,3,4,3,4,3,4,3,4,3,4,3,4,3,4,3,4,3,4,3,4,3,4,3,4,3,4,3,4,3,4,3,4,3,4,3,4,3,4,3,4,3,4,3,4,3,4,3,4,3,4,3,4,3,4,3,4,3,4,3,4,3,4,3,4,3,4,3,4,3,4,3,4,3,4,3,4,3,4,3,4,3,4,3,4,3,4,3,4,3,4,3,4,3,4,3,4,3,4,3,4,3,4,3,4,3,4,3,4,3,4,3,4,3,4,3,4,3,4,3,4,3,4,3,4,3,4,3,4,3,4,3,4,3,4,3,4,3,4,3,4,3,4,3,4,3,4,3,4,3,4,3,4,3,4,3,4,3,4,3,4,3,4,3,4,3,4,3,4,3,4,3,4,3,4,3,4,3,4,3,4,3,4,3,4,3,4,3,4,3,4,3,4,3,4,3,4,3,4,3,4,3,4,3,4,3,4,3,4,3,4,3,4,3,4,3,4,3,4,3,4,3,4,3,4,3,4,3,4,3,4,3,4,3,4,3,4,3,4,3,4,3,4,3,4,3,4,3,4,3,4,3,4,3,4,3,4,3,4,3,4,3,4,3,4,3,4,3,4,3,4,3,4,3,4,3,4,3,4,3,4,3,4,3,4,3,4,3,4,3,4,3,4,3,4,3,4,3,4,3,4,3,4,3,4,3,4,3,4,3,4,3,4,3,4,3,4,3,4,3,4,3,4,3,4,3,4,3,4,3,4,
1,2,1,2,1,2,1,2,1,2,1,2,1,2,1,2,1,2,1,2,1,2,1,2,1,2,1,2,1,2,1,2,1,2,1,2,1,2,1,2,1,2,1,2,1,2,1,2,1,2,1,2,1,2,1,2,1,2,1,2,1,2,1,2,1,2,1,2,1,2,1,2,1,2,1,2,1,2,1,2,1,2,1,2,1,2,1,2,1,2,1,2,1,2,1,2,1,2,1,2,1,2,1,2,1,2,1,2,1,2,1,2,1,2,1,2,1,2,1,2,1,2,1,2,1,2,1,2,1,2,1,2,1,2,1,2,1,2,1,2,1,2,1,2,1,2,1,2,1,2,1,2,1,2,1,2,1,2,1,2,1,2,1,2,1,2,1,2,1,2,1,2,1,2,1,2,1,2,1,2,1,2,1,2,1,2,1,2,1,2,1,2,1,2,1,2,1,2,1,2,1,2,1,2,1,2,1,2,1,2,1,2,1,2,1,2,1,2,1,2,1,2,1,2,1,2,1,2,1,2,1,2,1,2,1,2,1,2,1,2,1,2,1,2,1,2,1,2,1,2,1,2,1,2,1,2,1,2,1,2,1,2,1,2,1,2,1,2,1,2,1,2,1,2,1,2,1,2,1,2,1,2,1,2,1,2,1,2,1,2,1,2,1,2,1,2,1,2,1,2,1,2,1,2,1,2,1,2,1,2,1,2,1,2,1,2,1,2,1,2,1,2,1,2,1,2,1,2,1,2,1,2,1,2,1,2,1,2,1,2,1,2,1,2,1,2,1,2,1,2,1,2,1,2,1,2,1,2,1,2,1,2,1,2,1,2,1,2,1,2,1,2,1,2,1,2,1,2,1,2,1,2,1,2,1,2,1,2,1,2,1,2,1,2,1,2,1,2,1,2,1,2,1,2,1,2,1,2,1,2,1,2,1,2,1,2,1,2,1,2,1,2,1,2,1,2,1,2,1,2,1,2,1,2,1,2,1,2,1,2,1,2,1,2,1,2,1,2,1,2,1,2,1,2,1,2,1,2,1,2,1,2,1,2,1,2,1,2,1,2,1,2,1,2,1,2,1,2,1,2,1,2,1,2,1,2,1,2,1,2,1,2,1,2,1,2,1,2,1,2,1,2,1,2,1,2,1,2,1,2,1,2,
3,4,3,4,3,4,3,4,3,4,3,4,3,4,3,4,3,4,3,4,3,4,3,4,3,4,3,4,3,4,3,4,3,4,3,4,3,4,3,4,3,4,3,4,3,4,3,4,3,4,3,4,3,4,3,4,3,4,3,4,3,4,3,4,3,4,3,4,3,4,3,4,3,4,3,4,3,4,3,4,3,4,3,4,3,4,3,4,3,4,3,4,3,4,3,4,3,4,3,4,3,4,3,4,3,4,3,4,3,4,3,4,3,4,3,4,3,4,3,4,3,4,3,4,3,4,3,4,3,4,3,4,3,4,3,4,3,4,3,4,3,4,3,4,3,4,3,4,3,4,3,4,3,4,3,4,3,4,3,4,3,4,3,4,3,4,3,4,3,4,3,4,3,4,3,4,3,4,3,4,3,4,3,4,3,4,3,4,3,4,3,4,3,4,3,4,3,4,3,4,3,4,3,4,3,4,3,4,3,4,3,4,3,4,3,4,3,4,3,4,3,4,3,4,3,4,3,4,3,4,3,4,3,4,3,4,3,4,3,4,3,4,3,4,3,4,3,4,3,4,3,4,3,4,3,4,3,4,3,4,3,4,3,4,3,4,3,4,3,4,3,4,3,4,3,4,3,4,3,4,3,4,3,4,3,4,3,4,3,4,3,4,3,4,3,4,3,4,3,4,3,4,3,4,3,4,3,4,3,4,3,4,3,4,3,4,3,4,3,4,3,4,3,4,3,4,3,4,3,4,3,4,3,4,3,4,3,4,3,4,3,4,3,4,3,4,3,4,3,4,3,4,3,4,3,4,3,4,3,4,3,4,3,4,3,4,3,4,3,4,3,4,3,4,3,4,3,4,3,4,3,4,3,4,3,4,3,4,3,4,3,4,3,4,3,4,3,4,3,4,3,4,3,4,3,4,3,4,3,4,3,4,3,4,3,4,3,4,3,4,3,4,3,4,3,4,3,4,3,4,3,4,3,4,3,4,3,4,3,4,3,4,3,4,3,4,3,4,3,4,3,4,3,4,3,4,3,4,3,4,3,4,3,4,3,4,3,4,3,4,3,4,3,4,3,4,3,4,3,4,3,4,3,4,3,4,3,4,3,4,3,4,3,4,3,4,3,4,3,4,3,4,3,4,3,4,3,4,3,4,3,4
</data>
 </layer>
 <objectgroup color="#ff0000" id="2" name="Entities"/>
</map>
